NRRD0004
# Complete NRRD file format specification at:
# http://teem.sourceforge.net/nrrd/format.html
type: unsigned char
dimension: 3
space: left-posterior-superior
sizes: 512 512 268
space directions: (0.97656200000000004,0,0) (0,0.97656200000000004,0) (0,0,3.2700195488721806)
kinds: domain domain domain
encoding: gzip
space origin: (-250.00000000000003,-250.00000000000003,-884.59001954887265)
Segment0_Color:=0.615686 0.423529 0.635294
Segment0_ColorAutoGenerated:=1
Segment0_Extent:=50 494 95 401 0 267
Segment0_ID:=spleen
Segment0_LabelValue:=1
Segment0_Layer:=0
Segment0_Name:=spleen
Segment0_NameAutoGenerated:=1
Segment0_Tags:=Segmentation.Status:inprogress|TerminologyEntry:Segmentation category and type - DICOM master list~SCT^123037004^Anatomical Structure~SCT^78961009^Spleen~^^~Anatomic codes - DICOM master list~^^~^^|
Segment100_Color:=0.992157 0.909804 0.619608
Segment100_ColorAutoGenerated:=1
Segment100_Extent:=50 494 95 401 0 267
Segment100_ID:=rib_left_12
Segment100_LabelValue:=103
Segment100_Layer:=0
Segment100_Name:=left rib 12
Segment100_NameAutoGenerated:=1
Segment100_Tags:=Segmentation.Status:inprogress|TerminologyEntry:Segmentation category and type - Total Segmentator~SCT^123037004^Anatomical Structure~SCT^43993008^Twelfth rib~SCT^7771000^Left~Anatomic codes - DICOM master list~^^~^^|
Segment101_Color:=0.992157 0.909804 0.619608
Segment101_ColorAutoGenerated:=1
Segment101_Extent:=50 494 95 401 0 267
Segment101_ID:=rib_right_1
Segment101_LabelValue:=104
Segment101_Layer:=0
Segment101_Name:=right rib 1
Segment101_NameAutoGenerated:=1
Segment101_Tags:=Segmentation.Status:inprogress|TerminologyEntry:Segmentation category and type - Total Segmentator~SCT^123037004^Anatomical Structure~SCT^48535007^First rib~SCT^24028007^Right~Anatomic codes - DICOM master list~^^~^^|
Segment102_Color:=0.992157 0.909804 0.619608
Segment102_ColorAutoGenerated:=1
Segment102_Extent:=50 494 95 401 0 267
Segment102_ID:=rib_right_2
Segment102_LabelValue:=105
Segment102_Layer:=0
Segment102_Name:=right rib 2
Segment102_NameAutoGenerated:=1
Segment102_Tags:=Segmentation.Status:inprogress|TerminologyEntry:Segmentation category and type - Total Segmentator~SCT^123037004^Anatomical Structure~SCT^78247007^Second rib~SCT^24028007^Right~Anatomic codes - DICOM master list~^^~^^|
Segment103_Color:=0.992157 0.909804 0.619608
Segment103_ColorAutoGenerated:=1
Segment103_Extent:=50 494 95 401 0 267
Segment103_ID:=rib_right_3
Segment103_LabelValue:=106
Segment103_Layer:=0
Segment103_Name:=right rib 3
Segment103_NameAutoGenerated:=1
Segment103_Tags:=Segmentation.Status:inprogress|TerminologyEntry:Segmentation category and type - Total Segmentator~SCT^123037004^Anatomical Structure~SCT^25888004^Third rib~SCT^24028007^Right~Anatomic codes - DICOM master list~^^~^^|
Segment104_Color:=0.992157 0.909804 0.619608
Segment104_ColorAutoGenerated:=1
Segment104_Extent:=50 494 95 401 0 267
Segment104_ID:=rib_right_4
Segment104_LabelValue:=107
Segment104_Layer:=0
Segment104_Name:=right rib 4
Segment104_NameAutoGenerated:=1
Segment104_Tags:=Segmentation.Status:inprogress|TerminologyEntry:Segmentation category and type - Total Segmentator~SCT^123037004^Anatomical Structure~SCT^25523003^Fourth rib~SCT^24028007^Right~Anatomic codes - DICOM master list~^^~^^|
Segment105_Color:=0.992157 0.909804 0.619608
Segment105_ColorAutoGenerated:=1
Segment105_Extent:=50 494 95 401 0 267
Segment105_ID:=rib_right_5
Segment105_LabelValue:=108
Segment105_Layer:=0
Segment105_Name:=right rib 5
Segment105_NameAutoGenerated:=1
Segment105_Tags:=Segmentation.Status:inprogress|TerminologyEntry:Segmentation category and type - Total Segmentator~SCT^123037004^Anatomical Structure~SCT^15339008^Fifth rib~SCT^24028007^Right~Anatomic codes - DICOM master list~^^~^^|
Segment106_Color:=0.992157 0.909804 0.619608
Segment106_ColorAutoGenerated:=1
Segment106_Extent:=50 494 95 401 0 267
Segment106_ID:=rib_right_6
Segment106_LabelValue:=109
Segment106_Layer:=0
Segment106_Name:=right rib 6
Segment106_NameAutoGenerated:=1
Segment106_Tags:=Segmentation.Status:inprogress|TerminologyEntry:Segmentation category and type - Total Segmentator~SCT^123037004^Anatomical Structure~SCT^59558009^Sixth rib~SCT^24028007^Right~Anatomic codes - DICOM master list~^^~^^|
Segment107_Color:=0.992157 0.909804 0.619608
Segment107_ColorAutoGenerated:=1
Segment107_Extent:=50 494 95 401 0 267
Segment107_ID:=rib_right_7
Segment107_LabelValue:=110
Segment107_Layer:=0
Segment107_Name:=right rib 7
Segment107_NameAutoGenerated:=1
Segment107_Tags:=Segmentation.Status:inprogress|TerminologyEntry:Segmentation category and type - Total Segmentator~SCT^123037004^Anatomical Structure~SCT^24915002^Seventh rib~SCT^24028007^Right~Anatomic codes - DICOM master list~^^~^^|
Segment108_Color:=0.992157 0.909804 0.619608
Segment108_ColorAutoGenerated:=1
Segment108_Extent:=50 494 95 401 0 267
Segment108_ID:=rib_right_8
Segment108_LabelValue:=111
Segment108_Layer:=0
Segment108_Name:=right rib 8
Segment108_NameAutoGenerated:=1
Segment108_Tags:=Segmentation.Status:inprogress|TerminologyEntry:Segmentation category and type - Total Segmentator~SCT^123037004^Anatomical Structure~SCT^5953002^Eighth rib~SCT^24028007^Right~Anatomic codes - DICOM master list~^^~^^|
Segment109_Color:=0.992157 0.909804 0.619608
Segment109_ColorAutoGenerated:=1
Segment109_Extent:=50 494 95 401 0 267
Segment109_ID:=rib_right_9
Segment109_LabelValue:=112
Segment109_Layer:=0
Segment109_Name:=right rib 9
Segment109_NameAutoGenerated:=1
Segment109_Tags:=Segmentation.Status:inprogress|TerminologyEntry:Segmentation category and type - Total Segmentator~SCT^123037004^Anatomical Structure~SCT^22565002^Ninth rib~SCT^24028007^Right~Anatomic codes - DICOM master list~^^~^^|
Segment10_Color:=0.878431 0.729412 0.635294
Segment10_ColorAutoGenerated:=1
Segment10_Extent:=50 494 95 401 0 267
Segment10_ID:=lung_lower_lobe_left
Segment10_LabelValue:=11
Segment10_Layer:=0
Segment10_Name:=inferior lobe of left lung
Segment10_NameAutoGenerated:=1
Segment10_Tags:=Segmentation.Status:inprogress|TerminologyEntry:Segmentation category and type - DICOM master list~SCT^123037004^Anatomical Structure~SCT^90572001^Lower lobe of lung~SCT^7771000^Left~Anatomic codes - DICOM master list~^^~^^|
Segment110_Color:=0.992157 0.909804 0.619608
Segment110_ColorAutoGenerated:=1
Segment110_Extent:=50 494 95 401 0 267
Segment110_ID:=rib_right_10
Segment110_LabelValue:=113
Segment110_Layer:=0
Segment110_Name:=right rib 10
Segment110_NameAutoGenerated:=1
Segment110_Tags:=Segmentation.Status:inprogress|TerminologyEntry:Segmentation category and type - Total Segmentator~SCT^123037004^Anatomical Structure~SCT^77644006^Tenth rib~SCT^24028007^Right~Anatomic codes - DICOM master list~^^~^^|
Segment111_Color:=0.992157 0.909804 0.619608
Segment111_ColorAutoGenerated:=1
Segment111_Extent:=50 494 95 401 0 267
Segment111_ID:=rib_right_11
Segment111_LabelValue:=114
Segment111_Layer:=0
Segment111_Name:=right rib 11
Segment111_NameAutoGenerated:=1
Segment111_Tags:=Segmentation.Status:inprogress|TerminologyEntry:Segmentation category and type - Total Segmentator~SCT^123037004^Anatomical Structure~SCT^58830002^Eleventh rib~SCT^24028007^Right~Anatomic codes - DICOM master list~^^~^^|
Segment112_Color:=0.992157 0.909804 0.619608
Segment112_ColorAutoGenerated:=1
Segment112_Extent:=50 494 95 401 0 267
Segment112_ID:=rib_right_12
Segment112_LabelValue:=115
Segment112_Layer:=0
Segment112_Name:=right rib 12
Segment112_NameAutoGenerated:=1
Segment112_Tags:=Segmentation.Status:inprogress|TerminologyEntry:Segmentation category and type - Total Segmentator~SCT^123037004^Anatomical Structure~SCT^43993008^Twelfth rib~SCT^24028007^Right~Anatomic codes - DICOM master list~^^~^^|
Segment113_Color:=0.956863 0.85098 0.603922
Segment113_ColorAutoGenerated:=1
Segment113_Extent:=50 494 95 401 0 267
Segment113_ID:=sternum
Segment113_LabelValue:=116
Segment113_Layer:=0
Segment113_Name:=sternum
Segment113_NameAutoGenerated:=1
Segment113_Tags:=Segmentation.Status:inprogress|TerminologyEntry:Segmentation category and type - DICOM master list~SCT^123037004^Anatomical Structure~SCT^56873002^Sternum~^^~Anatomic codes - DICOM master list~^^~^^|
Segment114_Color:=0.435294 0.721569 0.823529
Segment114_ColorAutoGenerated:=1
Segment114_Extent:=50 494 95 401 0 267
Segment114_ID:=costal_cartilages
Segment114_LabelValue:=117
Segment114_Layer:=0
Segment114_Name:=costal cartilage
Segment114_NameAutoGenerated:=1
Segment114_Tags:=Segmentation.Status:inprogress|TerminologyEntry:Segmentation category and type - Total Segmentator~SCT^123037004^Anatomical Structure~SCT^50016007^Costal cartilage~^^~Anatomic codes - DICOM master list~^^~^^|
Segment11_Color:=0.67451 0.541176 0.45098
Segment11_ColorAutoGenerated:=1
Segment11_Extent:=50 494 95 401 0 267
Segment11_ID:=lung_upper_lobe_right
Segment11_LabelValue:=12
Segment11_Layer:=0
Segment11_Name:=superior lobe of right lung
Segment11_NameAutoGenerated:=1
Segment11_Tags:=Segmentation.Status:inprogress|TerminologyEntry:Segmentation category and type - DICOM master list~SCT^123037004^Anatomical Structure~SCT^45653009^Upper lobe of lung~SCT^24028007^Right~Anatomic codes - DICOM master list~^^~^^|
Segment12_Color:=0.792157 0.643137 0.54902
Segment12_ColorAutoGenerated:=1
Segment12_Extent:=50 494 95 401 0 267
Segment12_ID:=lung_middle_lobe_right
Segment12_LabelValue:=13
Segment12_Layer:=0
Segment12_Name:=middle lobe of right lung
Segment12_NameAutoGenerated:=1
Segment12_Tags:=Segmentation.Status:inprogress|TerminologyEntry:Segmentation category and type - DICOM master list~SCT^123037004^Anatomical Structure~SCT^72481006^Middle lobe of right lung~^^~Anatomic codes - DICOM master list~^^~^^|
Segment13_Color:=0.878431 0.729412 0.635294
Segment13_ColorAutoGenerated:=1
Segment13_Extent:=50 494 95 401 0 267
Segment13_ID:=lung_lower_lobe_right
Segment13_LabelValue:=14
Segment13_Layer:=0
Segment13_Name:=inferior lobe of right lung
Segment13_NameAutoGenerated:=1
Segment13_Tags:=Segmentation.Status:inprogress|TerminologyEntry:Segmentation category and type - DICOM master list~SCT^123037004^Anatomical Structure~SCT^90572001^Lower lobe of lung~SCT^24028007^Right~Anatomic codes - DICOM master list~^^~^^|
Segment14_Color:=0.827451 0.670588 0.560784
Segment14_ColorAutoGenerated:=1
Segment14_Extent:=50 494 95 401 0 267
Segment14_ID:=esophagus
Segment14_LabelValue:=15
Segment14_Layer:=0
Segment14_Name:=esophagus
Segment14_NameAutoGenerated:=1
Segment14_Tags:=Segmentation.Status:inprogress|TerminologyEntry:Segmentation category and type - DICOM master list~SCT^123037004^Anatomical Structure~SCT^32849002^Esophagus~^^~Anatomic codes - DICOM master list~^^~^^|
Segment15_Color:=0.713725 0.894118 1
Segment15_ColorAutoGenerated:=1
Segment15_Extent:=50 494 95 401 0 267
Segment15_ID:=trachea
Segment15_LabelValue:=16
Segment15_Layer:=0
Segment15_Name:=trachea
Segment15_NameAutoGenerated:=1
Segment15_Tags:=Segmentation.Status:inprogress|TerminologyEntry:Segmentation category and type - DICOM master list~SCT^123037004^Anatomical Structure~SCT^44567001^Trachea~^^~Anatomic codes - DICOM master list~^^~^^|
Segment16_Color:=0.862745 0.627451 0.117647
Segment16_ColorAutoGenerated:=1
Segment16_Extent:=50 494 95 401 0 267
Segment16_ID:=thyroid_gland
Segment16_LabelValue:=17
Segment16_Layer:=0
Segment16_Name:=thyroid
Segment16_NameAutoGenerated:=1
Segment16_Tags:=Segmentation.Status:inprogress|TerminologyEntry:Segmentation category and type - Total Segmentator~SCT^123037004^Anatomical Structure~SCT^69748006^Thyroid gland~^^~Anatomic codes - DICOM master list~^^~^^|
Segment17_Color:=0.803922 0.654902 0.556863
Segment17_ColorAutoGenerated:=1
Segment17_Extent:=50 494 95 401 0 267
Segment17_ID:=small_bowel
Segment17_LabelValue:=18
Segment17_Layer:=0
Segment17_Name:=small bowel
Segment17_NameAutoGenerated:=1
Segment17_Tags:=Segmentation.Status:inprogress|TerminologyEntry:Segmentation category and type - DICOM master list~SCT^123037004^Anatomical Structure~SCT^30315005^Small Intestine~^^~Anatomic codes - DICOM master list~^^~^^|
Segment18_Color:=1 0.992157 0.898039
Segment18_ColorAutoGenerated:=1
Segment18_Extent:=50 494 95 401 0 267
Segment18_ID:=duodenum
Segment18_LabelValue:=19
Segment18_Layer:=0
Segment18_Name:=duodenum
Segment18_NameAutoGenerated:=1
Segment18_Tags:=Segmentation.Status:inprogress|TerminologyEntry:Segmentation category and type - DICOM master list~SCT^123037004^Anatomical Structure~SCT^38848004^Duodenum~^^~Anatomic codes - DICOM master list~^^~^^|
Segment19_Color:=0.8 0.658824 0.560784
Segment19_ColorAutoGenerated:=1
Segment19_Extent:=50 494 95 401 0 267
Segment19_ID:=colon
Segment19_LabelValue:=20
Segment19_Layer:=0
Segment19_Name:=colon
Segment19_NameAutoGenerated:=1
Segment19_Tags:=Segmentation.Status:inprogress|TerminologyEntry:Segmentation category and type - DICOM master list~SCT^123037004^Anatomical Structure~SCT^71854001^Colon~^^~Anatomic codes - DICOM master list~^^~^^|
Segment1_Color:=0.72549 0.4 0.32549
Segment1_ColorAutoGenerated:=1
Segment1_Extent:=50 494 95 401 0 267
Segment1_ID:=kidney_right
Segment1_LabelValue:=2
Segment1_Layer:=0
Segment1_Name:=right kidney
Segment1_NameAutoGenerated:=1
Segment1_Tags:=Segmentation.Status:inprogress|TerminologyEntry:Segmentation category and type - DICOM master list~SCT^123037004^Anatomical Structure~SCT^64033007^Kidney~SCT^24028007^Right~Anatomic codes - DICOM master list~^^~^^|
Segment20_Color:=0.870588 0.603922 0.517647
Segment20_ColorAutoGenerated:=1
Segment20_Extent:=50 494 95 401 0 267
Segment20_ID:=urinary_bladder
Segment20_LabelValue:=21
Segment20_Layer:=0
Segment20_Name:=urinary bladder
Segment20_NameAutoGenerated:=1
Segment20_Tags:=Segmentation.Status:inprogress|TerminologyEntry:Segmentation category and type - DICOM master list~SCT^123037004^Anatomical Structure~SCT^89837001^Urinary bladder~^^~Anatomic codes - DICOM master list~^^~^^|
Segment21_Color:=0.901961 0.619608 0.54902
Segment21_ColorAutoGenerated:=1
Segment21_Extent:=50 494 95 401 0 267
Segment21_ID:=prostate
Segment21_LabelValue:=22
Segment21_Layer:=0
Segment21_Name:=prostate
Segment21_NameAutoGenerated:=1
Segment21_Tags:=Segmentation.Status:inprogress|TerminologyEntry:Segmentation category and type - DICOM master list~SCT^123037004^Anatomical Structure~SCT^41216001^Prostate~^^~Anatomic codes - DICOM master list~^^~^^|
Segment22_Color:=0.831373 0.737255 0.4
Segment22_ColorAutoGenerated:=1
Segment22_Extent:=50 494 95 401 0 267
Segment22_ID:=sacrum
Segment22_LabelValue:=25
Segment22_Layer:=0
Segment22_Name:=Sacrum
Segment22_NameAutoGenerated:=1
Segment22_Tags:=Segmentation.Status:inprogress|TerminologyEntry:Segmentation category and type - Total Segmentator~SCT^123037004^Anatomical Structure~SCT^54735007^Sacrum~^^~Anatomic codes - DICOM master list~^^~^^|
Segment23_Color:=0.831373 0.815686 0.478431
Segment23_ColorAutoGenerated:=1
Segment23_Extent:=50 494 95 401 0 267
Segment23_ID:=vertebrae_S1
Segment23_LabelValue:=26
Segment23_Layer:=0
Segment23_Name:=S1 vertebra
Segment23_NameAutoGenerated:=1
Segment23_Tags:=Segmentation.Status:inprogress|TerminologyEntry:Segmentation category and type - Total Segmentator~SCT^123037004^Anatomical Structure~SCT^65985001^S1 vertebra~^^~Anatomic codes - DICOM master list~^^~^^|
Segment24_Color:=0.831373 0.737255 0.4
Segment24_ColorAutoGenerated:=1
Segment24_Extent:=50 494 95 401 0 267
Segment24_ID:=vertebrae_L5
Segment24_LabelValue:=27
Segment24_Layer:=0
Segment24_Name:=L5 vertebra
Segment24_NameAutoGenerated:=1
Segment24_Tags:=Segmentation.Status:inprogress|TerminologyEntry:Segmentation category and type - Total Segmentator~SCT^123037004^Anatomical Structure~SCT^49668003^L5 vertebra~^^~Anatomic codes - DICOM master list~^^~^^|
Segment25_Color:=0.831373 0.737255 0.4
Segment25_ColorAutoGenerated:=1
Segment25_Extent:=50 494 95 401 0 267
Segment25_ID:=vertebrae_L4
Segment25_LabelValue:=28
Segment25_Layer:=0
Segment25_Name:=L4 vertebra
Segment25_NameAutoGenerated:=1
Segment25_Tags:=Segmentation.Status:inprogress|TerminologyEntry:Segmentation category and type - Total Segmentator~SCT^123037004^Anatomical Structure~SCT^11994002^L4 vertebra~^^~Anatomic codes - DICOM master list~^^~^^|
Segment26_Color:=0.831373 0.737255 0.4
Segment26_ColorAutoGenerated:=1
Segment26_Extent:=50 494 95 401 0 267
Segment26_ID:=vertebrae_L3
Segment26_LabelValue:=29
Segment26_Layer:=0
Segment26_Name:=L3 vertebra
Segment26_NameAutoGenerated:=1
Segment26_Tags:=Segmentation.Status:inprogress|TerminologyEntry:Segmentation category and type - Total Segmentator~SCT^123037004^Anatomical Structure~SCT^36470004^L3 vertebra~^^~Anatomic codes - DICOM master list~^^~^^|
Segment27_Color:=0.831373 0.737255 0.4
Segment27_ColorAutoGenerated:=1
Segment27_Extent:=50 494 95 401 0 267
Segment27_ID:=vertebrae_L2
Segment27_LabelValue:=30
Segment27_Layer:=0
Segment27_Name:=L2 vertebra
Segment27_NameAutoGenerated:=1
Segment27_Tags:=Segmentation.Status:inprogress|TerminologyEntry:Segmentation category and type - Total Segmentator~SCT^123037004^Anatomical Structure~SCT^14293000^L2 vertebra~^^~Anatomic codes - DICOM master list~^^~^^|
Segment28_Color:=0.831373 0.737255 0.4
Segment28_ColorAutoGenerated:=1
Segment28_Extent:=50 494 95 401 0 267
Segment28_ID:=vertebrae_L1
Segment28_LabelValue:=31
Segment28_Layer:=0
Segment28_Name:=L1 vertebra
Segment28_NameAutoGenerated:=1
Segment28_Tags:=Segmentation.Status:inprogress|TerminologyEntry:Segmentation category and type - Total Segmentator~SCT^123037004^Anatomical Structure~SCT^66794005^L1 vertebra~^^~Anatomic codes - DICOM master list~^^~^^|
Segment29_Color:=0.886275 0.792157 0.52549
Segment29_ColorAutoGenerated:=1
Segment29_Extent:=50 494 95 401 0 267
Segment29_ID:=vertebrae_T12
Segment29_LabelValue:=32
Segment29_Layer:=0
Segment29_Name:=T12 vertebra
Segment29_NameAutoGenerated:=1
Segment29_Tags:=Segmentation.Status:inprogress|TerminologyEntry:Segmentation category and type - Total Segmentator~SCT^123037004^Anatomical Structure~SCT^23215003^T12 vertebra~^^~Anatomic codes - DICOM master list~^^~^^|
Segment2_Color:=0.72549 0.4 0.32549
Segment2_ColorAutoGenerated:=1
Segment2_Extent:=50 494 95 401 0 267
Segment2_ID:=kidney_left
Segment2_LabelValue:=3
Segment2_Layer:=0
Segment2_Name:=left kidney
Segment2_NameAutoGenerated:=1
Segment2_Tags:=Segmentation.Status:inprogress|TerminologyEntry:Segmentation category and type - DICOM master list~SCT^123037004^Anatomical Structure~SCT^64033007^Kidney~SCT^7771000^Left~Anatomic codes - DICOM master list~^^~^^|
Segment30_Color:=0.886275 0.792157 0.52549
Segment30_ColorAutoGenerated:=1
Segment30_Extent:=50 494 95 401 0 267
Segment30_ID:=vertebrae_T11
Segment30_LabelValue:=33
Segment30_Layer:=0
Segment30_Name:=T11 vertebra
Segment30_NameAutoGenerated:=1
Segment30_Tags:=Segmentation.Status:inprogress|TerminologyEntry:Segmentation category and type - Total Segmentator~SCT^123037004^Anatomical Structure~SCT^12989004^T11 vertebra~^^~Anatomic codes - DICOM master list~^^~^^|
Segment31_Color:=0.886275 0.792157 0.52549
Segment31_ColorAutoGenerated:=1
Segment31_Extent:=50 494 95 401 0 267
Segment31_ID:=vertebrae_T10
Segment31_LabelValue:=34
Segment31_Layer:=0
Segment31_Name:=T10 vertebra
Segment31_NameAutoGenerated:=1
Segment31_Tags:=Segmentation.Status:inprogress|TerminologyEntry:Segmentation category and type - Total Segmentator~SCT^123037004^Anatomical Structure~SCT^7610001^T10 vertebra~^^~Anatomic codes - DICOM master list~^^~^^|
Segment32_Color:=0.886275 0.792157 0.52549
Segment32_ColorAutoGenerated:=1
Segment32_Extent:=50 494 95 401 0 267
Segment32_ID:=vertebrae_T9
Segment32_LabelValue:=35
Segment32_Layer:=0
Segment32_Name:=T9 vertebra
Segment32_NameAutoGenerated:=1
Segment32_Tags:=Segmentation.Status:inprogress|TerminologyEntry:Segmentation category and type - Total Segmentator~SCT^123037004^Anatomical Structure~SCT^82687006^T9 vertebra~^^~Anatomic codes - DICOM master list~^^~^^|
Segment33_Color:=0.886275 0.792157 0.52549
Segment33_ColorAutoGenerated:=1
Segment33_Extent:=50 494 95 401 0 267
Segment33_ID:=vertebrae_T8
Segment33_LabelValue:=36
Segment33_Layer:=0
Segment33_Name:=T8 vertebra
Segment33_NameAutoGenerated:=1
Segment33_Tags:=Segmentation.Status:inprogress|TerminologyEntry:Segmentation category and type - Total Segmentator~SCT^123037004^Anatomical Structure~SCT^11068009^T8 vertebra~^^~Anatomic codes - DICOM master list~^^~^^|
Segment34_Color:=0.886275 0.792157 0.52549
Segment34_ColorAutoGenerated:=1
Segment34_Extent:=50 494 95 401 0 267
Segment34_ID:=vertebrae_T7
Segment34_LabelValue:=37
Segment34_Layer:=0
Segment34_Name:=T7 vertebra
Segment34_NameAutoGenerated:=1
Segment34_Tags:=Segmentation.Status:inprogress|TerminologyEntry:Segmentation category and type - Total Segmentator~SCT^123037004^Anatomical Structure~SCT^62487009^T7 vertebra~^^~Anatomic codes - DICOM master list~^^~^^|
Segment35_Color:=0.886275 0.792157 0.52549
Segment35_ColorAutoGenerated:=1
Segment35_Extent:=50 494 95 401 0 267
Segment35_ID:=vertebrae_T6
Segment35_LabelValue:=38
Segment35_Layer:=0
Segment35_Name:=T6 vertebra
Segment35_NameAutoGenerated:=1
Segment35_Tags:=Segmentation.Status:inprogress|TerminologyEntry:Segmentation category and type - Total Segmentator~SCT^123037004^Anatomical Structure~SCT^45296009^T6 vertebra~^^~Anatomic codes - DICOM master list~^^~^^|
Segment36_Color:=0.886275 0.792157 0.52549
Segment36_ColorAutoGenerated:=1
Segment36_Extent:=50 494 95 401 0 267
Segment36_ID:=vertebrae_T5
Segment36_LabelValue:=39
Segment36_Layer:=0
Segment36_Name:=T5 vertebra
Segment36_NameAutoGenerated:=1
Segment36_Tags:=Segmentation.Status:inprogress|TerminologyEntry:Segmentation category and type - Total Segmentator~SCT^123037004^Anatomical Structure~SCT^56401006^T5 vertebra~^^~Anatomic codes - DICOM master list~^^~^^|
Segment37_Color:=0.886275 0.792157 0.52549
Segment37_ColorAutoGenerated:=1
Segment37_Extent:=50 494 95 401 0 267
Segment37_ID:=vertebrae_T4
Segment37_LabelValue:=40
Segment37_Layer:=0
Segment37_Name:=T4 vertebra
Segment37_NameAutoGenerated:=1
Segment37_Tags:=Segmentation.Status:inprogress|TerminologyEntry:Segmentation category and type - Total Segmentator~SCT^123037004^Anatomical Structure~SCT^73071006^T4 vertebra~^^~Anatomic codes - DICOM master list~^^~^^|
Segment38_Color:=0.886275 0.792157 0.52549
Segment38_ColorAutoGenerated:=1
Segment38_Extent:=50 494 95 401 0 267
Segment38_ID:=vertebrae_T3
Segment38_LabelValue:=41
Segment38_Layer:=0
Segment38_Name:=T3 vertebra
Segment38_NameAutoGenerated:=1
Segment38_Tags:=Segmentation.Status:inprogress|TerminologyEntry:Segmentation category and type - Total Segmentator~SCT^123037004^Anatomical Structure~SCT^1626008^T3 vertebra~^^~Anatomic codes - DICOM master list~^^~^^|
Segment39_Color:=0.886275 0.792157 0.52549
Segment39_ColorAutoGenerated:=1
Segment39_Extent:=50 494 95 401 0 267
Segment39_ID:=vertebrae_T2
Segment39_LabelValue:=42
Segment39_Layer:=0
Segment39_Name:=T2 vertebra
Segment39_NameAutoGenerated:=1
Segment39_Tags:=Segmentation.Status:inprogress|TerminologyEntry:Segmentation category and type - Total Segmentator~SCT^123037004^Anatomical Structure~SCT^53733008^T2 vertebra~^^~Anatomic codes - DICOM master list~^^~^^|
Segment3_Color:=1 0.333333 0
Segment3_ColorAutoGenerated:=0
Segment3_Extent:=50 494 95 401 0 267
Segment3_ID:=gallbladder
Segment3_LabelValue:=4
Segment3_Layer:=0
Segment3_Name:=gallbladder
Segment3_NameAutoGenerated:=1
Segment3_Tags:=Segmentation.Status:inprogress|TerminologyEntry:Segmentation category and type - DICOM master list~SCT^123037004^Anatomical Structure~SCT^28231008^Gallbladder~^^~Anatomic codes - DICOM master list~^^~^^|
Segment40_Color:=0.886275 0.792157 0.52549
Segment40_ColorAutoGenerated:=1
Segment40_Extent:=50 494 95 401 0 267
Segment40_ID:=vertebrae_T1
Segment40_LabelValue:=43
Segment40_Layer:=0
Segment40_Name:=T1 vertebra
Segment40_NameAutoGenerated:=1
Segment40_Tags:=Segmentation.Status:inprogress|TerminologyEntry:Segmentation category and type - Total Segmentator~SCT^123037004^Anatomical Structure~SCT^64864005^T1 vertebra~^^~Anatomic codes - DICOM master list~^^~^^|
Segment41_Color:=1 1 0.811765
Segment41_ColorAutoGenerated:=1
Segment41_Extent:=50 494 95 401 0 267
Segment41_ID:=vertebrae_C7
Segment41_LabelValue:=44
Segment41_Layer:=0
Segment41_Name:=C7 vertebra
Segment41_NameAutoGenerated:=1
Segment41_Tags:=Segmentation.Status:inprogress|TerminologyEntry:Segmentation category and type - Total Segmentator~SCT^123037004^Anatomical Structure~SCT^87391001^C7 vertebra~^^~Anatomic codes - DICOM master list~^^~^^|
Segment42_Color:=1 1 0.811765
Segment42_ColorAutoGenerated:=1
Segment42_Extent:=50 494 95 401 0 267
Segment42_ID:=vertebrae_C6
Segment42_LabelValue:=45
Segment42_Layer:=0
Segment42_Name:=C6 vertebra
Segment42_NameAutoGenerated:=1
Segment42_Tags:=Segmentation.Status:inprogress|TerminologyEntry:Segmentation category and type - Total Segmentator~SCT^123037004^Anatomical Structure~SCT^36054005^C6 vertebra~^^~Anatomic codes - DICOM master list~^^~^^|
Segment43_Color:=1 1 0.811765
Segment43_ColorAutoGenerated:=1
Segment43_Extent:=50 494 95 401 0 267
Segment43_ID:=vertebrae_C5
Segment43_LabelValue:=46
Segment43_Layer:=0
Segment43_Name:=C5 vertebra
Segment43_NameAutoGenerated:=1
Segment43_Tags:=Segmentation.Status:inprogress|TerminologyEntry:Segmentation category and type - Total Segmentator~SCT^123037004^Anatomical Structure~SCT^36978003^C5 vertebra~^^~Anatomic codes - DICOM master list~^^~^^|
Segment44_Color:=1 1 0.811765
Segment44_ColorAutoGenerated:=1
Segment44_Extent:=50 494 95 401 0 267
Segment44_ID:=vertebrae_C4
Segment44_LabelValue:=47
Segment44_Layer:=0
Segment44_Name:=C4 vertebra
Segment44_NameAutoGenerated:=1
Segment44_Tags:=Segmentation.Status:inprogress|TerminologyEntry:Segmentation category and type - Total Segmentator~SCT^123037004^Anatomical Structure~SCT^5329002^C4 vertebra~^^~Anatomic codes - DICOM master list~^^~^^|
Segment45_Color:=1 1 0.811765
Segment45_ColorAutoGenerated:=1
Segment45_Extent:=50 494 95 401 0 267
Segment45_ID:=vertebrae_C3
Segment45_LabelValue:=48
Segment45_Layer:=0
Segment45_Name:=C3 vertebra
Segment45_NameAutoGenerated:=1
Segment45_Tags:=Segmentation.Status:inprogress|TerminologyEntry:Segmentation category and type - Total Segmentator~SCT^123037004^Anatomical Structure~SCT^113205007^C3 vertebra~^^~Anatomic codes - DICOM master list~^^~^^|
Segment46_Color:=1 1 0.811765
Segment46_ColorAutoGenerated:=1
Segment46_Extent:=50 494 95 401 0 267
Segment46_ID:=vertebrae_C2
Segment46_LabelValue:=49
Segment46_Layer:=0
Segment46_Name:=C2 vertebra
Segment46_NameAutoGenerated:=1
Segment46_Tags:=Segmentation.Status:inprogress|TerminologyEntry:Segmentation category and type - Total Segmentator~SCT^123037004^Anatomical Structure~SCT^39976000^C2 vertebra~^^~Anatomic codes - DICOM master list~^^~^^|
Segment47_Color:=1 1 0.811765
Segment47_ColorAutoGenerated:=1
Segment47_Extent:=50 494 95 401 0 267
Segment47_ID:=vertebrae_C1
Segment47_LabelValue:=50
Segment47_Layer:=0
Segment47_Name:=C1 vertebra
Segment47_NameAutoGenerated:=1
Segment47_Tags:=Segmentation.Status:inprogress|TerminologyEntry:Segmentation category and type - Total Segmentator~SCT^123037004^Anatomical Structure~SCT^14806007^C1 vertebra~^^~Anatomic codes - DICOM master list~^^~^^|
Segment48_Color:=0.807843 0.431373 0.329412
Segment48_ColorAutoGenerated:=1
Segment48_Extent:=50 494 95 401 0 267
Segment48_ID:=heart
Segment48_LabelValue:=51
Segment48_Layer:=0
Segment48_Name:=heart
Segment48_NameAutoGenerated:=1
Segment48_Tags:=Segmentation.Status:inprogress|TerminologyEntry:Segmentation category and type - DICOM master list~SCT^123037004^Anatomical Structure~SCT^80891009^Heart~^^~Anatomic codes - DICOM master list~^^~^^|
Segment49_Color:=0.878431 0.380392 0.298039
Segment49_ColorAutoGenerated:=1
Segment49_Extent:=50 494 95 401 0 267
Segment49_ID:=aorta
Segment49_LabelValue:=52
Segment49_Layer:=0
Segment49_Name:=aorta
Segment49_NameAutoGenerated:=1
Segment49_Tags:=Segmentation.Status:inprogress|TerminologyEntry:Segmentation category and type - DICOM master list~SCT^123037004^Anatomical Structure~SCT^15825003^Aorta~^^~Anatomic codes - DICOM master list~^^~^^|
Segment4_Color:=0.866667 0.509804 0.396078
Segment4_ColorAutoGenerated:=1
Segment4_Extent:=50 494 95 401 0 267
Segment4_ID:=liver
Segment4_LabelValue:=5
Segment4_Layer:=0
Segment4_Name:=liver
Segment4_NameAutoGenerated:=1
Segment4_Tags:=Segmentation.Status:inprogress|TerminologyEntry:Segmentation category and type - DICOM master list~SCT^123037004^Anatomical Structure~SCT^10200004^Liver~^^~Anatomic codes - DICOM master list~^^~^^|
Segment50_Color:=0.764706 0.176471 0.0980392
Segment50_ColorAutoGenerated:=1
Segment50_Extent:=50 494 95 401 0 267
Segment50_ID:=pulmonary_vein
Segment50_LabelValue:=53
Segment50_Layer:=0
Segment50_Name:=pulmonary vein
Segment50_NameAutoGenerated:=1
Segment50_Tags:=Segmentation.Status:inprogress|TerminologyEntry:Segmentation category and type - Total Segmentator~SCT^123037004^Anatomical Structure~SCT^122972007^Pulmonary vein~^^~Anatomic codes - DICOM master list~^^~^^|
Segment51_Color:=0.768627 0.47451 0.309804
Segment51_ColorAutoGenerated:=1
Segment51_Extent:=50 494 95 401 0 267
Segment51_ID:=brachiocephalic_trunk
Segment51_LabelValue:=54
Segment51_Layer:=0
Segment51_Name:=brachiocephalic trunk
Segment51_NameAutoGenerated:=1
Segment51_Tags:=Segmentation.Status:inprogress|TerminologyEntry:Segmentation category and type - Total Segmentator~SCT^123037004^Anatomical Structure~SCT^12691009^Brachiocephalic artery~^^~Anatomic codes - DICOM master list~^^~^^|
Segment52_Color:=0.847059 0.396078 0.34902
Segment52_ColorAutoGenerated:=1
Segment52_Extent:=50 494 95 401 0 267
Segment52_ID:=subclavian_artery_right
Segment52_LabelValue:=55
Segment52_Layer:=0
Segment52_Name:=right subclavian artery
Segment52_NameAutoGenerated:=1
Segment52_Tags:=Segmentation.Status:inprogress|TerminologyEntry:Segmentation category and type - Total Segmentator~SCT^123037004^Anatomical Structure~SCT^29700009^Subclavian artery~SCT^24028007^Right~Anatomic codes - DICOM master list~^^~^^|
Segment53_Color:=0.847059 0.396078 0.270588
Segment53_ColorAutoGenerated:=1
Segment53_Extent:=50 494 95 401 0 267
Segment53_ID:=subclavian_artery_left
Segment53_LabelValue:=56
Segment53_Layer:=0
Segment53_Name:=left subclavian artery
Segment53_NameAutoGenerated:=1
Segment53_Tags:=Segmentation.Status:inprogress|TerminologyEntry:Segmentation category and type - Total Segmentator~SCT^123037004^Anatomical Structure~SCT^29700009^Subclavian artery~SCT^7771000^Left~Anatomic codes - DICOM master list~^^~^^|
Segment54_Color:=0.847059 0.396078 0.309804
Segment54_ColorAutoGenerated:=1
Segment54_Extent:=50 494 95 401 0 267
Segment54_ID:=common_carotid_artery_right
Segment54_LabelValue:=57
Segment54_Layer:=0
Segment54_Name:=right common carotid artery
Segment54_NameAutoGenerated:=1
Segment54_Tags:=Segmentation.Status:inprogress|TerminologyEntry:Segmentation category and type - Total Segmentator~SCT^123037004^Anatomical Structure~SCT^32062004^Common carotid artery~SCT^24028007^Right~Anatomic codes - DICOM master list~^^~^^|
Segment55_Color:=0.847059 0.396078 0.270588
Segment55_ColorAutoGenerated:=1
Segment55_Extent:=50 494 95 401 0 267
Segment55_ID:=common_carotid_artery_left
Segment55_LabelValue:=58
Segment55_Layer:=0
Segment55_Name:=left common carotid artery
Segment55_NameAutoGenerated:=1
Segment55_Tags:=Segmentation.Status:inprogress|TerminologyEntry:Segmentation category and type - Total Segmentator~SCT^123037004^Anatomical Structure~SCT^32062004^Common carotid artery~SCT^7771000^Left~Anatomic codes - DICOM master list~^^~^^|
Segment56_Color:=0 0.631373 0.768627
Segment56_ColorAutoGenerated:=1
Segment56_Extent:=50 494 95 401 0 267
Segment56_ID:=brachiocephalic_vein_left
Segment56_LabelValue:=59
Segment56_Layer:=0
Segment56_Name:=left brachiocephalic vein
Segment56_NameAutoGenerated:=1
Segment56_Tags:=Segmentation.Status:inprogress|TerminologyEntry:Segmentation category and type - Total Segmentator~SCT^123037004^Anatomical Structure~SCT^8887007^Brachiocephalic vein~SCT^7771000^Left~Anatomic codes - DICOM master list~^^~^^|
Segment57_Color:=0 0.592157 0.807843
Segment57_ColorAutoGenerated:=1
Segment57_Extent:=50 494 95 401 0 267
Segment57_ID:=brachiocephalic_vein_right
Segment57_LabelValue:=60
Segment57_Layer:=0
Segment57_Name:=right brachiocephalic vein
Segment57_NameAutoGenerated:=1
Segment57_Tags:=Segmentation.Status:inprogress|TerminologyEntry:Segmentation category and type - Total Segmentator~SCT^123037004^Anatomical Structure~SCT^8887007^Brachiocephalic vein~SCT^24028007^Right~Anatomic codes - DICOM master list~^^~^^|
Segment58_Color:=0 0.631373 0.768627
Segment58_ColorAutoGenerated:=1
Segment58_Extent:=50 494 95 401 0 267
Segment58_ID:=atrial_appendage_left
Segment58_LabelValue:=61
Segment58_Layer:=0
Segment58_Name:=left atrial appendage
Segment58_NameAutoGenerated:=1
Segment58_Tags:=Segmentation.Status:inprogress|TerminologyEntry:Segmentation category and type - Total Segmentator~SCT^123037004^Anatomical Structure~SCT^68786006^Auricular appendage~SCT^7771000^Left~Anatomic codes - DICOM master list~^^~^^|
Segment59_Color:=0 0.552941 0.886275
Segment59_ColorAutoGenerated:=1
Segment59_Extent:=50 494 95 401 0 267
Segment59_ID:=superior_vena_cava
Segment59_LabelValue:=62
Segment59_Layer:=0
Segment59_Name:=superior vena cava
Segment59_NameAutoGenerated:=1
Segment59_Tags:=Segmentation.Status:inprogress|TerminologyEntry:Segmentation category and type - Total Segmentator~SCT^123037004^Anatomical Structure~SCT^48345005^Superior vena cava~^^~Anatomic codes - DICOM master list~^^~^^|
Segment5_Color:=1 0.666667 1
Segment5_ColorAutoGenerated:=0
Segment5_Extent:=50 494 95 401 0 267
Segment5_ID:=stomach
Segment5_LabelValue:=6
Segment5_Layer:=0
Segment5_Name:=stomach
Segment5_NameAutoGenerated:=1
Segment5_Tags:=Segmentation.Status:inprogress|TerminologyEntry:Segmentation category and type - DICOM master list~SCT^123037004^Anatomical Structure~SCT^69695003^Stomach~^^~Anatomic codes - DICOM master list~^^~^^|
Segment60_Color:=0 0.592157 0.807843
Segment60_ColorAutoGenerated:=1
Segment60_Extent:=50 494 95 401 0 267
Segment60_ID:=inferior_vena_cava
Segment60_LabelValue:=63
Segment60_Layer:=0
Segment60_Name:=inferior vena cava
Segment60_NameAutoGenerated:=1
Segment60_Tags:=Segmentation.Status:inprogress|TerminologyEntry:Segmentation category and type - Total Segmentator~SCT^123037004^Anatomical Structure~SCT^64131007^Inferior vena cava~^^~Anatomic codes - DICOM master list~^^~^^|
Segment61_Color:=0 0.592157 0.807843
Segment61_ColorAutoGenerated:=1
Segment61_Extent:=50 494 95 401 0 267
Segment61_ID:=portal_vein_and_splenic_vein
Segment61_LabelValue:=64
Segment61_Layer:=0
Segment61_Name:=portal vein and splenic vein
Segment61_NameAutoGenerated:=1
Segment61_Tags:=Segmentation.Status:inprogress|TerminologyEntry:Segmentation category and type - Total Segmentator~SCT^123037004^Anatomical Structure~SCT^110765007^Portal vein and splenic vein~^^~Anatomic codes - DICOM master list~^^~^^|
Segment62_Color:=0.847059 0.396078 0.309804
Segment62_ColorAutoGenerated:=1
Segment62_Extent:=50 494 95 401 0 267
Segment62_ID:=iliac_artery_left
Segment62_LabelValue:=65
Segment62_Layer:=0
Segment62_Name:=left common iliac artery
Segment62_NameAutoGenerated:=1
Segment62_Tags:=Segmentation.Status:inprogress|TerminologyEntry:Segmentation category and type - Total Segmentator~SCT^123037004^Anatomical Structure~SCT^73634005^Common iliac artery~SCT^7771000^Left~Anatomic codes - DICOM master list~^^~^^|
Segment63_Color:=0.847059 0.396078 0.309804
Segment63_ColorAutoGenerated:=1
Segment63_Extent:=50 494 95 401 0 267
Segment63_ID:=iliac_artery_right
Segment63_LabelValue:=66
Segment63_Layer:=0
Segment63_Name:=right common iliac artery
Segment63_NameAutoGenerated:=1
Segment63_Tags:=Segmentation.Status:inprogress|TerminologyEntry:Segmentation category and type - Total Segmentator~SCT^123037004^Anatomical Structure~SCT^73634005^Common iliac artery~SCT^24028007^Right~Anatomic codes - DICOM master list~^^~^^|
Segment64_Color:=0 0.592157 0.807843
Segment64_ColorAutoGenerated:=1
Segment64_Extent:=50 494 95 401 0 267
Segment64_ID:=iliac_vena_left
Segment64_LabelValue:=67
Segment64_Layer:=0
Segment64_Name:=left common iliac vein
Segment64_NameAutoGenerated:=1
Segment64_Tags:=Segmentation.Status:inprogress|TerminologyEntry:Segmentation category and type - Total Segmentator~SCT^123037004^Anatomical Structure~SCT^46027005^Common iliac vein~SCT^7771000^Left~Anatomic codes - DICOM master list~^^~^^|
Segment65_Color:=0 0.592157 0.807843
Segment65_ColorAutoGenerated:=1
Segment65_Extent:=50 494 95 401 0 267
Segment65_ID:=iliac_vena_right
Segment65_LabelValue:=68
Segment65_Layer:=0
Segment65_Name:=right common iliac vein
Segment65_NameAutoGenerated:=1
Segment65_Tags:=Segmentation.Status:inprogress|TerminologyEntry:Segmentation category and type - Total Segmentator~SCT^123037004^Anatomical Structure~SCT^46027005^Common iliac vein~SCT^24028007^Right~Anatomic codes - DICOM master list~^^~^^|
Segment66_Color:=0.803922 0.701961 0.423529
Segment66_ColorAutoGenerated:=1
Segment66_Extent:=50 494 95 401 0 267
Segment66_ID:=humerus_left
Segment66_LabelValue:=69
Segment66_Layer:=0
Segment66_Name:=left humerus
Segment66_NameAutoGenerated:=1
Segment66_Tags:=Segmentation.Status:inprogress|TerminologyEntry:Segmentation category and type - Total Segmentator~SCT^123037004^Anatomical Structure~SCT^85050009^Humerus~SCT^7771000^Left~Anatomic codes - DICOM master list~^^~^^|
Segment67_Color:=0.803922 0.701961 0.423529
Segment67_ColorAutoGenerated:=1
Segment67_Extent:=50 494 95 401 0 267
Segment67_ID:=humerus_right
Segment67_LabelValue:=70
Segment67_Layer:=0
Segment67_Name:=right humerus
Segment67_NameAutoGenerated:=1
Segment67_Tags:=Segmentation.Status:inprogress|TerminologyEntry:Segmentation category and type - Total Segmentator~SCT^123037004^Anatomical Structure~SCT^85050009^Humerus~SCT^24028007^Right~Anatomic codes - DICOM master list~^^~^^|
Segment68_Color:=0.831373 0.737255 0.4
Segment68_ColorAutoGenerated:=1
Segment68_Extent:=50 494 95 401 0 267
Segment68_ID:=scapula_left
Segment68_LabelValue:=71
Segment68_Layer:=0
Segment68_Name:=left scapula
Segment68_NameAutoGenerated:=1
Segment68_Tags:=Segmentation.Status:inprogress|TerminologyEntry:Segmentation category and type - Total Segmentator~SCT^123037004^Anatomical Structure~SCT^79601000^Scapula~SCT^7771000^Left~Anatomic codes - DICOM master list~^^~^^|
Segment69_Color:=0.831373 0.737255 0.4
Segment69_ColorAutoGenerated:=1
Segment69_Extent:=50 494 95 401 0 267
Segment69_ID:=scapula_right
Segment69_LabelValue:=72
Segment69_Layer:=0
Segment69_Name:=right scapula
Segment69_NameAutoGenerated:=1
Segment69_Tags:=Segmentation.Status:inprogress|TerminologyEntry:Segmentation category and type - Total Segmentator~SCT^123037004^Anatomical Structure~SCT^79601000^Scapula~SCT^24028007^Right~Anatomic codes - DICOM master list~^^~^^|
Segment6_Color:=0.333333 0.666667 1
Segment6_ColorAutoGenerated:=0
Segment6_Extent:=50 494 95 401 0 267
Segment6_ID:=pancreas
Segment6_LabelValue:=7
Segment6_Layer:=0
Segment6_Name:=pancreas
Segment6_NameAutoGenerated:=1
Segment6_Tags:=Segmentation.Status:inprogress|TerminologyEntry:Segmentation category and type - DICOM master list~SCT^123037004^Anatomical Structure~SCT^15776009^Pancreas~^^~Anatomic codes - DICOM master list~^^~^^|
Segment70_Color:=0.803922 0.701961 0.423529
Segment70_ColorAutoGenerated:=1
Segment70_Extent:=50 494 95 401 0 267
Segment70_ID:=clavicula_left
Segment70_LabelValue:=73
Segment70_Layer:=0
Segment70_Name:=left clavicle
Segment70_NameAutoGenerated:=1
Segment70_Tags:=Segmentation.Status:inprogress|TerminologyEntry:Segmentation category and type - DICOM master list~SCT^123037004^Anatomical Structure~SCT^51299004^Clavicle~SCT^7771000^Left~Anatomic codes - DICOM master list~^^~^^|
Segment71_Color:=0.803922 0.701961 0.423529
Segment71_ColorAutoGenerated:=1
Segment71_Extent:=50 494 95 401 0 267
Segment71_ID:=clavicula_right
Segment71_LabelValue:=74
Segment71_Layer:=0
Segment71_Name:=right clavicle
Segment71_NameAutoGenerated:=1
Segment71_Tags:=Segmentation.Status:inprogress|TerminologyEntry:Segmentation category and type - DICOM master list~SCT^123037004^Anatomical Structure~SCT^51299004^Clavicle~SCT^24028007^Right~Anatomic codes - DICOM master list~^^~^^|
Segment72_Color:=1 0.933333 0.666667
Segment72_ColorAutoGenerated:=1
Segment72_Extent:=50 494 95 401 0 267
Segment72_ID:=femur_left
Segment72_LabelValue:=75
Segment72_Layer:=0
Segment72_Name:=left femur
Segment72_NameAutoGenerated:=1
Segment72_Tags:=Segmentation.Status:inprogress|TerminologyEntry:Segmentation category and type - Total Segmentator~SCT^123037004^Anatomical Structure~SCT^71341001^Femur~SCT^7771000^Left~Anatomic codes - DICOM master list~^^~^^|
Segment73_Color:=1 0.933333 0.666667
Segment73_ColorAutoGenerated:=1
Segment73_Extent:=50 494 95 401 0 267
Segment73_ID:=femur_right
Segment73_LabelValue:=76
Segment73_Layer:=0
Segment73_Name:=right femur
Segment73_NameAutoGenerated:=1
Segment73_Tags:=Segmentation.Status:inprogress|TerminologyEntry:Segmentation category and type - Total Segmentator~SCT^123037004^Anatomical Structure~SCT^71341001^Femur~SCT^24028007^Right~Anatomic codes - DICOM master list~^^~^^|
Segment74_Color:=0.831373 0.737255 0.4
Segment74_ColorAutoGenerated:=1
Segment74_Extent:=50 494 95 401 0 267
Segment74_ID:=hip_left
Segment74_LabelValue:=77
Segment74_Layer:=0
Segment74_Name:=left hip
Segment74_NameAutoGenerated:=1
Segment74_Tags:=Segmentation.Status:inprogress|TerminologyEntry:Segmentation category and type - Total Segmentator~SCT^123037004^Anatomical Structure~SCT^29836001^Hip~SCT^7771000^Left~Anatomic codes - DICOM master list~^^~^^|
Segment75_Color:=0.831373 0.737255 0.4
Segment75_ColorAutoGenerated:=1
Segment75_Extent:=50 494 95 401 0 267
Segment75_ID:=hip_right
Segment75_LabelValue:=78
Segment75_Layer:=0
Segment75_Name:=right hip
Segment75_NameAutoGenerated:=1
Segment75_Tags:=Segmentation.Status:inprogress|TerminologyEntry:Segmentation category and type - Total Segmentator~SCT^123037004^Anatomical Structure~SCT^29836001^Hip~SCT^24028007^Right~Anatomic codes - DICOM master list~^^~^^|
Segment76_Color:=0.956863 0.839216 0.192157
Segment76_ColorAutoGenerated:=1
Segment76_Extent:=50 494 95 401 0 267
Segment76_ID:=spinal_cord
Segment76_LabelValue:=79
Segment76_Layer:=0
Segment76_Name:=spinal cord
Segment76_NameAutoGenerated:=1
Segment76_Tags:=Segmentation.Status:inprogress|TerminologyEntry:Segmentation category and type - DICOM master list~SCT^123037004^Anatomical Structure~SCT^2748008^Spinal cord~^^~Anatomic codes - DICOM master list~^^~^^|
Segment77_Color:=0.737255 0.372549 0.298039
Segment77_ColorAutoGenerated:=1
Segment77_Extent:=50 494 95 401 0 267
Segment77_ID:=gluteus_maximus_left
Segment77_LabelValue:=80
Segment77_Layer:=0
Segment77_Name:=left gluteus maximus
Segment77_NameAutoGenerated:=1
Segment77_Tags:=Segmentation.Status:inprogress|TerminologyEntry:Segmentation category and type - Total Segmentator~SCT^123037004^Anatomical Structure~SCT^181674001^Gluteus maximus muscle~SCT^7771000^Left~Anatomic codes - DICOM master list~^^~^^|
Segment78_Color:=0.737255 0.372549 0.298039
Segment78_ColorAutoGenerated:=1
Segment78_Extent:=50 494 95 401 0 267
Segment78_ID:=gluteus_maximus_right
Segment78_LabelValue:=81
Segment78_Layer:=0
Segment78_Name:=right gluteus maximus
Segment78_NameAutoGenerated:=1
Segment78_Tags:=Segmentation.Status:inprogress|TerminologyEntry:Segmentation category and type - Total Segmentator~SCT^123037004^Anatomical Structure~SCT^181674001^Gluteus maximus muscle~SCT^24028007^Right~Anatomic codes - DICOM master list~^^~^^|
Segment79_Color:=0.698039 0.411765 0.298039
Segment79_ColorAutoGenerated:=1
Segment79_Extent:=50 494 95 401 0 267
Segment79_ID:=gluteus_medius_left
Segment79_LabelValue:=82
Segment79_Layer:=0
Segment79_Name:=left gluteus medius
Segment79_NameAutoGenerated:=1
Segment79_Tags:=Segmentation.Status:inprogress|TerminologyEntry:Segmentation category and type - Total Segmentator~SCT^123037004^Anatomical Structure~SCT^78333006^Gluteus medius muscle~SCT^7771000^Left~Anatomic codes - DICOM master list~^^~^^|
Segment7_Color:=0.976471 0.729412 0.588235
Segment7_ColorAutoGenerated:=1
Segment7_Extent:=50 494 95 401 0 267
Segment7_ID:=adrenal_gland_right
Segment7_LabelValue:=8
Segment7_Layer:=0
Segment7_Name:=right adrenal gland
Segment7_NameAutoGenerated:=1
Segment7_Tags:=Segmentation.Status:inprogress|TerminologyEntry:Segmentation category and type - DICOM master list~SCT^123037004^Anatomical Structure~SCT^23451007^Adrenal gland~SCT^24028007^Right~Anatomic codes - DICOM master list~^^~^^|
Segment80_Color:=0.698039 0.411765 0.298039
Segment80_ColorAutoGenerated:=1
Segment80_Extent:=50 494 95 401 0 267
Segment80_ID:=gluteus_medius_right
Segment80_LabelValue:=83
Segment80_Layer:=0
Segment80_Name:=right gluteus medius
Segment80_NameAutoGenerated:=1
Segment80_Tags:=Segmentation.Status:inprogress|TerminologyEntry:Segmentation category and type - Total Segmentator~SCT^123037004^Anatomical Structure~SCT^78333006^Gluteus medius muscle~SCT^24028007^Right~Anatomic codes - DICOM master list~^^~^^|
Segment81_Color:=0.698039 0.372549 0.337255
Segment81_ColorAutoGenerated:=1
Segment81_Extent:=50 494 95 401 0 267
Segment81_ID:=gluteus_minimus_left
Segment81_LabelValue:=84
Segment81_Layer:=0
Segment81_Name:=left gluteus minimus
Segment81_NameAutoGenerated:=1
Segment81_Tags:=Segmentation.Status:inprogress|TerminologyEntry:Segmentation category and type - Total Segmentator~SCT^123037004^Anatomical Structure~SCT^75297007^Gluteus minius muscle~SCT^7771000^Left~Anatomic codes - DICOM master list~^^~^^|
Segment82_Color:=0.698039 0.372549 0.337255
Segment82_ColorAutoGenerated:=1
Segment82_Extent:=50 494 95 401 0 267
Segment82_ID:=gluteus_minimus_right
Segment82_LabelValue:=85
Segment82_Layer:=0
Segment82_Name:=right gluteus minimus
Segment82_NameAutoGenerated:=1
Segment82_Tags:=Segmentation.Status:inprogress|TerminologyEntry:Segmentation category and type - Total Segmentator~SCT^123037004^Anatomical Structure~SCT^75297007^Gluteus minius muscle~SCT^24028007^Right~Anatomic codes - DICOM master list~^^~^^|
Segment83_Color:=0.670588 0.333333 0.266667
Segment83_ColorAutoGenerated:=1
Segment83_Extent:=50 494 95 401 0 267
Segment83_ID:=autochthon_left
Segment83_LabelValue:=86
Segment83_Layer:=0
Segment83_Name:=left deep back muscle
Segment83_NameAutoGenerated:=1
Segment83_Tags:=Segmentation.Status:inprogress|TerminologyEntry:Segmentation category and type - Total Segmentator~SCT^123037004^Anatomical Structure~SCT^244849004^Deep muscle of back~SCT^7771000^Left~Anatomic codes - DICOM master list~^^~^^|
Segment84_Color:=0.670588 0.333333 0.266667
Segment84_ColorAutoGenerated:=1
Segment84_Extent:=50 494 95 401 0 267
Segment84_ID:=autochthon_right
Segment84_LabelValue:=87
Segment84_Layer:=0
Segment84_Name:=right deep back muscle
Segment84_NameAutoGenerated:=1
Segment84_Tags:=Segmentation.Status:inprogress|TerminologyEntry:Segmentation category and type - Total Segmentator~SCT^123037004^Anatomical Structure~SCT^244849004^Deep muscle of back~SCT^24028007^Right~Anatomic codes - DICOM master list~^^~^^|
Segment85_Color:=0.737255 0.372549 0.298039
Segment85_ColorAutoGenerated:=1
Segment85_Extent:=50 494 95 401 0 267
Segment85_ID:=iliopsoas_left
Segment85_LabelValue:=88
Segment85_Layer:=0
Segment85_Name:=left iliopsoas muscle
Segment85_NameAutoGenerated:=1
Segment85_Tags:=Segmentation.Status:inprogress|TerminologyEntry:Segmentation category and type - Total Segmentator~SCT^123037004^Anatomical Structure~SCT^68455001^Iliopsoas muscle~SCT^7771000^Left~Anatomic codes - DICOM master list~^^~^^|
Segment86_Color:=0.737255 0.372549 0.298039
Segment86_ColorAutoGenerated:=1
Segment86_Extent:=50 494 95 401 0 267
Segment86_ID:=iliopsoas_right
Segment86_LabelValue:=89
Segment86_Layer:=0
Segment86_Name:=right iliopsoas muscle
Segment86_NameAutoGenerated:=1
Segment86_Tags:=Segmentation.Status:inprogress|TerminologyEntry:Segmentation category and type - Total Segmentator~SCT^123037004^Anatomical Structure~SCT^68455001^Iliopsoas muscle~SCT^24028007^Right~Anatomic codes - DICOM master list~^^~^^|
Segment87_Color:=0.980392 0.980392 0.882353
Segment87_ColorAutoGenerated:=1
Segment87_Extent:=50 494 95 401 0 267
Segment87_ID:=brain
Segment87_LabelValue:=90
Segment87_Layer:=0
Segment87_Name:=brain
Segment87_NameAutoGenerated:=1
Segment87_Tags:=Segmentation.Status:inprogress|TerminologyEntry:Segmentation category and type - DICOM master list~SCT^123037004^Anatomical Structure~SCT^12738006^Brain~^^~Anatomic codes - DICOM master list~^^~^^|
Segment88_Color:=0.945098 0.835294 0.564706
Segment88_ColorAutoGenerated:=1
Segment88_Extent:=50 494 95 401 0 267
Segment88_ID:=skull
Segment88_LabelValue:=91
Segment88_Layer:=0
Segment88_Name:=skull
Segment88_NameAutoGenerated:=1
Segment88_Tags:=Segmentation.Status:inprogress|TerminologyEntry:Segmentation category and type - DICOM master list~SCT^123037004^Anatomical Structure~SCT^89546000^Skull~^^~Anatomic codes - DICOM master list~^^~^^|
Segment89_Color:=0.992157 0.909804 0.619608
Segment89_ColorAutoGenerated:=1
Segment89_Extent:=50 494 95 401 0 267
Segment89_ID:=rib_left_1
Segment89_LabelValue:=92
Segment89_Layer:=0
Segment89_Name:=left rib 1
Segment89_NameAutoGenerated:=1
Segment89_Tags:=Segmentation.Status:inprogress|TerminologyEntry:Segmentation category and type - Total Segmentator~SCT^123037004^Anatomical Structure~SCT^48535007^First rib~SCT^7771000^Left~Anatomic codes - DICOM master list~^^~^^|
Segment8_Color:=0.976471 0.729412 0.588235
Segment8_ColorAutoGenerated:=1
Segment8_Extent:=50 494 95 401 0 267
Segment8_ID:=adrenal_gland_left
Segment8_LabelValue:=9
Segment8_Layer:=0
Segment8_Name:=left adrenal gland
Segment8_NameAutoGenerated:=1
Segment8_Tags:=Segmentation.Status:inprogress|TerminologyEntry:Segmentation category and type - DICOM master list~SCT^123037004^Anatomical Structure~SCT^23451007^Adrenal gland~SCT^7771000^Left~Anatomic codes - DICOM master list~^^~^^|
Segment90_Color:=0.992157 0.909804 0.619608
Segment90_ColorAutoGenerated:=1
Segment90_Extent:=50 494 95 401 0 267
Segment90_ID:=rib_left_2
Segment90_LabelValue:=93
Segment90_Layer:=0
Segment90_Name:=left rib 2
Segment90_NameAutoGenerated:=1
Segment90_Tags:=Segmentation.Status:inprogress|TerminologyEntry:Segmentation category and type - Total Segmentator~SCT^123037004^Anatomical Structure~SCT^78247007^Second rib~SCT^7771000^Left~Anatomic codes - DICOM master list~^^~^^|
Segment91_Color:=0.992157 0.909804 0.619608
Segment91_ColorAutoGenerated:=1
Segment91_Extent:=50 494 95 401 0 267
Segment91_ID:=rib_left_3
Segment91_LabelValue:=94
Segment91_Layer:=0
Segment91_Name:=left rib 3
Segment91_NameAutoGenerated:=1
Segment91_Tags:=Segmentation.Status:inprogress|TerminologyEntry:Segmentation category and type - Total Segmentator~SCT^123037004^Anatomical Structure~SCT^25888004^Third rib~SCT^7771000^Left~Anatomic codes - DICOM master list~^^~^^|
Segment92_Color:=0.992157 0.909804 0.619608
Segment92_ColorAutoGenerated:=1
Segment92_Extent:=50 494 95 401 0 267
Segment92_ID:=rib_left_4
Segment92_LabelValue:=95
Segment92_Layer:=0
Segment92_Name:=left rib 4
Segment92_NameAutoGenerated:=1
Segment92_Tags:=Segmentation.Status:inprogress|TerminologyEntry:Segmentation category and type - Total Segmentator~SCT^123037004^Anatomical Structure~SCT^25523003^Fourth rib~SCT^7771000^Left~Anatomic codes - DICOM master list~^^~^^|
Segment93_Color:=0.992157 0.909804 0.619608
Segment93_ColorAutoGenerated:=1
Segment93_Extent:=50 494 95 401 0 267
Segment93_ID:=rib_left_5
Segment93_LabelValue:=96
Segment93_Layer:=0
Segment93_Name:=left rib 5
Segment93_NameAutoGenerated:=1
Segment93_Tags:=Segmentation.Status:inprogress|TerminologyEntry:Segmentation category and type - Total Segmentator~SCT^123037004^Anatomical Structure~SCT^15339008^Fifth rib~SCT^7771000^Left~Anatomic codes - DICOM master list~^^~^^|
Segment94_Color:=0.992157 0.909804 0.619608
Segment94_ColorAutoGenerated:=1
Segment94_Extent:=50 494 95 401 0 267
Segment94_ID:=rib_left_6
Segment94_LabelValue:=97
Segment94_Layer:=0
Segment94_Name:=left rib 6
Segment94_NameAutoGenerated:=1
Segment94_Tags:=Segmentation.Status:inprogress|TerminologyEntry:Segmentation category and type - Total Segmentator~SCT^123037004^Anatomical Structure~SCT^59558009^Sixth rib~SCT^7771000^Left~Anatomic codes - DICOM master list~^^~^^|
Segment95_Color:=0.992157 0.909804 0.619608
Segment95_ColorAutoGenerated:=1
Segment95_Extent:=50 494 95 401 0 267
Segment95_ID:=rib_left_7
Segment95_LabelValue:=98
Segment95_Layer:=0
Segment95_Name:=left rib 7
Segment95_NameAutoGenerated:=1
Segment95_Tags:=Segmentation.Status:inprogress|TerminologyEntry:Segmentation category and type - Total Segmentator~SCT^123037004^Anatomical Structure~SCT^24915002^Seventh rib~SCT^7771000^Left~Anatomic codes - DICOM master list~^^~^^|
Segment96_Color:=0.992157 0.909804 0.619608
Segment96_ColorAutoGenerated:=1
Segment96_Extent:=50 494 95 401 0 267
Segment96_ID:=rib_left_8
Segment96_LabelValue:=99
Segment96_Layer:=0
Segment96_Name:=left rib 8
Segment96_NameAutoGenerated:=1
Segment96_Tags:=Segmentation.Status:inprogress|TerminologyEntry:Segmentation category and type - Total Segmentator~SCT^123037004^Anatomical Structure~SCT^5953002^Eighth rib~SCT^7771000^Left~Anatomic codes - DICOM master list~^^~^^|
Segment97_Color:=0.992157 0.909804 0.619608
Segment97_ColorAutoGenerated:=1
Segment97_Extent:=50 494 95 401 0 267
Segment97_ID:=rib_left_9
Segment97_LabelValue:=100
Segment97_Layer:=0
Segment97_Name:=left rib 9
Segment97_NameAutoGenerated:=1
Segment97_Tags:=Segmentation.Status:inprogress|TerminologyEntry:Segmentation category and type - Total Segmentator~SCT^123037004^Anatomical Structure~SCT^22565002^Ninth rib~SCT^7771000^Left~Anatomic codes - DICOM master list~^^~^^|
Segment98_Color:=0.992157 0.909804 0.619608
Segment98_ColorAutoGenerated:=1
Segment98_Extent:=50 494 95 401 0 267
Segment98_ID:=rib_left_10
Segment98_LabelValue:=101
Segment98_Layer:=0
Segment98_Name:=left rib 10
Segment98_NameAutoGenerated:=1
Segment98_Tags:=Segmentation.Status:inprogress|TerminologyEntry:Segmentation category and type - Total Segmentator~SCT^123037004^Anatomical Structure~SCT^77644006^Tenth rib~SCT^7771000^Left~Anatomic codes - DICOM master list~^^~^^|
Segment99_Color:=0.992157 0.909804 0.619608
Segment99_ColorAutoGenerated:=1
Segment99_Extent:=50 494 95 401 0 267
Segment99_ID:=rib_left_11
Segment99_LabelValue:=102
Segment99_Layer:=0
Segment99_Name:=left rib 11
Segment99_NameAutoGenerated:=1
Segment99_Tags:=Segmentation.Status:inprogress|TerminologyEntry:Segmentation category and type - Total Segmentator~SCT^123037004^Anatomical Structure~SCT^58830002^Eleventh rib~SCT^7771000^Left~Anatomic codes - DICOM master list~^^~^^|
Segment9_Color:=0.67451 0.541176 0.45098
Segment9_ColorAutoGenerated:=1
Segment9_Extent:=50 494 95 401 0 267
Segment9_ID:=lung_upper_lobe_left
Segment9_LabelValue:=10
Segment9_Layer:=0
Segment9_Name:=superior lobe of left lung
Segment9_NameAutoGenerated:=1
Segment9_Tags:=Segmentation.Status:inprogress|TerminologyEntry:Segmentation category and type - DICOM master list~SCT^123037004^Anatomical Structure~SCT^45653009^Upper lobe of lung~SCT^7771000^Left~Anatomic codes - DICOM master list~^^~^^|
Segmentation_ContainedRepresentationNames:=Binary labelmap|Closed surface|
Segmentation_ConversionParameters:=Decimation factor|0.0|Desired reduction in the total number of polygons. Range: 0.0 (no decimation) to 1.0 (as much simplification as possible). Value of 0.8 typically reduces data set size by 80% without losing too much details.&Smoothing factor|0.5|Smoothing factor. Range: 0.0 (no smoothing) to 1.0 (strong smoothing).&Compute surface normals|1|Compute surface normals. 1 (default) = surface normals are computed. 0 = surface normals are not computed (slightly faster but produces less smooth surface display, not used if vtkSurfaceNets3D is used).&Conversion method|0|Conversion method. 0 (default) = vtkDiscreteFlyingEdges3D is used to generate closed surface.1 = vtkSurfaceNets3D (more performant than flying edges).&SurfaceNets smoothing|0|SurfaceNets smoothing. 0 (default) = Smoothing done by vtkWindowedSincPolyDataFilter1 = Smoothing done in surface nets filter.&Joint smoothing|0|Perform joint smoothing.&Reference image geometry|-0.976562;0;0;250.00000000000003;0;-0.976562;0;250.00000000000003;0;0;3.2700195488721806;-881.3200000000003;0;0;0;1;0;511;0;511;0;266;|Image geometry description string determining the geometry of the labelmap that is created in course of conversion. Can be copied from a volume, using the button.&Oversampling factor|1|Determines the oversampling of the reference image geometry. If it's a number, then all segments are oversampled with the same value (value of 1 means no oversampling). If it has the value "A", then automatic oversampling is calculated.&Crop to reference image geometry|0|Crop the model to the extent of reference geometry. 0 (default) = created labelmap will contain the entire model. 1 = created labelmap extent will be within reference image extent.&Collapse labelmaps|1|Merge the labelmaps into as few shared labelmaps as possible 1 = created labelmaps will be shared if possible without overwriting each other.&Fractional labelmap oversampling factor|1|Determines the oversampling of the reference image geometry. All segments are oversampled with the same value (value of 1 means no oversampling).&Threshold fraction|0.5|Determines the threshold that the closed surface is created at as a fractional value between 0 and 1.&
Segmentation_MasterRepresentation:=Binary labelmap
Segmentation_ReferenceImageExtentOffset:=0 0 -1

‹      ìÛQŽ£ºEQÏæ?ž'H*‚é÷w‰j¯5Kû´ªEì1                                                                            €ÿoÙÝ}
nÍoõüÏo Aú§òëïo 5ú·éß¦›þqú·éß&œþmúÇÉß&œüqò                                                                                                                                                                                                                                                  ÿ‘ew÷)¸1¾D½å·€zþü Öu]G8z ëËèöÏà·~g “üÕþ‡üú·óW0ëŸÀg~ýãýÐÿ*¿þ%úë¯¶5¿þúëŸìïÐNý“ùõÈö÷ð.›_ÿþéü§Œý7ÙüŸýGT¶ÿq #«šß€§lÿßŒ´j~ï¿žªùyQ                                                                                                                                                                                                                                              à^ËÝà6ËËÝ'áÎú0Æº®ëèæo`}ÕüáüÖï,àœ¿:€cýÊ fý“X“ý§ù‹ýÏù˜÷@ÿtÿYþÀ .òçúÏóë_¡z ùõÐ_ÿdÿØé¯¿þúçòûþïï€þú7óëïïÈFý›ùgýGN¸¿ ›nþsÿQÔíÿ9€‘¤:ÿi #DþM·ÿïFY7ÿcwá~ÝüìäÏS                                                                                                                                                                                                                                             ¾Å²¹ûÜÿáî£pgýüÖ—Í_ÀoýÎNù³8Ö`’?:€SþÄ ¦ý‹˜ä×¿?0€yþÞ æùõ¯Ð?=€‹ü úïô×_ÿlÿËüú'è¯¿þúçòëïïÐFýõ×¿—ÿªÿH	÷÷ðFý›ù] ‹÷Ÿ`Ôtó» ïïÀFÿtþèíÿùÛýUÝüoeÝþÞÿïºùÙÉŸ§>                                                                                                                                                                                                                                             |‰åéîspg}ëÍŸÀ«~iù»8ÔÏàœ?:€ÏüÌò'ûŸó'0íÀ,` óü½Ìóë_¡ºÿEþ¿?€«þ±èŸî™_ÿýõ×_ýõ×_ýõOä×?ÞßÀþú7óë¿Ñ?¿ÜßM7¿`ñþ.€nôOç¯ÞþÜÉ?Àˆ?{ûÿAþÙ F‡üçŒõO-ùú›n~vòç©                                                                                                                                                                                                                                             _byºûÜYßÆú2’ùÛø­ÀGþî õ38å¯à3c “üÍœó'0íÀ,a óþ¹¬Ñþùõ×¿ä"ÿßÀUÿØ ôO÷¿Ì¯‚þúë¯¿þúë¯¿þú'òëïïàFýõ×¿—ßï¿ñþ.€lôOçÏÞþÙè¯<ööçFþM·ÿi £(Üÿc £©›ßÐ]7ÿÛ FX¸ÿs #.›ŸùëÔ                                                                                                                                                                                                                                            €ï±,Ër÷¸1þÓh[Œdýø ^õK8æ/àP¿3€Sÿè >óGpÎßÀ9b ³üÅÌòëßÎÀ<o ú§û_äïö`­@ÿæ×?Aýõ×_ýõ×_ýùõßé¯³¿Àýõoæ¿ê?RÂý] ØèŸÎÑèßî?ÀÈéæwÿ;Þÿ4€Q¤:ÿd #CþM·¿÷¿»lþßŒ´lþM=þ&œŸü                                                                                                                                                                                                                                              _ayºû_`ÝŒd}Xfþò Þê‡ð‘?;€cýÌNù£X›ý'ù“˜äO`Ú¿7€iþÂ ôO÷ŸçÏà"¿þñþkµk —ùõOÐ_ýõ×_ýõ×?Õÿ:¿þ	Ùüúïô×¿ÙßàM7ÿUÿ‘¢¿þÑþ. mºùõßèŸÎß½þ7Àèéæ××íÀ(êæÿÀhÒ?ÿ4€»ó_R“ÍÿZÀh÷g§~ü                                                                                                                                                                                                                                             ð=–eYî>7ÆiëËHÖoà·~iÇüáóWpÊÀgýÊ &ý‹˜äO`–?8€i~ýãý×hþÜ .òë¡ºÿUþ¿?€«þ­è¯¿þúë¯¿þ¹þ×ùõ/èæ×£¿þúwû_`üuúo²ù/0Rô×_ý{ù/0bô×_ÿlþù Fƒüú×óÏp÷‰þ3òoºýQÝü‡þ£+Ûÿm £¬šÿµ€—ÍÏ“ü                                                                                                                                                                                                                                              ß`ymë‘¬_À«~jÇüáògpÊÀgýpÿâ Îù˜åöŸåO`Ú¿7€jÿyþÜ æùÐ§ºÿUþnÿÖ ô×_ýsý/ó§ú¯Ùþþýoô×_ýõ×_ý;ùõßèßîßýü9€‘¢¿þÍüîÄû» ¶éæwÿ3Þßðþéü³þ£BþðósÿÑ”Íÿ1€QÕíïý÷.›ÿw #-›Ÿ'ùëÔ                                                                                                                                                                                                                                            ø6ËÝà.ËËh[Œfþö^õS8Ô/àP?4€Sÿæ >óWpÎŸÀ9c ³üÁþ³üÝþ½¬ÑÌóç0Ï¯¼ÿß€þÿÊßíß€þú'û_æOõ¿Ì¯‚þú7ûûû¿Ñ_ýõïå×£¿þúëì5€QÎ¯ÿFý£ý] ßþÙÈ_¾þ§½¿ûÿ›n~ïvÝþŸIÝüÞîÂý½ÿÞtóÿ`¤eóó ú                                                                                                                                                                                                                                             _fY–åî3pcü§‘¶þÑüé¼ê·pÈß]À{ýÒ>óGð™¿2€sþä ÖhÿYþ`ÿIþÆ ¦ý{¨öŸçÏõŸæ/à¢m ú§û_ä÷o@ÿtÿ5Ûÿ2¿þúgè¯¿þú÷úûÿß¿òëŸ ¿þúë¯³øóŸïÿñþ~ Ö¿ž_ÿxÿ‹Œùõ¯÷Ï^ÿÛÈ¾þ=ë?‚Âý?0’ºù½ÿÜ…û¿`tuóÿ`”uóó ü                                                                                                                                                                                                                                             _fY–åî3pcü‡Ñ¶þÍüí¼ê·pÈßÀ{ýÒ>òW°FûŸò7pÊÀ$q “üLû÷ ºÿZí?Ï_À<a úoôO÷¿ÊîŸ€þú7û_æ/õ¿Ì¯‚þúGûûû¯¿þúë¯¿þ½üúë_ÏŸî5€Q¢:¿þñþÝë1ú·ûw¯ÿM0rÂù½ÿØ„û{ÿµéæ÷þsîïý÷¦›ÿw #-›Ÿùëä                                                                                                                                                                                                                                            €¯±ümëÓhÖà§~lïùËxÏÀGþê Žõ;8åoà”¿2€Iÿà ÖjÿYþ^ÿYþÆ ¦ýsÈöŸç¯`ž_ÿxÿÀ ôÿGþpÿÔ ôO÷_»ý/óë¯…þúGûûû¯¿þúë¯¿þ½üúë_ÏŸî5€Q¢:¿þñþÝëîÿíôo÷Ÿ`4È_¾þíýG½¿÷_›nþŒ¨pÿ·Œ®nþßŒ´lþM=þ¦ÜŸú                                                                                                                                                                                                                                             ð=–ÝÝ§¸ßú0ŠõóxÆ¯-à­~z ïùC8æÏ.àX¿3€Sþæ Nù+Ðÿ"ÿZÍÀ,c Óþµ¬ÙþóüúÇû·p‘_ÿýÓý¯òpÕ¿4€pÿËüúë_¡¿þÑþþþë¯¿þúë¯/¿þú×ó§ûû°ýý_ýëùË×æ1ú·ûÏ0ä/_ÿöþ£Þÿs #©›ßû¿]·ÿa #+›ÿm #-Ûÿ¹€Q—ÍÏ“úuê                                                                                                                                                                                                                                            ð}ÖÝ¨Y~Œ²GüÞ^õÛxËŸZÀ!v Çú¡|ä`­ö?åOàœ?2€Iþà fùõoçO`š?7 ýÓý/ò‡û· ºÿUþÂ ô×¿>€pÿËüúë?êùõ/(÷÷÷_ÿzÿòßýÿÕü}úëÏ¯¼ùû¿ õ¯ç¿À(Ð¿Ý:€Q£:÷ú¯ûÿú§ó‡Ÿÿ|`Duû0²²ùß0Âºý0Ú²ù¸û_ ›Ÿ'õ                         €ÿ±s'É#	ã~Ä¢òþ—i8C ºWM¥=÷ÀìýLID                                                                                                                                                                                                                 à7Z–e9—Ñ¶|Œbýø~ê·°ÏßÀ¡~i ÇüÕœógpÉŸìÍßíÀ$d “ü½Ló‡û×°d0Ïë“?Ü¿5 ýÓýïòëß { Kw ·ùõ×Ôóë_Pîïç¿þõþ~ÿ×_ýõoæ×_ÿl/ Ûï¼ÿO¿þ×î?ÀˆÑ?>€Ñ ÿªÛßýM6ÿ¥ÿHêöwÿoÓíïþïS5ÿn #­šÿ=€QWÍÏ‹üyê                                                                                                                                                                                                                                            ü*ÇãÛð,O#æñ1Â^ñ{øÉÀ¾~k ûüÙœò‡pÊßÀ%f —üÅLòG0Éßë?ÍßíŸ€þéÌó'0Ï¯¼j wùõoÐ_ýõ/à®h K¸ÿm~ýõ(÷÷ÿûÇ¿þú×ûûû¯_ýõ×?ÙßûßûŒýõçOŸÿq 0}üÓùßþéüåóÿ—Œ¤l~×¿âýUÙü‡Œ®nÿŸŒ´jþ÷ F]5?/ò                                                                                                                                                                                                                                            ð;-Ë2ŠÇ¨[>FËãm„ýÔ¯-à“¿¼€cþÐ öõ»8çïöOà’?3€Kþâ &ù#˜äïõŸæïö¯`ž¿1€iÿØ Âýçùõ÷Oà.¿þúë¯¶ÿmþÀ îò— ¿þÑüÿ2€‘¡¿þúë¯2¿þñþþþ×_ý‹ù½ÿ]é¯¿þÙüúÇû‡:ÿ»Ñ??|üßýþéüåû_§Œ¨lþcÿ‘UÍ¿À(Ëö`ÔEó¯Ä_Uë                                                                                                                                                                                                                                            ð»-O#ç±m¯øÁlõãØ×oà§~x §ü¡òWpÉŸÀ9r “üÝþ½ÌòG0É¯¼m óü‰Ló× ºÿ]þpÿÔ ô×_ÿlÿ%Üÿ.¿þñþ¡è¯¿þúë¯­¿_ õç×_ýÃý}þ§5¿÷ñþ7)ú§ó—é¿Ò?¿ÜßùÿU7¿þ›n÷¿6Ùüçþ#*Ûÿ0€ÑUÍïúÿK5ÿg £.šÿ9€o?Ã¯ÐÌ                                                                                                                                                                                                                                            ü–eY¾ý|1þÓ·Ÿäÿíñ4Ê~ê×ðªß^À1i »üÙœë‡úó7pÍŸÀ9r Kv ×üÁLówû×°tûOóëŸÀ¼k wùõoÐ?=€%Üÿ.¿þúWèß€þúë¯¿þúë¯¿þúWúûüGýõ×¿™_ÿöë_ïÿô×¿›ßù¯•þéüåã¿ú¯ºùÿßèŸÎ_¾ÿ%ÿ¦šßõÏ—lÿÃ FW5ÿ®ÿH‹æ÷õÑü|¨                                                                                                                                                                                                                                            üJËÛ¨y<²OýÜ^õÛ8äO`—?»€SýÒ Žù›¸æÏàœ?9€nÿkþà fù#˜õ¯`éöŸæ×?3€yÿÖ îòëß z K¸ÿ]~ýõ¯Ð¿= ýõ×_ýõ×_ýõ×dèŸÎŸîïóßöÇÿúëÏŸ~ý¯ûøó?úçû—:ÿ«=ùø¿ë›n×¿6Ùüú?eû0²ªù]ÿÉöÿÀH«æ/àÛñ}Õü¼‰                                                                                                                                                                                                                                           Àïµ¼ŒšÇÓH{×Ï-àU¿½€}ýÖ vù»8åà˜?:€%Ûÿœ?9€kþÊ ®ùƒ˜å`Ö¿6€¥Ûš_ÿxÿÖ nò' ¿þñ,áþwùõ×¿Bÿö ô×_ýõOö¿Ï¯þúëßíïç;¿þúWóë¯=º¿÷¿íãÎÿè¯¿þåüéã¿³Œœn~ýãý¯AÝü®ÿmºý]ÿÝdóû¬lÿÝ FY5¿¯yÉæçE~                                                                                                                                                                                                                                            ~µe3z«ÑöŒ\ÀãÇÈÚÕ-`—¿;€SþÐ ù«X²ýÏù“¸æ¯àš?Ø–?2€IÿÜ –nÿYþÜ ôO÷¿ÉŸÀ¼k áþ7ùõ÷/à6¿þ	úë¯¿þú7 ºÿ}~ýô×_ÿl~ýãýËÿé¯¿þú—óë¯5¿×ÿ«pçô¯çwüWÿj~çÿ7ú§ó—û_0‚ºù]ÿÜtûŸ0¢²ù}ýÃS·ÿÏ FY6¿¯ÿyÉæçE}                                                                                                                                                                                                                                           à·[6ß~
¾¿¸€ÇÛÛåoàS¿<€CýÔ öù³8çïà”¿9€kþÊ .ù‹˜åïöï`É`–?×ž¿Û?6€›ü‰Ìû·î“_ý3nó‡û— ¿þÑþ·ùõ×¿Bÿtÿûüúè¯¿þúë¯,¿þ+ýõö÷ù¿þúwóë¿Ò?¿Üßù/ýëùÿÖ?Ûßý•þéüåë—Œ"ýÓùË×¿UÝþûŒ®l~_ÿò”Í¿ªÇßtóó&>                                                                                                                                                                                                                                           ¿ß²ùöSðÍúÁ<žFÚOýØ ^õÛ8ÔO`Ÿ?;€sþÎ Žù£¸æ¯àœ?9€Yþlÿà –ì &ù{˜ç×¿¢Ûš¿6€›ü…Üôo@ÿtÿ¥Ûÿ.¿þñþ¥è¯¿þúëŸìŸ_ÿýõ×_ýõå×¥:¿þúë¯0¿÷+ýÓùËÇô÷wþ/}úWÿþéüåþî¬ôOç/_ÿtÿ3ÞßýïU7ÿ±ÿ¨Êæ?`teóûþŸ—l~^Ô                                                                                                                                                                                                                                          à/±,ß~¾ey5ÕhûÔÏ-`«_ŸÀ!j ?ùÃ8åï`_¿»€Kþlÿä ®ù+¸ä/`ÉöŸäïõŸæo`Ö?7€nÿiþZÿ›üÝþ±tûßä×?2€»þ©Üæ×?Aýõ×¿×ÿ6¿þñþ¡Üç×¿@ý›ùõ_éŸÎ_îïï?ýóýÃÿë¿êæ×?Þßûýõ×?Ý?|üÏùÏU8¿þ+ýÓùËý'=ÝüúÇû»ÿ»êæ?`4éŸÎÀ(Q•ÍÿYÀˆ«ÖçC|                                                                                                                                                                                                                                           þËêÛÁã'ðxe?ùcx×O/àP?5€}þì –lÿcþè .ù38ço`ÉàÚ?8€%Û’¿×ÉöŸåï`É@ÿûüÝþ±tûßäoõ¿Ë¯ƒþú7p—¿5 ýõ×?Û¿›_ÿ•þúë¯¿þúë¯¨ÿý F‡þúëŸÍ_þø_ÿ•þúGû;ÿ¡=øôŸþ›pç¿õÏ÷ßþqÿk¥:ÿl #Cþôõo×ÿ7Ùü¾þã)›?€–ÍÿYÀˆËæ                                                                                                                                                                                                                                           þ&ËêÛÁ7ëðxeŸúµ¼ë·°Tûïòwp¬_À1´ÿ%f §üÑdû_ò'0ÉÀ¤o K¶ÿ,¿þñþµÌó' ºÿ<¬ÿ]þnÿÖ ô×¿Ùÿ.ªÿm~ýô×_ÿî ô×_ýõ×_ýõOå/÷÷ùŸþúwóë¯¿þú—ó§û;ÿs?€Q ¿þñüåã¿Îÿ¯ÂùÝÿY…û»ÿW¾ý§ÿS¸¿ûß«nþÓ FT7ÿ¡ÿÈÊæß/`”eó¿0ê¢õ                                                                                                                                                                                                                                          øû,ËòíGà[–·óØŒ¶OýÚ žõëØçOà'y Çü¡ìówpÎŸÀ)´ÿ5µr “ü‘\ò0Í¯F·ÿ$o óü‰èŸî?Í_À]~ýôO÷_ºýoò· ¿þúë¯²ÿ}~ýô×_ýõ×_ýõ×_ÿŽpþûŒýÛýË¯ÿô×¿ž?|úçv #EýõÏæ/ßþ˜`ÄèŸÎ_¾ý§¼¿ûŸ«n~÷ÿ7Ýüúo²ùOUÙü‡Œ®lþÝ FZ´þÏ ¾ý                                                                                                                                                                                                                                           üo–—Ñóx|û	~OþÜ/£lW?6€wþôŽùCØÕ`©ö?æ¯à’?3€sÿä –lÿKþbÿYþÆ ®ù‹Ð?=€%Ûš¿Öÿ&a óþ±è¯³ÿMþVÿÛüÝþ©è¯¿þÙþ÷ùõ/Ð_ýõ×_ýõ×_ý;ô×?š_ýõ÷÷ð_0ô×?ž_ÿxÿðñO@WáüÎ¯ô×¿™ß þéü“þ#Cÿò—?¸ÿýÔíÀHêæ×“ÍÀÈªæ÷ý_/Ñúû|ûAøñ                           þ‹6ß~
¾šß âùõoç×¿è'¿þíüúéŸ¶Ï¯;³ÿŸ?£Kþ?›ÑäŸÿ3t òúpÌ_ïß€ü‡þµøçêß€üéþ§üÕþÙÈ?éß€üoÉþþ÷ÿÐ?¿ù' ü;½þò´ûûa~ƒV~‡~®JùùÎ                                                                                        à?ìÜvšJ …QÞ/´KÞÿeº4IPq†Ÿ9{¿ÀðÚÞ                                                                                                        ü×êò|l}€ýÔÏÀÇ—.ÙOý°|×Ï^@ŸÚÿwþÜÜäÏÀuþÔÜåOÀmþÌŒä×?;Æ îó í?–?o úG÷ŸÈŸ0€ñþaÈí?‘?«ÿd~ý#è=€éüú'Ð_ýõ×_ÿ°þ“ùƒúÏä×?@rÐ_ýƒó'ÿóOÿ3ýõ×_ýõËïà3ýõ×?6ðÝŸú_÷w°þúçæïß…	îï°ä‡Çûwq‚û{ ø,7ÿ}ÿ.Pnþ»t‘ró{ÐEn~/ û›ÿ× ºh¡õÏÔ                        €ENg[‚Mó@v}HÏo áùãúg]²SpÿKýìœ‚ûÿÏ¼ ý£p
î•?sÉùïúçà6xÿ!=zÿ!<|ÿ¤¤çí?$ç×?g cùõ€ü“ý‡Ôüú§@þÙþCdþ¸þ©ÿ‹þúç@þÿûOä×?c òÿ¦tþ¼ßøãŸý ÿý£ó‡} ÿ½øþ]¸œüîù•ÜëíCjÿ­Ï³ù£ö| !ÿÕ ¶>Êî´_ß›^                                                                                                                                                                                              àYý§.ÍÇY—î«~Ü .õãðS?lÿóG/ íÿ»~ð nòçà¦è îò§à6æ úÔþ÷ùûåÏÀHÿ¼ô±ýÇòç@ÿèþù0Þ?k }nÿ‰üúëŸCÿèLç×?þú‡öŸÌÔ&¿þô×_ýõÏ€þú‡æ÷€þéùõïŸüëýõ×?7¿þáýÝ  zÿà»?Ýÿw¦¿þ©ýÝ >5€­µùõOïŸûð¯@/ôÏîŸûò‡±ty‚ó{ÈYrÿ›t‘‚ó{ØYn}/ ü[ÿ,¾>                       ÀûN[Ÿ‚-ë`¸èÂýÏ6€Ïúñ8…öÿÉ½€ßùsûÇà”Úÿ:ê ®ó'÷\À)¶ÿ}þÀÜæï?¤çOï?„ç?…çÀH~ýs¦ÿ[_ÿ˜Œç×?d ùõÏ€üÑ˜Ê¯Ä &óëŸ0€éüú@þèþ3ù³úg@þçûYùõ×?JÞ äî?›?¯Ü äî/ÿ­¨þòg@þèþþøÑ?:Î×ÀêOˆïß…ï¿õÁ¶—Ð_þ¹ý·>Ö^„ößúTûÑxþð‡½žÑtþèG}ŸÕpþä}¼ ÙúÁ¯yzQ›õ¯°õIØˆö                                                                                                                                                                                            ïè¿ta>.ºpßõÓðY?}¿ëGà'ònòçà*ì úÔþ7ùCpŸ?e wýÐÇö¿ÏØ4Æ Fúç ·ÿXþ¸Lä×?Dnÿñüaý§ò`¢Ö ôî?_ÿúg ¸ÿdþ þ3ùõ ¿þúë¯¿þúë”_ýõîï÷?úë¯¿þú§öŸ@×>ýõ×_ý3û»0ùîOý/ô×?4ÿÄ º(úg÷~ø×€gúGç~ùÃ™ü÷è’è;€.‹ü¹ï~»ÿ÷ º<ñõ/BãŠ¯                     @ÃÅÖ§Ø…Ó©Ë¬oçø]hþð|ÕÀUþäüäÀMÿØœ2ûßæOÀUþèþ‘8…öÉŸ¸€›üéý‡ðüñý‡èú9ý§ò'`$¿þ9Ë¯Ì FóëŸ²€ñüúgàžÿQÿ!3¿þ˜Ì¯Â ¦óë0€™üú7?€¹úAýS ÿý‡°üúëŸbHÀƒüú·= ù£ð(¿þM÷˜?«Ú äîÿ8Zÿ¬È¿´DNŸþÑ òé/ö äî/ô äŸ£tþö ÿÙý·>Þ4Ý_þìÈÿ„Ôþ[n?ûo}´]‘?]Vÿ­¶Gíå÷ ÿkZËþ–—šªŸýŽ¯…Ú‰ý‚Ç·4ÑþBýlâ§                                                                                                                                                                                         ²þlëC°aüO]–O]´_ù³ðU?{ Wõ£ð“?x·ùsp•?u }lÿ›ü™É2€»ü‘Ð?ºÿhþˆŒäÏÀD~ýCè=€>·ÿx~ýÃûG`2¿þáýÛ€þÑý§òëÞ?h 3ùõ ¿þúë˜_ýõ×_ýõ×_ýõ×_ÿþ¾ ÈþúWýÓû'ßþ£¿þéù“ïþu¨þñý'ÐE?»¿€&Ð…Ð?»¿€£_þáÁùõ?ËÍï@±õÏäÿY@—Hýtê                   Ã0l}¶¬o]z~HÏo áùÃpúÔ÷ÀWý¬ÜæÏÀOþìþ¡8EöÉ9€ßõ“0Ú?o§ÐþùÓp›_ÿ!:¿þI¸Ï¯Î FêëŸ3€Ñüú§,àÝÿAþæ0Q_ÿŒLæ×?a ÓùõÀL~ý›À\ý˜þ¹˜Ï¯ãx_ÿ¶ ÿký‡¬üú7=€‡ùõoy óëßpÿ'òçôÏÀ3ùõov ò/î?¤äOêŸ5 ùßê?$ÔëŸó ô€üÑx6¿þM@þèÈ_¬ÿ ÿ¬ÖûËŸ= ù‹ö?Ú ä€üOÐ¿ËÖì äNvÿ­O¹m@þ§ÅößúŒ»Ñ^ù_’Øë#îK[ýÕYVÿ­¸GíôW‘Vò{Ê©6òÏ÷ßúpûÖB~oxz‡üñŽßë‹8lü3õ³©ŸNütâ                                                                                                                                                                                     À¦ú­Àfúo[„-ëçàã¢‹ö;Ö >ëg/àº~Ô ~ò/ ÀUþÔô±ýoòg`$È îò'öÍŸÚ?p ¹ýGòç`<Ä ôŸÎß‡æO€þúëÛ2nÿ¨÷ŸÊ¯¿þ)¦óëŸ@ÿìè¯¿þúë¯¿þúë¯¿þ]ýõ×_ýõ×_ýõÉ¯¿þñý“oÿrÿOöÝßúëß?øéŸ©tQôÏî?:€.„üÑ/Ðÿ,7¿ |ŠÍ?€.RlþÛt©Bëß K–ÿBþtê                 k†­OÀf†O[ƒMó[@z~Hïo Ùù- =ô Ng]xÿ!º~ÚFúáùOáù#ðS?j ãý‡ìü§ôüq¸Î¯Ö nêëŸ5€»ü9˜é?ç×?g§àþóù0Z_ÿ”Lä×?c SùõOÀd}ý0“_ÿö0—_ÿÖ0[_ÿÖð Ê †Ð<Ì¯Ëxœ_ÿ†ðDþþ‘Qÿ!§¾þÍà¹üú7:€'óëßæ žÍÓ?j O×ÏÉÿjÿ!"¿þíà…úAùcðJ~ý[ÀKõ£òGàµüú76 ù£ ñþC»ùóú·= ù«ô?Êä€üÑP¿fÿÝ@þèÈÿ¼ûË= ù£ ÿ«šê/ÿëê/ô Ô_¨þò/ÖBùß‘•ëÃîÐÁûËÿ¶#÷W¿ùÓ5Ÿë£îüé—ßó½¥ª¾§û+8P~ïv©ãñ½Ù©ª½·¿?œø                                                                                                                                                                                      »Ó_l}
¶¬oéõóðqÑ%»ÊŸ5€ÏúÙ¸É4€ŸúÁ¸Ë3€ëü¡ýGò‡öÏ@;€Ûü‘ècûßçÀx~ýSè=€‰ü	Í¯xÿ¬Læ×?Bpÿ‰üú‡÷OÀt~ýè¯¿þ¹Ð_ÿÐLç×_ÿsùõoŸþúë¯¿þú‡å×ÿLýõ×_ýÃúûý¯þñýÝþ—_ýCó»ðBÿèüÉOz ä,7¿ç¿.bó Ë›ß >Åæ÷O±ù½ êKhý›l}6 :õ               ØÌ0l}63|Ùúlšß Âó@zÏo éý ;ô N§S×¥÷OÀéKž?t ßù£0ÞH®¯à ~çÀTþ´\ç×?k 7õõÏÀ]þœÌõróë³€±ú1ýäÀx~ýC0‘?e Cö &ëëŸ0€™üú·?€¹üú·>€Ùúú·¾€ùC0„àa}ý[Àùõow Ïä×¿Ù<•_ÿVð\~ýÛÀ“õõosò'àéúú78€êëßÞ ^Ê¯cx­~Jþ”¼X_ÿ¶ ÙþÇZÀËõ“ú7?€õ“ò/í?4œ?ªÿâ­ÖÏÊ¿¼ÿÐhþ°þí@þÊýw½€…õãò7: ùWé?´U?1ƒ?z ò¯ÙoP?z ò/ÑJÿÅõ³ó·2 ùk¡¿üÉPÿ=ï/ÿÛŽÜ_þŽÛ_þ2Ú_ýRÙ_þ‚Ž×_ý²äOãSïÜqò»Ë·Ž¦óo}èC8D~ÏwU´ÿúžî¬lçõ=Ú_ßŽã{¯ËJöÙþLülÚ‡>æ\F°õ                                                                                                                                                                                    €YýÅÖ§`Ëú^?n _º`Wù£ð]?z 7ùƒð+î úØþWùSpŸ?e 7ù30–?µâ úØÜçì?ž?µÞ rûåë?‘?¶Ú úÜè?“¿Í6 ýõ×?v }nÿÉüúG@ýõ×?z úG÷ŸË¯û‚ûÏä×_ÿúë¯¿þúgö÷ÿúë¯¿þúëŸ—ß÷¿áýƒïÿÐÿ,6¿û¿>é¯dþÉtYôÎïñßðþcèBÈ›ßóÿŸRóß ËZß€þË¬&ÿ—ÄøgêÇS              €Ã0l}¶¬±õAØ4¿¤÷7€ìüžßºôþÞß ²óÇàtÑEí?äÖÀxþÀü¯Ÿ5€©þCpþ¤Lö‚óçôŸÎŸ4€›úA˜ë?äæ×?h #ùõÀXý˜<È0€‰üúg`*¿þ	˜¬Ÿ2€!z sùõo}³õõo} òëßö å×¿å<¬2€!s Ïä×¿Ù<•_ÿFð\}ýÀ³ùõoqO××¿Á¼P?"ÿëý¼€WêëßÚ ^«ÒÑ †€úú·4€×ë‡ä_ØÿXXP_ÿf°¨~LÿåZ®“ÿþCÃùõoa‹ëçäs C“õõ?þ Þ©Ÿ”ÿíÍÕÏÊÿvÿ¡µüaý›À›õÓò¿ßWx·~\þ¦ðvýÀüí@ýÍúïa ò'àýú±ù[€üo9xÿõ£ó| ê¿ï¸ýÔ—ÿ¸¿cö—¿œöW¿¤Ãõ—¿°cõW¿¸#õ—¿†ÃôW¿’cäw§G5‡è¯~EûÏïßºZÎ¿úai×ù=Þ³†ÝÖ÷lçJvZßƒÝëÙa}¯uXÛžÚŸ‰NülÒ‡Ó=œîñ¤                                                                                                                                                                                   €CéÏ¶>ÆÏÀÇÇG—îþ¸||é‚ý®Ÿ5€ïúÑècûÿÊŸ;€Ûü9¸ÊŸ:€>¶ÿMþÐô±Ð"Ÿ™?q £ù30Ò?o ¹ýÇòÇõŸÈÛ?m }ì Æó‡õŸÌ¯ý³Û*TÿéüÍ`²Ò ô×?³ÿt~ýõO¡¿þ™˜éŸ3€Ùüú7Oýõ×_ÿÌþþý§¿þ¹ùõ×?3¿þúëŸÙß÷úGçwÿþ¡ýÝÿy›_ÿðþžÿ¹ˆÍ¯ÿ§Ôüžÿý›l ] Øü÷è"Åæ¿@*µþÍ º\¡õÏÔ§>              {1ÃÖG`3Ã—­ÏÁ¦ù <¿téý ;¿„ç7€ôþÞ?v §ÓéÔeË:€sý¸Œ÷rëg`"Þ ~å×?n ¿ëG`ºÿ›?g 3ùƒp—_ÿ Ü×ÏÀ|ÿ!6Hÿù0ž?d Cú ¦êë1€éüú`&Æ †äÌÖ×¿õ<È¯ÓxT_ÿ¦ð8¿þíà‰úú7»€§êg`À³ùõoqO×OÈÿjÿ!§¾þí-à•úú·¶€×êëßÖ ^­¯Kx½~DþÅ¯3XV_ÿ6°´~Hþ·úÍÆ×¿¼S?¦ÿ»Ú¬“ÿíþû\À›õƒúÀÐ\ý ü%úmÅÊ_f CKõõ?êÊÔÏÊßÎ 
ÕOË_ªÿÐFý¸üå04P?0ÿñP®~dþrý·€üûÀúP?y ëç?ì_òG@ýèÈ_ÒÑú¬/ÿñ ~y™ýW9î1§¿úu¤¿úÕ$õ_á¤Çs€þêW%ºöû×?å±í8¿;¼W±×úïXË>ó{¸kEû«ÿ^þuŽØ”}Õ«ÿZGlÎ~ê{©Ãföß}v`³ôÚgÓ>œòá”§|<á                                                                                                                                                                                    Ž¥¿ØúlY?qg]¶Ÿúi¸ÔO_@Ûÿþä\çOÀ¯ü¹¸ÍŸ3€«ü©ècûßäÏì?’?d ·ù3 ô FóG`$^ÿ‰ü©ýãÛ4¿þ1ï6€>¶ÿD~ýõÏ1¿ùLõ@nÿÉüúëCÿìô±Ð?ºÿLþ þ³ùõožþúë¯¿þ™ýýûOýõ×_ýóòë¯¿þÁýçÐ5Mÿý£óëÞ?÷@ý/Ró»ýûKjÏ|JÍïñ¯/¡ù=þû-4¿çÿ¿…æ÷þo™õïÐÅÊ¬&ÿ—Äøê             ;3Ã°õØ²þÅÖaÓüžßºôþß Âó@zÈÎ<€Sf¼ä N_º ùð?j úßÕÀdÿ!8Î ¦ógà&¿þQ¸­Ÿ3€ÙþCnþþóùC0–?d ú©õõÀTþŒá˜®¯À æòëßú fëg`À£üú·¼€‡õõox OÔ×¿Ù<U_ÿFðd}ý›\ÀÓõõop/Ô×¿¹¼T_ÿ¶ðbüˆü‹úr/××¿¡,¨¯+X?¤ÿšŽ’ÿþXÀòúú~ïÄOÉÿvÿÝ.à½ú1ý`h/¾þ^@ø9ùËôßÏŠÄÊ_l CCõõ?âŠÅÊ_r Cõ³ò—ì¿ÕJÆë_v Ãáë§å/=€áØõóò—î¿æŠ×Ìà¨Ÿ<€âõSós òG@þè¨= ù£ ~Çé/ô Ô¯$±­CÓ Eûï¯~]Aý«œïøvÝ_ýì·¿úëh¼…“µf—ýÕ_Ñþòé_áXÍÚYþ÷û×8TÛZÊ_ãLvRÿÍþuŽcóøïõ¯v¦(¶?¶h¦}6íÃIŸMùtÒ‡“                                                                                                                                                                                     àHúO[ƒ-ë@zþ´||ê’]ÕêÿU?{7ùƒð+î îòÇà*ì bûßäÀHþè?•¿Ì9€>u #ù0‘_ÿðþ}dþ¸Læ×?‚þÙèS0•?«ÿL~ýèŸ=€>u Óùõ×?†þúëÛ¿Oí?“_ÿ€è¡¿þúçöý€þŸô×_ýõ×_ÿ¸üú‡÷Oý°þ_ô×?/¿»?þÓ_ÿ¼þnÿû/2¿»¿è¯Zþ©t‰ó ËXßãÿ¿Ö?“ÿ¿¼øgòÿÖþ“úñÔ            öiø´õ1Ø²¾téù- =¿„ç7€ôþß Òû@vþÔþ§‹.ÈDÿ!·~Ô¦òà§~Ð ¦ûÉùc0ÓHÎ¯TÿÛú)˜Ë4€‘üúç`,Æ ôrëë2€©üú'`²~Æ †ðÌå×¿õÌÖ×¿ñ<¨¯ÓxX_ÿ†ðD}ý›ÀSõõosOÆ×¿É<__ÿæðJ|ý[›À‹õò/éÌ¼?¤ÿ²mâëßÌ–Õ×¿‰	,’ÿ­þ»ŸÀòøú~oÅéÿþ v9wãÇä/Ñox?¾þG@‘öAù`û	”Š¯ÿñP°}TþÂØfeãgå/Ýõ”ŽŸÖ¿ü †c×Ë_¡ÿj¨Q?-ÿ ÿ~0³~bþ:ýk@þäÔ©šÿxP?z ò£¥¨= ù£ ~ö ä¯äýÕ¯ç P?z ò×µóþêW·ë¨¿‚ýö—;í¯þjï_êDÛß Ô_×Îú«¿¾å/Ô¿ÌY‚´Ô¿ÌAòì¡¿úÛ:øÿ2‡·aþ·ú:g›Ô£±ðcíúûüï3b¥ögÚ‡“>œôá„O';—l}                                                                                                                                                                                      žÖ÷ýÖG`+ý·­Â–õ =Ö >¾tÉ®ó'à;ô nóÇà§~òúÔþ×ùS0’?d úOåïóg OÀ}þÄLäíŸ7€>u £ùãú÷©ýÇóÇ O€þúG Oí?™_ÿˆèÝ:¿þáý£Ð‡@ÿ'ò÷‘ùõ×?…þú'@ÿèþ³ùõ×?†þúë¯¿þúÇô—ÿÙþm@ÿúë¯¿þúgöO¼@þ_ôÏîx¨üÙýÝýw%.¿›¯¥å÷ðÇ´üžþ¼‘VßÓÿ7Ââ_èÿKXûOò§S?žú           À®_¶>›æ·€ðúÐ¥ç7€ôþß Òû@vþäœN§S×¥÷‚ëG-@ÿ‘úA˜ê?dçOÀdþ¼\ÕOÀLÿ!;Æ æúÙùõï¢óë?$×ÏÀ|ÿ!:¿þ˜ª¯Ä ¦óëßþfêëßü fëëßø Ô×¿é<¬¯»x"¾þ­.à¹øú·¹€§ëGôi ÇŸÀñ3ò¿ØÿÐx)¾þMàÕúú7´€×ãëßÌÅÉ¿¼ÿA&°0~Lÿ·°÷	,¯ÿá7ðVü˜üúïqoÆê_h ûÙÀûéõ?è
¥Ê_´ÿ†(Ø>«él0Âí³ò—ï¿îÊÇÏÊ_e Ã‘ëë”Ô©–ÿ°¨T?.¥þµ ò jÕOÌ_o Õ ÿ1úW€úÑ?z ê©ñÈ= õ£ -‡è¯~ô ä€úÑP¿º=÷—?z ê¯c§ýÕ_MBÿ"ªYû€øëÚYõ××fÿRW'Â^ú‹¿™†ú»&iZè_ìbdÚ4ÿÛýK]…pÇÌ_ê§çì`ýKýØü¶j}/qÛ§õò/é_â'ä±úñ_î_ä?ÉåÓÒ>œðét'<                                                                                                                                                                                       Aÿeës°e}èÒógàãSí:Ð ¾ê‡/ Oíÿ+ð îò§à*ì Fògà&è úÔþwù3Ð§`¤à úÔþcùÐ‡`<\ÿÉü­`¢Ú RûOåë?“?´Ö úÐLç×_ÿ}æ fòë¯Œùü™ý“Ðg`6¿þú§è#0Ÿ_ýSè¯\ÿùõo| úG÷”?©â_ úG÷—?û/ ýÓ?»Ü_ óëßô ô¿¦tþ¸¿ ô¿¡vÿ´{ ä¿¡vÿ´› å¿•ß³?wÂò{øóVXýù‹JÿEþß¢Ò‘?žú          À1[Ÿ‚-ë›@¨_ù <¿téý ;¿¤÷7€ìüÙ8}ê’ûï þü©Y?f Ã1ðç¢bý”ÇÀgÿÒ¸ÊŸ1€Éþ¸É¯ÿúÿ©—?¼ÿpŒþªåÀPy »c`¤~|ÿ÷ð÷ïßú¨–?¾ÿpˆþjå×Øoþ‚ õõ/0€®¢Bý'óëˆÿ¨U_ÿý {3ÿ\}ý±€jõ#úçàQ|ý[^Àõ#ò?Ù¿­<_ÿFðd|ý›\Àóõõon¯ÄOéÿâ Ž;ã§ä¹ÿ!'ðr|ýÛ™À’øú·²…õcú¿1€ýo`qüœüïõßóÞˆ¯ÿÁGð^û¨þ¥°—¼Ÿ>+Éþ›N Lxý8¢éÃòWÀª(Þ^ÿ- Jý¬ü•05~\þJý«/@þäÔª˜¿ZÿŠ?y Õêgæ¯Ø¿Ê ä€úGê_|òG@ýäÔªŸž¿nÿbP?z òG@ýªöÞ_þè¨= õ×°ÛþêG@ýÕì±¿úkÚß Ô_×Îú«¿ºfû½JMÛMõ·ÒVÿ²×&ÄöýÕßÚñû¾ 6Ëÿ~ÿ²"Øû—½¬žßk|ögÍüÞà¶S+å_4€r?%³ê×÷æÞƒ¨ÿLùpÂ§SÝ                                                                                                                                                                                       `ßúO[ƒ-ëàãã£K÷S?lßºd×ùƒð?ô nó§àWýäô¡ýoò§`$Ä îòg`4À FòG €þ³ùûÄüy˜Ìßø &òëÞ?m }æ &ó‡õŸË¯xÿ>0Ø ô×?o sù£ú?È¯xÿ>/¿þ­÷ŸÏ5 ýõOÀ£üúëŸ¢ÏÀÃüú·Üÿq~ý[€þÑýŸÈ¯»x&¿þÙý» }Ö üñÀSùõ×?G4€çògõO€ü#ôÏîô/ ý³? äÓßoFé?éK ù³û?\@)'ÿ™üw‚ê’ÿFRüOò_‹	ÿCý)á         ²?g[¢-Ã§î8ý xý£Là³¿ÔÈ„|÷7€ýk-àïß¿¥û@üUð÷¬x¨Ò¨R¿X¨Ý¨Q¿Nÿ8}ébû5òë_y ßùC0TÀOýjýË.à§~È †Šø]¿bÿ?•ò'÷ö›¿â ®óG`¨6€¿ëõÿS'tÿa·ù+à®¾þåò×îÿ§FþìþÃnó×ø ËÞ(—¿tÿâÍŸÞù jç/Ü¼¾þÃ^ó—ÀT~ý‡Ýö/÷K€Éúú/]À
ùKõŸ©Ñ¿Ê VÈ_æk€Ùúú/Àù|ø ~Dþ'ú/XÀùoP:¾þo`•üW(__ÿ7°Fý³EýŸŠŸÒÿÙìõÖðjõCò?Ý·¨_ÿðJý˜þ/`H‰¯Sx9¾þM`Iý˜üKúi‹â'õ_:€C¬`i}ýXÁòøIùôßá
ÞiÖ¿Ø v2‚wÓëÌ	é˜¿tÿõ'P²|^þXoÅÛëœT‰—¿Rÿê¨T?.½¬˜¿^ÿzÿŽU?3Íþ5 ÿ‘Pzê¬ÙÈ= õØ¿ØªÕÏ¨= ùÜÿí¨= õ£ };î¯þ*ö: õ£ þzvØ_ýUô/}É³¯¨¿¾vû—¿VmÚMõ·ÒZÿ
—¨uÛ÷WcMô¯qa‚»+g£üåß‘Ãõ¯pâ­›ß;|viµüÞß¶_«ä_Ð¿ðÉ¼ªõ½¶ùHÊÇ?Sþp
•ÿ¢|:åùÁÖÇ                                                                                                                                                                                          nõg[‚ã'.àããã£K÷S?lßºd×ùsð¿~ônëÇà*ì FòGà¦~ì úÌÜçÏÀxþö0Ö?p Sù[Àh~ýSúçÏÀtþ¦0•_ÿŒLö@ŸÙ:¿þ˜ÉŸÕÿAþÄþQè#0›_ÿÖûÏç×¿õèÝÿAþ¤þó·7€Gù“Øÿq~ýÀùõ×?DŸ6€gòëßì žÊ¯«ýŸË¯£x2¿þmàÙüAý“ ÿ;ýû˜üú79 ýßìß‡äêó ö€üãôÏîŸò€þÙýýòoŠþúô÷Ýß”Œü¾ûŸ”‘ß­“2ò»õ{RFý3ùGeÄÿ$ÿ˜Œößä¿—Qþ?õÇ$”ÿE|   €}øóçÏŸ­ÏÀ¦ù ½¿¤÷7€Cúû·T8ž¿ö7€Ö»¿T1œ­‘¿d(Y¿î¾ê—ío…óW[Àßbý jþ*ø©_¼¿”î_~‹ö7€Êùàoáü·ýë,àt:ºÔþCµü%ú×Àé[Ú¨T¿Hþûþ…ð?Ä †z¸­_¨ÝüªÜØqþ±þÅp•?a C¥Ü×/Ö¿â nò÷ö›¼ÿŸ
ù“û¥ó—ë_k wùõßeþ‰þŠçî?”Í_²ŒÔOè_c ÕóWè?š?¼ÿ°×üå0ž?½ÿÒ¢¾þÃNóý_€Éúú/YÀ:ýËýè”Ý¿ø ÖÉ_êà”žÿaÿW°Nþ2 ³õõ_4€•ò¿ÿ=àƒøú/[ÀZùÇP´~HÿÒX-ÿ;·=S?$ÿSý_YÀjù—ÞúT|ý—`½ü‹x¶~LÿgðôV«ÿúaÏÇ×ùV«öBþ—êÇä¡í§D—zê“ÿµúúj¥ã'õq œÀ‚úú73‚Eõƒò/ë,‹ŸÕÿì{‹ëëø¼Ñ>,©þûYÁ{íãú—À†x¿{dþâýWŸ@±ð‘ùkô_m…Óë Ôh˜¿Þ †ÖÌ_¯½ÔªŸ˜¿ê †CÕÏÌ_µù¨¬^€üGë?¢~pþê(¶ õÙ¿Ì Ô?î 
,@þ#÷w êG@þè¨= õ“ þ:vÚ_þÕìq ê¯(¥…K×ˆ½@üµíª¿úh¸Öœ½ôW3»€øÚ¾¿øÛ6±þµ.O‚Ã÷¯ua‚·­+çˆýk]‹Tkç«¥koÍþ‹PçGçÛJùõ¯ò3¦vþ—Págäuê{cûÁŽ&}8éãÉ                                                                                                                   ÿØ»³,µ•,£„×”eÞÊóŸH­llgC#)N4Š³÷c]}?r&	Ê                                                                       ÆrzÓûnÐ1~Âüüùóç’ÜÇú©ðó¯%±¯ù³à_ýÔøž?Ç >åÏ»€[ùàký¬¸úÜÈŸr ÷òO>€›ùö¿ŸîÜîŸo §œ¸“?Ý N9ûßÍ¯†ÜÏŸl OòO:€GùõŸ¾ÿÃüúO?€Çý3à”±ÿ“üúÏ=€gùõŸºÿÓüúÏ<€çùà”®ÿšüúO;€UùõŸu ëòë?ç VÖ×Î¬Î¯ÿŒXŸ_ÿ êlÈ¯ÿ|Ø’_ÿù @ÿ@ÿÔýåÏ= ýs÷÷åÿúë¯Úüy^Ðÿ6ýs÷Oó3 ùoK’ß›?îI’ß{ÿîI’ß{¿ïIRßg?îÉÿ•ü·$‰ÿJþ[r´#ÿ-Iâ¿Qÿ¦1ÓŸÏç
·ªþAœ_TºmíÒ¿Ú8HHÞß ìr)ïo Gu¹„ô7€ãæßßß fÈÓß Žš?¨¿4A8~ý¸þ-¿?dˆq}Ó$Y¨V¿Þ.qù¿ö7€Èüup‰ìÿm ™?~—Øüßû@lÿkÅúýo Â~ýúõkIÚÿ:tþx©Ÿd7ò‡à[ýjýCð§~Š\ë RþÚø?mÿk•úUû-àcý¸ÖÀ¥bþšø’?oÿëÀùïõ?‡çŸ¿•\*÷¯5€oùà>€KõüwûŸ£ógî·ÜªŸ»ÿuØü÷ûŸcóçîÌÛ?üð+kÿè´É|ø•7ÿãþ×AŸþ±'€»ùõß:€Vù¿¼__ÿÍh–?êð¨~ŠþOp³È	àqýùŸ÷ß2€vùËð$¾þ;Ð0aÿçõ“ô@ÃüEoXS?Iþ5ýW/ iÿ›«¯Ì jÞõ]ýWÖOÓå Ö- iþX?Oþµý÷ ú}ßÖC}ýw. iþM	ÞT?QÿX³€–õ_Ô©¯ÿþ	´¬ÿ¢FýDù7ö¯ùIñJ¶×OÕó Žµ=õSåßÓÿ(+Ø_ÿIf°·¾þÌ`üdùÃ0ÎJÚçËÛ¿ë
ÃëÔÄ„Ï™¿Ò ÚL 2|ÖüµúW^@|ú¤ùëõ¯¸€:õSæ¯:€ëâgÍ_µüªÕÏš¿rÿàÈŸy êr ×ÑëçÎ_¿ÄÔÏ< õÞ¿lòg€ú© ~êÈŸz ê72fõS@ý–†€úÕ_ýæFê¯~ã@ü>é¯~?Óõ¯y°¦4Uÿšj^}û‹?€ã÷¯zx28rÿª&ùËû×<"ù4ï_6€ŠG"¯¦ù]ÂcL£÷¯÷Èù§~~—î;†jù]³ùHâë¯@…GÃ^aí_IŸìéI                                                                                                                                                                                           c9õ¾ôrú§÷]¡gýdøùóçÏ%¹/õóàç_KbßóçXÀ¿ú©p3ÿüø\?ï îäŸ} ßò']ÀÝüsàVþŒxæÜÎ¯’ÜÉŸo §”ýïæÏ6€'ù'ÀƒüúÏ?€Gùsà”±ÿãüúO>€'ùS aÿ§ùõ_“²<Ï¯ÿÄX‘_ÿyû¯ÉŸh §\XW_ÿI°6šþ«óO1€ÕùõŸq ëóë?á 6ä×Âè_Úÿ”%¿Ì7 ýúŸ’ä×?wÿ%‹S–è“þúë¯ÿôý·`ICý3ä÷òÿmúçîŸèG@úß’&¿wÿÜ”'ÿê,©Œ^ÿ|>Ÿ£nKþ†®ÿÖ?l ÞýÿÝÐõßû7À’ÎÈõÿôo6€%¡ëÿí7€ÇXRjÿr)èßf KRMêïê_c w°$Vù¼)î9 ÿ»¥â?ú—€þ¡põÏ–öç¯7€Oˆ½eêô Móïìo ¹óë?GþÝý wþOýà ùúÀùÃú@¶üpøú…ý¿À’åÿÚß \ß5¨_Üß jÕ¯µ€Øüß`qýãp‰Îÿ½¿Äå^À—ú!ýoÀû_Ïs ÁøõjI™?lßê×ì¯Ÿc×Z¸TËg çðúyû_kÔ¯Ýÿž?Á ®UP7ÿÝœƒë'î¯Ù¿Ö ¾æŸ ×ð\ä¿Ûÿœ?qÿëÀùëàFþÌý¯¡ù[õ?GÖŸ¿ð ZåÐÿ™?wÿë¸ý£O wò'ï6ì	à^ýôý¯Ãö<üJÜ?r -óÇ ~¥Îÿ¬ÿuÔþA'€Gõõß¶€¦ùC^x\?EÿÀ­ÿ³ú)ò¯è¿v móþài|ý· qþ’þkê'é¿j ëÐ¸ÿî7¬«Ÿ$ÿºþ«Ð8ÿÎ·‚­¬¯ÿæ´Î¿ç½ «ëgÉ¿z +Ð:ÿæ7ƒ¯¯¯Ä ªß÷Mý·Ô××çßò‘àmõóäß4€§híUA6Ö×ï×Q¡~¦ü[û??4lÿ.¸~®þ;PírñöÔÏ•Wÿƒ¬`W}ý'YÁÎúÉò—`Èì¯ÿñwPÐ>aþàþ]GPV>gþ*h>€òúoaÙç¯Ö¿êÂË§Í_u ×ÅÏš¿jÿ
PÿPýcP+~âüõp¿~æü² õÛ¿|êg@Åúò·é_° õS@ýÌ¨X_þñ ~ê¨Ÿz ê·4Ü Ôok°þê77Ò Ôï`òþUÝFé¯~/c@ü~è¯~_Sõ¯}°¦4KÿÚÇibô¯}ˆfwèþµN=òô¯|TR9\ÿÊÇ#£¶ý}ˆDíò»‚Ç¸Zäß5€Š™jæwÑÖÃ¨’ý j=,6ŠŒÿBûìdOOzÞFÐûN                                                                                                                                                                                            @f§?zß:Æ7Œ¾äÏ³€Ÿo–Ô¾×Ï±€÷øÙp;ÿôøX?óîåŸ{ _ë§]Àýü3àVþ”x”ÚÜ®Ÿq óO:€»ùó cÿù³õ–Æ<ÊŸl ÏóÏ7€Çùs aÿgù3õ_“²<ÍŸi §tX‘_ÿyû¯ÉŸg +óÏ3€uùõŸt +óë?ç Öæ×Ê¬ÎŸf §LØ?IÿMù? ýS÷ß’_ÿù qÿS–üúëŸÀ)Ñ ôÿNýõ×_ýgïïû¿ÆÏ>GÝ’þÇì¶ ý¿éÿ²9Ô äÿ¦CþËe{ÿæX’è‘OÿÖX²èÏ? ­°dÑ´þŽüû7À’FÓüô_7€%†õßòoìßc K"íêïzúèßî… %“Æù7÷o?€%—Fõ÷æÿÐ¿Ñ –dÚäßwößßõ?>iQ÷Ó¿Ê	àÁ –ŒFÎßv KN•ë‡õ¯=€%¯šõ‹ò×9ÜZÀ’\¥ø¥ùkàË"o™ïùcú‡àßBo•ØüÀòÀáóö7€ÜùàÐõƒû[@ºüpàú!ý¿ÀŠ]ßU¯’ÿÛ , ¤~•|ª_«¿å_@•üP±ä.•òß€å[À×ú•ûG.à×»%gÿk•úùëàOý¸VÀúú‡,àCý¸Ý¿l—êùëàsþ¼ý¯Áõõ/]À—üóà=€6ùëà[ýÌý¯‘õö?GæÏÜÿ:rþ
¸•?uÿk\þ¦ýÏaõ“÷ß:€–ùƒO ¿’ö@Ó§è	à^ýôý7-à°ýïç×ÿ:jþ° Ô×Ã êª?þÀ´Îqx\_ÿ-8^ÿgõõß2€æùË^~?EþuXµ€#õ_S_ÿmhž÷×ÕÏ‘?n íóß@H}ý·.àýW×Ï’uÿ§hŸÿö Bêçé¿~ ÏÐ>ÿ¶l©Ÿ'ÿ†þOÐ!ÿ„ÔÏÔË / CþÕ•?¤ÿãtÈÿe 1õõß;æõ×\nsýTùwàÑZ×\_ÿÂ³À@öÔO–gÿ#Œ`WýtýK0òvÖO—¿´ÿ+Ø_ÿã¡ }ÆüÁý»® ,}ÎüuÐzååÓæ¯Õ¿Å‚²§Î_s Õ&>uþªýk, Jü¼ù+÷^@¥ø‰ó×Àuøø™ë7è³€zõsço2€ë¸ñ³×o4€’¨?Aÿëˆõåo8€]P?õ ÔO= ù3@ýÔP¿­Á ~k9úW=„7Ð Äïb”þêç€úÝŒÐ_ýž¦ë_ÿMfªþõ×„¦é_ÿPÍj‚þõÒÜÝ¿þáÉà¨ýë™4Ž×¿þ1I¦mþ²þÕFRû»‚Ã¨ÚäwõžÑÕÍï²Q+¿vKt}¿©e%õ_èžôH                                                                                                                                                                                             N§Þw.NŸô¾7ô¬Ÿg?þüÙû>ŒX?Ã~~°$v»þäø?÷îæŸy ßò§]ÀƒüÓàVý¤x˜ÒÜÉŸq OòÏ8€»õà”¯ÿ£üépJ7€Çù“`EþÉð,ªœÒõž_ÿ‰°"¢¬Ì?Ï VåÏ3€S¶è¿/ÿ)U~ýçÀÚüYpÊ5€õùsôß”‚lèŸb ÉúoÉ¯ÿ|Ð?uÿMù3ôßšÿàÐÿýõ×?ï zõ¿\VÿÑóy	£ÿý/—õýÏ/– úÐÿ%ÿêœû`™_¿þË¦þQÐÿ³áŸþ=°Ìï8ýƒ ÿ'Ýò÷êï€Ÿ´Ï¿õéßq ËüzåßÓ¿ù –ù5Ï¿ýéßí°$ÐºþÆoþºž –ºäßØ¿Ó –çßóôïï µ­ÿÚÇÿ«Ç –Úæß+º¿O€þu„ü°¤q„üÑ?x>€%#äo=€%“#ä~'€þ!Ó,É!ð{Á\î“ñë7À’ÓøùÛ`Ikôú/‚ðmKrCÇ¯ðE ë¿Løë ïˆ¼AŽôR0uíû™ßóZÀìzÃÇÚXÀØÞßìY¯¿	”º¾«Y?¸ÿ—X@yý
øP¿rˆÈº€Oñë÷·€þQ¸ÔÍo µò‡,à[ý&ýãðëÕ’´é.òßî²€·øIpÀ­úúWÀ‡ü	pÀíúû.àSý¸×çÚå¯2€¯õ3÷¿ÆÕoÜÿ—?sÿëØùÃp£þüxÔëŽÝÿvþÜý¯1ù›÷?GÕÏÞË Zç<ÜÍŸ½ÿuÜ§Ü	àWÚüèÐ?æð ¾þëÐ!Dÿ‡õõ_¿€ý‹_ú•=Ü zä/ìÿ¬¾þp´þÏãë¿e =òß@Hýù×àùÔ]}ý7 Gþ{©Ÿ#Ø Òuý,ùW÷¶€ùo ¢¾þ[0~ÿ-õÓäß4€‡è‘ÿÖ "êë¿c=òÀ?&Ð , GþuŸÝX_ÿ}è‘ÿó bê§Ê¿½ÿýt¨ÿô‚Ûë'ë¿g '0ÒE¡ä¯Ó¿Î%¢í©Ÿ-ÿîþÃo`Wý|ý‹0ìvÆO˜¿¸ÿx#Ø?cþ˜þã,¡ ~ÎþÑè·‚²ôYóWéßzåéÓæ¯7€Êˆi.Åþ•&^>sýÊýÃP%~æüÕ8Jñsç¯ß?fÕâç®ßf ×aãËßf %P‚þ{P3¾úÃ@þÌP?õ ÔÏ<€šõå~ ê76Ö ÔÏ= ñ;§¿ú}2 õ{™¶ýC7‰ ~WÓõoqÐ¦2SÿÇk>³ôoq¬&uüþ-ŽÒÌŽÝ¿ÅšÞQû·86I°‹Ã’JÓü…¨4R:Dÿú‡!µFù]¼glãõ¯ýˆù¦f~×ë>Žõý¢–Ã+Ìÿx Õî5Áöµ#=Ò                                                                                                                                                                                              tpú«÷=¡_{Hç[üøùÏ’ÛÍús/àCüô¸›Ú|«ŸxêÏ:€›ù“àqþp§~Î<Ë?ß äÏ7€SºþógÀŠü“àIþ\X•ª<ÍŸi §týWäO4€S¶¬ÊŸ¦ÿêü³`]þ,Ø’¬íŸc éú¯ÎŸ¢ÿ¦ü3`}þÐ?uÿù'À–þó ]ÿMùõ¯7€ËårYóçÎç%’þeùOùWö€þCô¿léîÖöôêÙÖ?p ú—åì¿¬î7 ýè¿áéßù°Lí OÿÎ'€ejGxúG@ÿŽðôï{X¦Ö'ÿúïýû`™Y§ü«_úûKÿÙúoütû`™Z—ú»ôÀ2µÃäþ1þ¯Ž“?˜ü¯²æ_=€erYóûÀ›´ù}èMÚüú¿J›ßg@ßäí¿b Kió»À›´ùŸö_rÈšÿÙ –4’æ<€%‘¤ù`É%gþûý—lRæwÐ2æ¿=€%«tõ_¨ÿIªö¯Ä?¦àDÝM¼½+<øãÁÚø9½ùM ÌõEø­¾È«Ú >÷·€¢úÑø¿Ú ¾ö·€Âüqø\¿Y(Í²€¯õ[ý`ù‹ð½~ÓþAøõë×’µÉnÕoÛ?`¿þX’öß»€ÛõÛ|5€¿ñ3à^þ}¸´í_c ŸêÏ?€ûýw,à2LÿsTþÌý¯Qù;ô?ÇÔŸ~ ûo[@ûüÁ'€[õ“÷¿¶ÿ9¦~öþ×€üGè¯þìýãÐ#Ô? ÷ëë¿vÇíÿ¨¾þkÐ%ÀK ¿RçÀ1û?©¯ÿê±ÿÓúú¯@Ÿü?Z?Aþ°¬ÿªúúoX@ŸüwQ?Cþ°ŒÕ?¢~Žüëû_§è¿º¾þÛÐ'ÿÆ÷n¨Ÿ$Ø :åßÒK}ý·. SÿÕØV?MþzhuÿåoÙÿþ:åÿÚ?¢~ªþ›po}ò@HýTù·÷_±€¦àqþíõsåßÓÿÞzÔq?ÿŽúÙúï@ügÆ‹DúóåßÛ¸	ÄÔO—¿d o`_|ýçØÀîú	ó—÷lûã§Ì5€!†PÒ>kþàþÝVPØ>mþ:h¸òð¹ó×ê_sQÍå¯Ú¿Ê*´O¿ò b'P'~êúÕûG- Rûôù |õâ§¯ßf ×AëËß¨ÿþ¨?É v-@ýÌ¨Y_þá ~æ¨Ÿz ê76Ö ÔO= õ{f êw2sÿúGoC@ýŽfìßâ¸Íc¶þ-ŽÙ\:@üîzöWÇïßæ8MìÈýÛ¡Ùõè1€&'‡æù‹û·8*¹¨‹Ã‘QÃþ»Ðà0¤Ö(ÿ®þõ=¯ôwÕÆÑÕÍïrÝÇP+¿ßÓrdåõŸ â'Ðîú/´ÏNz                                                                                                                                                                                               €N/zß	º¥ÿ£÷¡[úøù¢÷7þÔøùÙ’ÚÝú³àKýÜxTÊÜ¨ŸxOòÏ7€{ùSàiýép?ÂœÒõ˜?Û VåŸj OòçZÀÊüàyþDX¿ù Îçs·üipºÿ¹[þ$Ø’?| —ËåYÿs·ü)pêØÿòâiÿðè¿¿ÿ):ÿÃþUN ëó'À©_ÿËÚþç~ýgÀæüX‘¿Ê	@ÿ!ú¯yú×À¦ü“àÔ½ÿó?§ÿ”ý×æhcÿ©pˆþÁô/ÊÚéAÿú/ê;üÓ3?úðôïHÿ7Ióëÿ.iþ­Xf¥¿þóÀ›´ùýèUÞüú¿È›ß›@^åÍ¿i Ë¬çß0€eZ™ó{xÊþ| ÿêþË”ôOøÁÏôOøÁïä_5€eZú¯À2/ùŸ`™˜þO°LMþió»Ð›´ý]ì]Òü°d’³¾Ë€þ“3ÿ½,%¬ï2ÐŸ,þÛB
?#,~->àù7Øâî[fïW÷¨=ù+],‚ø•ð5¿ìq}S§~ëþ°¯~Ð¾Æoßßvç/ŸÀe„þ°?ÑnÕïÒß 
úïžÀíüU¿¨6€_¿~ýZ²æß·€ËHýÏ…íß,iûo_Àe’þÿê'À5l —ÁúŸêÏ?€Gý·- KþàÀ×øÙû_Gú‡ž nÔŸ~ Oú¯_ÀÑûßŽ¯ÿÚtÊÔÿn}ýW Wÿ€/ Ä×íÛÿqýÙû‡`¼þ!õgÏ¿²ÿóôÊ_ô3 §õõ_;€ãõ_?Aÿõx²€^ùwö_Wþüú_Çì¿çM +ë'È6€õ_[_ÿÒ´yÛú¯¯Ÿ"ÿ¶\Ò? ¾þ¥hô ÖçßT?Iþ­¸×ÿÆ ê§É¿µÿê´{kòo¬Ÿ¨ÿæÜ[@¯ü_ûGÔO”{ÿ;èÖÿó nüwù£psê@Dý\ùwõ¼€ö!²~¶þ;poK'1gþ„ùw÷ûÔpûê§Ë_2€'°³~ÂüEýÀÞúó—ön»ãçÌ1€aFPÐ>mþ þýwP?mþètXAiùÜùkôo°èò×ë_oÁé“ç¯9€ø	ThŸ=Õþ¡¨?yýúˆ™@¥øò·ÀuÔøê·é_´ õgÀu¸úò·Àž¨Ÿy êO6€m?ó Ôol¬¨Ÿz â÷0{ÿÚÇïø€ø¹ ~?ô¿«Éú·8d“é< õ»ëÙ_ü!¾›Ã4³#÷os„¦×¡À šš,ŽÖ¿ÉAÉå8ý›ŽŒÚå÷	þQ5êïÒM#«Ÿß5;GW7¿‹µB½ü+P÷á±V|þÜ¿Ÿo
Eõ Ú¦Š=íßhŸžò                                                                                                                                                                                          p0¿÷¾ôóûUï{A×ü<¿þÉû@îüú§¤nòç¦rò§W-þårùü?œÏçs­¿ŒÑ\^|Ío ©òßèo ýœ>h’ÿVèÞ¾þ.ú@ÿö•pyØ¿ò ~þU÷ï9vüš¸<énßžÄ¯6€K¿þßò§žÀ³ú•p;ƒÜ¬Ÿv+êWÀ½üÕûßÏŸqëòÇàÎÙ¿þ æÏ¶€µõÃû?È_·ÿ³ü©°>ô ä¯:€ùó,`KþØ<Ì_ñ5€uù“à4@ÿ;ÿ½wÿØ˜?t Oò×ú)Àêü	pêØÿYý½ûÏ>€S÷<ù3óO>€S÷þKsúå¯ýf€ÑúÏ< ýS`W~ý§¡îèŸºÎü;úO:€¤ý Þ%Í¯òþð&k~ýßdÍï%€7ió{øUÞüð"q~?ìûÎ¯þôïøÆÏèßñß#HŸKÿeBéû¯À2%ýSç÷A€µX&•=ÿÊ,ÓJßÕ –i¥Ï¿f ËÄôïsÙŸa¤Ïÿt ËÔä2€Þw®6ù.`™ü/Òæw%°7ió?À’Èqó^'FýwGÏ¿wòÿTÿÙ…ªåß9õÿ‰‹ßf_óÇ ÂÍásýøÞ¿|îfÒúÕûßÊ¿ïË ñkäïÓßïÙàúG…úÕp¯¿l­_:ËXý`Gþ‚	ÜË¯ÿÁúïœ@ŸüP!ÿž\fëÿë×’¸ÿæ	Øÿ ~ý±äÍ¿m—yúÿŸ` ×¨LÒÿSûxÒýºåüà{|ý×.àèýo¶Ÿ +ú¯[À¡ûß?{ÿu¸NÝÿa}ý×- _þ²=‰¯ÿÊ³ÿ¯ìù7ôß7€û¯ˆ?ÿ°ôË¿ï= ëêë¿vÇê¿¶þôù+`Ìþ«ë'È¿­ÿƒôË¿ñ= ëë§è¿q ÷pŒþ[ê§È¿µÿÝôË«@ýù·àÞúõÿ>€€úiúoÀíôË¿êC`[ë§É¿£ÿª´|Oóo®Ÿ'ÿ®Ü\@·ü_P?Sþ]ýo. [þ‡WØQ?Wÿ¸±€nõÿ ¦~®ü{ûß9,ÙW?Yþ‚jpÄúéò—ôw{ëçË_8€ëTõ3æ/ì?ÜöÇÏ™?` ãL $~ÖüýGAYû¼ùãÐmÅéSçîßn!Ùå¯Ñ¿öBÓç®_o •&Ý>}þŠŸ@…øò×ì9*ñÕ¯>€	Ô‰¯~“þÅ¨T_þf¸Ž_ý¦Ø¹ õ§ÀžÈŸy êO6€mP¿©Á ~êˆßÁ8P¿‹™û×>vsc â÷3aÿúm*Ý ~góôoq´¦4CÿÇibïßâM®Ó ÔÇ!û792i´Îï£\Ã9Lÿ#©vý]½ePãöoðàyÕ ¿+¶®r~—ê?‚Šù× îÃc•:ùsÿ~¶CŠ¬Ÿ÷wsNfgüWÚg'=Ê                                                                                                                                                                                       À¡ýþýûwïû@Çø¯zßºæ?ú þ÷ª÷½8pþcà-¿äÿ=A~(èÿ{†þ°;õþçóù\;¿þãô¿\.—/ùëàc¥ÿKþ8·@ÛŸSÝþ—/ýßóW€þÃõÿ“ÿï Î ÿ.û_ô¯:€øÛžW“§“þ^ Ú¥Eþýë}Xã†gÖ ÿ­þu^`‡šßúéŸÓåièètj™_ÿqœ>ªö·ÜÌÿ¥¿tm_s·ŸþN C¥¯·€{ù ~þSéo˜&~Üíßâð¡¾<_ewó×ïÿ­~ò	¬¨>€ûù«¿p;Ú	¬«=€ûõkà~þŒX]¿^ÿÿµ[þdØP?x ê¿¨ÕÿyþDØ–?t Oòÿ@‡üY&°5ü	àáŸè™?Ã 6ç¯ýú6ôŸ~§|ý7åŸ} §|ØØêìÊŸ¬ÿÌÐ?õ öåO×ÚèŸz ;óë?‰”ùwõŸs úëŸ.¿ä~úëÿGÒü¾|—5¿¼0ÿUýkô1\þõk/@ÿ]ýÖn Ë|Fªÿ=ÿ`Xæ3xþ±°Ìg üíû{P¿÷ý¯Ì?Ô –	“¿Ko]=€eÊþ›°Ìh”üúoÀ2§äý}hŒüÃ÷_¦5Fÿßÿ½Ñˆü·ÐâïMžÅ Ý>ùWõ_¦6Fþ¦?ÿû({þ'Xf—>ÿã,ÇPp¡ù`9„¢KEÉ ûnìÉU]Â^-TþQù^Ô­EþÍÿUHþûWtmÙ?h K2Åù¿Ôo3€ù·.@þw¡Oþ®ý7@ývÝw#‹ô¿1€jwwZ—±ú}Pë¾¦Ëß±ÿî,Ù\_ÔÉœþ/¶‹ÿn®þ~oÐÆü¸—_ÿƒåß9ý'ê¿cCö7€½ù·.àn~ýÚÓ:æ¯ñÀ¯?–Ôý×/ ¤ÿ?~tïÿ7}Š<ë¿vý_òï@Tÿ¯éõ_=¸þ?ºô¿™>Á Võ_±€1û·×í‚þùoÞÿI|ýW. gÿý?|^òþ[p=Zÿˆú“çßÔÇ 6Ý—½ùwõ__ÿÕè¿ì«¿§ÿÚúÓ÷ß8€ûÈ¿ßÆüëëOŸkÿm²ÿ†úóçß>€{è˜ËG ¶ÔOÑ¿â Æë¿­~ŠüÛûßY@Çü7P?Gþ]¸¹€žýW|tký,ùwõ¿¹€Žù¿  ~žþuÐüQ<Ê¿£~žü{pcóÿ@HýLù÷ö¿±€~õïÚU?Uþ‚”~lhÐúÉòô{;ëgË_6€ëlõóå/Àu¦ø)óömñsæ/ï?ÎŠâ'Í2€&PØ>oþ˜þ=GPž>sþÈ´žALùÜõãû7Ù@\úìùë êbãgÏ_m U&Ý^ýŠý£'_ýÚ¸_þýc& þ‘Pº õ>€ëhõåo<€½P?ó ÔŸh › ~KÃ@ýÔP¿¹‘ ~ê¨ßÇ P¿›ùú×>b³é? õ;›¥ý#5«ú×?JSë7 ñÇÐ©¿úã8bÿÇ%‘æý‹Ðà€äs”þEZíò»vÏ Æí_ÿ±ó¦Eÿm¨þù¢vþõýk?Rî©™ß/é9ˆZùŸö¯ú¨Ø&¼~â_Îxt!ñ_hŸôÙi                                                                                                                                                                                       “øý¦÷Ý k~H^ÿØøß›ÞwãÐùëà|>×¬o eùk÷?¿ªÚß JúÇàòâ[þ
øß JòÿÏÿa òÇàS£ÿ{þ¨Öÿs~ý÷çÿ]!ÿŸüË=€/ý`€þ—‡ýc ÿØýß ¢þ—'ý« ô¶'V¯ÿçüúªcÿš½é™5Êß¸è-Ï­É¿þ·û×@èO®Iþý?, øv'Wý{¿»ý«¼
}›	Ô|åïîë?5ú3†;ý w~ýÇpú£uÿÚ_²:}Í	ÜÍ¯ÿPík-ànþº/ýñó¯*7?Sû:¸[¿îÏ ¾Ö7ík,àAþš?¾QßVÄÀƒú/êõ¿U?õVÖ¯4€»ÿ½uþ¤X_¿Þ÷‚wÔ8ù?ÌŸo›ê7@¼çùSMà”¬ÿºüi&°9ÿÁ°>ŠìÈŸ¨ÿôØ“ÿÐØ˜öèŸz ûò'ë?ñ ôO=€ùõŸ„þ©°7¾þs`¸þÿ}Pé¯ÐÿŸ±òŒ_q0dÿoõk-@ÿÃä¯2€ý'ÀøùGÀ2äè_€e:È?Ð –éŒ’ÿa¨çùë|¨ÿ‹!êwéïÇÀ/†¨ÿ¬ÿ0Xæs„üµ^Þ¼€e>Ôï×ã –	¿_oîò¡¿qúoZÀ2£ìý×`™Sÿü¾þ—½ûÏü×1ÿê,ÓJÞ?ý§A»çoÿóŸO’ç>€ú÷ ¤ÿîk…$Ïÿl -îAyþ‚«EeÏ}Í¯‡—ô¹#îÉ¿cÙó?@ÜÝ*û§ÿ\2€ôù ì‚Žkìý¢ï{þ-?èšŸß.ç»y ;ë`É¢¼ÿ¥Wÿ›ù7@þžþPÚßå ßÄçïÚ¿ü°d¿Í ŠûßÀ’ÒÎ¯üGì_4€šwxB—c÷ÿ6€ŠwwJGïÿy K.×ëõ:Bÿ?bûïÀ’/þ»øüúÿx×«Ròl ¼ÿŸü; \þ(îÿ!ÿæèšÏJûÊ¿u ú‡÷ß:àþÛ …üÛ&zú¡ÿ¯7Kêþë'üôÀR>Ãž÷_9	úÎ®ÿ¦ºÿò	°²ÿó	·ÿãøú¯\ÀýËãOÞ?n Gì¿¦¾þë0bÿ€øú¯]@IþÒþwQîü8Rÿõõõ_½€žý7}dKýÙó  •þõõß°€‚þe¯ÿ¿XÙcýùóïÀÍä¯Ð?¢~†ü;pkûóÀŽGñ<ÿæú9òïìký‹Þ ôêIþíõ“ä¯5€­÷¢0ÿÇ„ÔO“ÿ ¾/`wýeõ_ÖO”ÿ{ç€e »â§Ê_4€ÒŽŒY?Wþ²\ç«Ÿ-YÿQ°»~ºüÅ¸N?cþò\g‰Ÿ3yÿQPÖ>kþôŸ@qü´ùcú÷Ü@@û¼õ#Ð~!é“ç@³„µÏž?¼ýD¶Ï^¿Ò êm 6¾üÕúW™€ú‡Àuèøê×@ÜÔ?fÿ„Ç—¿á J þÑP² õ3@ýI°oê73à ÔŸj [ ~cC@ýÆ€ø}LÙ¿æ›ÎP¿£þýÅï«÷ Äïîøýk¡Ùõ€øc8lÿú‡&‹ö¯Pr9Tÿú‡#£ƒô¯ ò¾ýC^£ü.Ù9°ñú×~Ä|U;¿_Ô0¾ªýý’žC¨–ÿé j>*6©Qÿaÿz…ÝBã¿Ð>;í³Ó                                                                                                                                                                                      fóûMï»AÏúMp~Qýoa_þð\.7òWYÀÿ^Åßn®ü¡¸¼¹‘?~ où- 4à ÞóÀ¿üÑø›ß 
óÿÏÿo çZøß ÊòGàCþ?ø”?t ŸúÀ ý/-ûÎo Eù›õ€þ£õÿœÿ} ÍúÀJúçV«ÿeUÿsµþ°Žþ¹Uêÿ-¿þcjõô¿Ó¿Þ ¢nxr­žþúªÑÓÿ^ÿZˆºÙùMÒß+À;5Ì_µÿ§ÄÝjÁõô¯øÀùw
­÷«ÿêý_hßßýþõ^àùõOàAþŠ?b›ÓéTë¦ï×¯ú Ö8}ÿW<¨ÿm ñ;«Ó×šÀƒú/*çÿùGŸ/~<ˆÿª^þ¿ñm`mûJÿ
<Sã¹ÿµ¾¬Šßi-ê'ŸÀÚøàný¼ØRÿèxœ?ã6Ö?ö VäO6íù<€•ýólà”ªÿ†ü9&°+ÿa°1‚èŸz ;ó'ê?õ N£õÿïÝ8ù§ÀPýÿ´¯7}ý'À@ý¿Ô¯²€ý§Ài˜þ7êWÀÞþ³`˜þ·ó‡/@ÿ1ûßÍo Éóë?ÿGùƒ°»ÿ”8BþQ°LHý‡Ïo ÕŒ¿u¯ýsŒüƒ`™Oÿú=úû)Ð_ÝëwéïÇÀôŽß«¿÷¼é^¿WÿXfÔ»~Çþ[°Ì¨wý®ý7`™Sïü]ûoYÀ2§ÞùCûïø´xòüý?ò×ßåBôÎÿð‚ßDåß}Á°ÜùW`Ë=ºžÏµú‡`™X\ÿ‡×óº§VþÕHž?îŠ?.ç÷@Dÿ[ùãN ËÜ‚ú?ºœçC•žþa'€evµú`)ÈÔ™_¥ü«¿,Ì¯ÿÊ¤ÏrÉÇ[ýË¾XïËú?À’Ciÿ›ù7½ðwÛï|ÅþK5žþûïv®öÀ’HIþ;ý/Çî¿äþô?Hÿ{XÒ‰~úºÿ’Ñ®úGïk K^[ãÇôÿñG‡þß°ýN¤VÞÿoþ(ïÿe K&×WûÌ¿y ý?`ÉW¿t¥ý?çßº€ˆþ°,ióïßÀ¥°ÿúgô-ÿ¾	Ä÷ß4 ýCûoŸ@aÿù7@ÿàü›7 ÿ|ý·L ¨ÿÍü[P¡ÿ¯?–ÌýWO`šþ»§ÀŠþë&pðþß«çÀºþ+&P£ÿ6ý¶×å
úÿ¨Ö? ¾þëpÄþkâë¿n]ûïyøÊøs÷¯=€¥kÿúSçßÚÿÁŽÔC}ý×.`¸þ!õçÎ¿k w°7Dÿ[©?{þ]ýW ]ÿµŸÿßXþþûp{ûòWêRþü{psûú—¿þûâyþíõ3äßÛÿævåéÿi1õSä/Àì¨Öÿï‚ê'É_2€ûØt‚òß³+~žü%ýKß7þ®fõë dµòïŒŸ+é "P%ÿîúÉò `áù÷ÇÏ—¿¸ì9 sý|ù#ó•`ˆ¢ø)ó‡à:Aû¬ùCúwŸ@yü¬ùÃÐoñÓÖ@û	„¤Ož?²Ó„ÅO]?~ M6?}þ¨»ÈøêWê_mêf &Z_þê¸Ž_ý&[€úÇì³ õ<€ë`õåo=€¢¨Ÿy ê§^€øíŒ7 õS@ýÖ†€úŒ3 ñûd êw3Bñ{ê? õ;ëÛ_üþŽÜ¿î‘É¢ß ÔDŸþâãPýkŒœÒ¿öaHmôþµ??.,þ°Zäw­ö±Ó¿îãä¾ªù³ÿŽžƒ¨–ÿé *>(6©Rÿá j=v‹ŽÿBûä´ÏN{                                                                                                                                                                                     ¶º\.—oÿãùE—»Ã¿_DÇõ½þ›È¿Œòø‘øÿË >ä·€óàSþøÜ?vÿûßÿ"o.gþ|Éÿo _óÇàï¢n/oþßñùÿà\k ò[@qþòÜí#Ì >ä7€ÒüÅèÜß 
óÿÏÿ>€Zý?ç×?y(ËøþPÖÿ÷±úËo Cö¿™_ÿ4çÿ†ý õ¿ÿú¯Ôêô¯ÿ˜ôÏ­ÕéÿAÿ:¸ÑôÏ-<ÿƒ/ÿêõ÷
ÐnMò?øùoÐO€õß+6ÿ£§Íþ~¸[dýÛýÿý×zý½¤@XýGoþyU/ÿõû{˜ÿÆ zÝOêxX¿ò[€ÀÃú>0½‡ñ_É?·‡ñß¨ßÉé»Þw‰né§›ÀÏzß•£´Ÿgâ›À–ø3,à[|Øÿè¸W?ùÖÇ?öæO;õ;€§ùSN`{þƒ`UþlØSÿ˜ýWçOµS–lËŸe§‘úÿ÷nþ	°7…ü‰_i{òÏ?€Qú‰_aûúO>€ÓýoÕ^ÀÎþs`Œþ÷òG`oþ©p¢ÿýüØßâÑÿQþ¸ôŸw #ôœ?l úÙÿYþ¨”ôŸu %ùõ?¾Cä€þ¹ûÀwÇÈïPKªþ¾ø¦{þÃôŸs Ýó¯ì?À –)$ÿ ¯-Sê[¿yÿ‚,Sê?¼ÿªÏ
ëÿA¿òñý×_.@þ¿:¶î¿õz1ú¿®ÿü’µúïº^˜þk°ú¶_Ï§yÿ5WÈžEÿµ·ôør^·UÍ8€e^Qý_Îïžºý£°L¬ÖÓÝ ‚úßÉ¿êºAÉû?Àþüaý—Ýýc°Ì-¢ÿ­üQX:÷_&×µÌû¿ô/QÞÿR±ÿÒ¹ÿ2¿žýCÞþ_±ÿ’AÓÿÚ—ëå_wáÐôù, Eÿ{X}çï÷/=,itíÿbOøÚÏÿ%‘
ù7õ/P«ÿ’Ëîþ!Ïÿñú/ÙìÍ?gÿ%¡}ùƒúÿxÑ¡ÿí,IíÈÒÿµþ¾	Tè¿¤¶õ_å_ þ«¿c¥ý]¾PqÿÏù·. ºÿ’Éõ]Ïþßòo@qÿ¼¿äOý²Tè¿e åùÿ`Iœ÷
ûßÊ¿e ýsúÞ×ªô_? ýCóï˜@Qÿ;ùõïØãªôÿÑµÿ¯wKÚþ&PÒÿÇpýÿ¤Ÿ~Oû¯ÝÀ˜ý÷'×ÛêôÿÑ¤ÿ£ôú¯œÀAû?m¯ÿºìïÿ£[ÿUñõ_·€ûÇÔ×Õzößþñßõñõ_¹€áúÕŸ8ÿžÜ]@…/ÿŠúÕ×í:ößpù—­õ§Î¿¯ÿúæ/éTîü{p{»žþ1Ïÿoª?{þ½ýoO`Oþ þ+.ÿ·£þôùKðlKÓþU?Aþ¢ÜXÀæüaýÿL`	«Ÿ"Qÿ»ç€`ÿ;öÅÏQ¿x Eï~U7ÿÎøyòà:pÿÝõå/@ájõß?Wþ€”- Fþ’øÉêGô¯0€^ñóå@ÑBóÖO˜?h ‘è?gþ¨D- [ü¤õãð‚@¿ø‰óÇõï1ö™ë é‚â'Ï=€F‹Ÿ½~Tß@\}ùëô¯9õ1€:Pÿ8ˆ_€úÇÀuÔúò·é¸ õ9€˜¨Ü”/@ýê€ú‡@ÉÔodÈˆŸzêg€úÍÔ_ü†€ú½1 ñ;š¢µ£“AïˆßÛûW<*™t€úc8\ÿªG#£#õ¯z ò:Fÿª‡ »ÑûW}ð¼¶ÕGÍGò»RÿÀê_óaò@åükúW|t¬R/ÿ³T{HlT)ÿƒTz ìÿ…öÉiŸö                                                                                                                                                                                    lwùçË9¿ëtÇhÿë þÔ7‚±ü~S¡þ§|ÉoCÕXÀ÷úp£¿Œ”¿t —‡ýoåYÀÿ^ÜPòú…¸ÿï Îµð–ß"úÿ®Öÿ\«ÿßüPž¿` —ýÏaù <ÿþ\ I8`ÿs\~(ÎðþÐ©ÿ¥Kÿoùõ/Ì¿w £ô7€äý Kÿ>ÿþë¿_lþqúÀ±ú=ý‡ïÿöŸõMlþgý+ý @ÿýÚô_ªö÷à~¡ù{õ÷Ð~‘ùïõÿ÷êä×¿@`þ'ïþyQ§¿Ÿ«ÿìÍ¯*õ÷3àAõŸ¼÷÷]üÞ4„§õ_ÔÉÿBýÞžÆU)?ý­¨ÿJþY­©ÿF| hãtSï{E¯òÓLàçg½ïÎ¡Ú~_âÁöø^Àú&°-þAð¨~ö	l¬À<­Ÿx;êm ëòçÜÀ¾ü‡À†üé&°7•ü÷ßÿuÏŸj§Qúÿ÷Içüypb Ÿã‡.`_ý,8ÐÿFý°ìÏŸb§p'ÈŠòÏ?€Ó ýïç/@aýù0@ÿGùPžöôïÿ8Ñ "òÏÝÿÔ½ÿ³üÉ?÷ º÷žÿ ôJÿÜèÝMþÝÐÿ©#<ý»÷Ÿx Çèß{ Ë´:÷_™_ÿZŽñô÷`òþ«pëc¢ú?vü+úßù¤¸þuÍÙÿî¥"ô$<ÿºõ‡÷p­ý	Íÿü’.íúG.`™Wä“Í5}öÀ2¯½­¿{~E¯ÖýÃ¾
X&V-ÿŠ„õ¿ÿË7ƒ7Zêÿ´ÿÊ›y~AÇ*?ýW]4*yþ ûßÊ8€ŠýW`™Z½üôÀ2¹ñû/Uû?À2¹òþwò‡}PÐ¿ü°LoôþKÏþK…¸—?è%À·¢™~ýcÞþ_¯ÿ’C¿þ!ÿ©ÖÉ¢_ÿˆõ—ÿEÁ×¥ýoN`Ó×¿\×þ…*õ_r	ï9vÿ%›}ù‡î¿âÿ,ÿ?{ò½ÿí,ImÏÖÿÇ»ú/‰m«õàŸú{ÞëÈ- ÿÇúÛP”ÿû –L®¯:÷ÿšã 
ûÀ’¯~éJûÏ¿ie§ÿIëÊ_0ÒÀ²ç‘/þ÷ü{'PØÿÇý3ºÕ×ªôÿÑ»ÿ¯7Kºþ›'PÔÿG­þKyû¹ð ÿ¶Ôéÿ£SÿígÀ“ü[6PÐÿÇý¿5×Ëêô_9€ÂüÓë¿jûûÿèÚÿy{ýW-àˆý×Å×ÍÆëÞþðx;û?Ì¿r Ûóo‰?oþ­ý.à@ý·Õ×Ýúõ¿5€¸úóæßÓÿÁFêWæþûpwá_þí~(°þÌùwö¿»€ð§ÿÎþõ§Î¿»ÿ½	D?ýwý(²þÜù‹psó‡õÿ·€Ðú³ç/êÿø°ò„õdgüéë ð£múï­Ÿ!ù ®c÷ß?Gýˆ- jþýñóäè_´€jýKâç©?ö úÄÏ•?f ûP!¿ú°{Áýã'Ì5€èôˆŸ2Ø öN (¿úýµ€ñóæ@ÈzÄO\?v …_	,]âç®Ü¿d}êgÏ_a 6_ýJ¨:õ0€ZPÿ(¨² ùÓ?~êl ¡Pÿ€ˆ[€ú™ ~æ¨Ÿz êg^€ø­Œ8 õ[n ê76Ö Äoo ¨ßÅ(¿—!ú«ßQÿˆß×û×:$Ét€ø#8ZÿzG"«NýÅÇ!úW|ü´ÿ´°úÃ¶ÅÇÌ'ö¯øh¹¥IþÜ¿¤e|Õû?@µÇÆJ5ó§üålT©þƒTy”¨Pÿö âï:u•§}zÚ                                                                                                                                                                        ÀÿÙ»·¥¶±v£ºˆdUý×“>k Bè®jîÿFVA€x#ÙsóMiJsŒ£N‚ÜÏkÆ˜	         €O_®ÿíñññq‹cbíö3x<µÕréõCxý‹œå·Îê×/`¦þiÿëüAøïMÄž¿n ³ùO0Û¿~ïõ- $Í žîô_È_;€¯ü¿| Kù¿ðØd 'ù  é ž*ú?Fõ7€}öÊo õùËp#¿þûÊß¨ÿ­üå¸ìo ›ôÚ¨ÿU~èµ“èß ÿklþ•ûÀêùõß¥•úO+÷7€Dúmåþ·Øß ­òéÿÔ²¿@¨ü	þ¾Ó¿3íûŸ¿]x~_T	Êÿ©Ÿâû{¨FLý»Ïüú#<ÿÜ j®m4!ùï<ïóLxß¬SÿMjýwÁù=	¤ù¯ñþåßXFýw±ùß¨¿©¬úï"ã  7=|Øú8X¿ùµi‡þž±õ1í«ú~70×Þ*âïh·ÚÛ@qü}, %¾ÖïùŸ@Yý¾Yä	”çïw%ù@Uþ^PÚ¼	Tæ[Àÿ}Ù6ÿhxèa â‡L 2ÿHxè ÿeýê	Ô÷f›`¶~Õ "ò2€üUXÊ_±€˜þC`óþ7ò ¨ÿ xØºÿÍü¥ˆêülÝÿNþ²„å?þ 6î7Ñ ô?PÿÿÛ´ÿÑ°mÿ”ü`:´¨üúïÓ¶ýÓò °ÿ±°iþÈþ?ªÿXý/BXÿD[æOîw ×¯ šù“´ûÿÚôÿ½ ý·èŸõÒaýg_%Fÿ¡ùó^Ù¥aÿ÷èŸ 0Ö;µî7€éØšå¿?€¦ýß ÿ}iyKòoÝ?h Ó±¥Ý¹—Þrº‘óþ!¦£Kîý¶ÓÍüÛ÷_Àé…õOÎúög÷Ô¶ÿTÚîÁ«KëŸÕÆ|þ¸/ êúŸ$ž¿øÐùðÔ¸ÿTÞ?éE#ïk 5ù£L8„fý§ÔõêºÊ Fï?mÖ?a I7 Uÿi›õ¿;€©¶ÿý÷¯ÀrþÄ—÷®¯ß¬ÿ4Žíú/. ãèÛôŸF²aÿz5ýåÿí ýï^VÿOEŸÿ¶ÿ4ý‡Îë|Ëúîÿ²òŸÉÍßCÿš»¿W¿’?öÀ·7Ù‡ÿðÁ!,¨ÿ·?6î?äù·ÍûŸÔÏ_@UþËLæ¯›@@ÿ‹ü™¨ìº€iÔü¨ï?k µù?0M#ç/Ÿ@í æòg úî¿äç‡i˜þehÓ?y mòÆ?ð æûl ®ÿ·þúŸÆ?lÿåüÙ¨é¿”?y Áù/Úw ·ûg MÿoëõŸ‹®úÊð­Qÿ¨ô£÷O›@wýãß?e¥ýoåO@iÿÄöú§, ³þ‘ñõOY@Yÿomú‡Æ?hþìþwÐ¢ÿ·ýsëµÁ n. Ÿþ¡ñ›¿¤ÿ­ôÒ?¸þaó—õ¿±€üþ÷ò—|\_ÿŒ	Dßýˆ®Üü5XZ@èWß¯äü5ý'“?¬ÿïLñõ¿v ·>¤½ÿ¸þ·¨ß¨å3GWé_ÿøù#ðÜuõ›÷¯Z@Óþ5ñ‡¨¿ý Úõ¯Š?Jý¨”/ Mÿºø#å@ñâó×Æª~Ü ž»è_´ú([@dþúúæ@ÑÂò«¿ý Š&Ñ? þ°ùcP° õ5€‚	Ôä‰?týøTN ãbêw:€ÒO²Þ^ýŽûWðõ»@Ã	ÄÔ—¿õ Ú,@ý¡ þž½ õ÷6€Ð¨?ò Ôzê< õÛëw â½ õWÓã Ô_Som]@ýôÓ_ümt2 õ7ÓÃ ÄßÒ~û7ùß1 5ð¿ÿýïï^üí­Òa â÷`³þê÷bý[ÿO[³þo˜ÿ{ñ;Ó¨ÿñûÓ_ÿV·”%õou¹c…üwû7ºi$kšÿæ šÜ
´Ë¿Ô¿Å­ J‹úó?tâ…Ä§ýð¤                                                                                                                                                                                  €A¼¾¾n}låõSÌÕ=}XøçÇÇÇ)ØÑW8dýˆ|¶_ZÀã‰)Æ¿]ÛØù+p^f §ùƒ6ð‘ßBò×àªþÕ ®ò×/àO~ˆÈ_>€¹ü˜ë_·€Óüú‡ôÌÿt?Õ Îú@Dþ×ÈüIýƒò@Hÿ×Àüiý£ú@@þ×Àü‰ýƒòë¿Iÿ§êþAý >ÿk`þäþEÐ¿‡þO!ýcú@WýÏß2z sý`åþéùõ?`ÿä³ƒÌö7€T­ïþ3o; ýë´½ûÏ_@ÿ~´¼û/_Ä€n4ûäÿö…|Ø‰êü)ßõÕßC ujó'<éc^TVªª?Û?ñ’1ù}(@aûw¥ù¯Pz W(¿"
”æ¿@ÝAÈ¿¡Âü§8
ù·SVÿ]P}  à¨þ¾°õñìÖÃ™i—ñ :üŽV°TßêË÷¿ÛõM ¦ùßêÛ÷º€Äü6P¿Ãää7ÚúÝ 7¿Tæïl EýGž@uþ®PšØ	äïi 5ýGœ@Hþãôm1ùû@uþÁÐEÿÿ;µ}ÿð°}ÿ³øÕé?Î¶ï?“¿bAù‡ÀÃÆ˜¯_¾€°þcàaãþËù ÿžúßÊ_6€¸þC`Ûþ·ó-@ÿ,›æ¿ß?q '?Ø„lÚÿÿ‚úŸþd þ‡êŸ2€óŸ5€½ôOÉŸ2€óÖ?G‹ü©?ßÔÿòÅôß²Æx7èÿ6 ý3çÏy}‡´ü÷põò0úoÔ?ïõ]õÀtxùs_ß§UÿGýÓ5Ë¿aÿ¸L‡Öÿ©§þQ˜ŽïÎ½úÎ›,çß¶Ð ¦ã»Ÿÿî
_Ý³iÿûø¸´þ	ýï¼ÙLý¸þSYÿ›8»üÐùo”M{»ò—öŽê¿ü*ñiUõOê?û–Óbþ¨€¦òþ³\_|ìü9˜}˜§~û_=<{qýÓûÿyóÏ?.åOù@Lþ»¿.øNÎÑû/ å²‹ùC¾”vü÷úß1zþÜ@\þ;H=þÇºßÚ®ÿò2¿®¿ü·¾¶+Í_ò
ï¥« ÿâ FèïîÿNÿ¡ó/?º3fÿi@±ýŸöÑ_þŸþ÷ÒÿÞeå?•™ÿ ýç0,''Ÿ ÔäOúõŸ†ò\yùúWå¿À4’çàÛ»ì‹Õå?À4bþª	Dõÿ¿d•ùo}ƒøçÏŸ?§!ú—/ ¤ÿIýìÔ÷Ÿ÷óÓ4Bþò	ô¿ÈŸµ€Fù¿êv ×ý'P=€ëüh’ÿ´þA0›¿hµýçò§ >ÿEüÑúço ®ÿ·ý§°öCöÏÜ@Í ò' "ÿ|õÁûçL ¼ÿbþÔTö¿—~èþéØ¬Mþ¤ö£÷O›@iÿùÓPœ?9¾þ)(@‹þ±íõO[@Qÿoú‡××?iñýS›??þ1óô¿·€üþßâûÇ××?u[ô¿@ƒúÇÌ_:€›ˆîŸ{hQÿ¨ùKûßœÀýOÐ¢¾þå¨ÎŸóÐÔ¦þaóWõ¿5°ÏþKž6Ký¨{Þàjý+â;}ÿê´ï_UÿØùCðÜsÿºøG¯Ó¿jMû«¿Ò ž;ì_ˆúq(^@›þµñG©8€ÒÄç¯Ž?PýÈ<÷Ð¿>þXõCP´€Èþêo<€’„å¨?bþØ, &¿ú õý#â[?~ 1H¾´úÝ {êm ¹(Ë¯~ÏÈ<¸ïn ÕÏ¸Aý= ÙÔßÉ š,@ý ~ê< õ‡€ú;@ØÔoª÷¨ßZÏè¨¿’> þzú€øëêl ê¯®§þêo¡›ˆ¿‘> þv:è/þ¶VÀÿÞ,½õ·Öºÿ{þ¥ˆßƒ5úÏ@üNlÓ_üŽ4Àÿn@ü¾´¸ÿßú@ýîÄ÷ÿÀÜ¿ˆß¥àþËÄïVýÛÜ2ÒµÍk -n%æ_@üm R£ü3ˆ>rÂÅÕâ÷qT@ûÚ                                                                                                                                                                                  ãõÝÔ«?¶>‚ê÷»€7ûÿ÷nÅÃ9lý^p«ÿïú”¿ÏL÷ó[@Lþ}à4¿þ1ý÷4€³þ’G8Ïo ÷úr÷M?LUôo‘¿p êßïÿ™¿n—ù`ÃþO¥ýË' 7ýÏêg÷Œêo ù_[ç¿ÀcL~ý·èQ¿¨ÿcLX¿AþèßEÿ;ù¿¸?€Çˆþ°nÿ«ú§ý?ÛÏn z úWkšÿ²þåj0ßß VìŸ›ÿl muƒ‹Ïÿt³~ì ô¯¶zþ»ÈY€þÕVÏ:€Ùþ°ªÈOýÒúß@ÆôPôuyþ»ês#(u+ÿ½þ)È˜€þäO¼ûß} ê$|CÉÎ¿ê 
¾Œ¼•$§¿ù°ïíþq µ‹Ú³õSú_}7è„ôj!÷•ºþ°óüµý/zhŸ?¸¿taþS½Òþ•'€¿OÕÜ*þxxxxXþ×ôüýoþ€ÀY|é~©ßþsõM 0ýÂÒóGô?@R}l?·€.úßÌoñ¯ž?¤ÿŸää·€°ö‹Ø®J~	?3€äü1ý?Ÿß"Ê/ åÝmÞßBâÏôŸVëÿ1€Âü&Qÿz k÷¯Èoõõ/?L|·aý§ÊþƒO >ÿ­‡„÷@@ÿ'ð°Uÿ¼§ .©?ý=üN )Wu÷uöÏy
ø²ÐþÃ-àaËþÉ?tCàéÄlÛ?õg Ó>þÇôj ÷¿µ€i£þ#`ûþo:ë?Ð úèÿ)¿þÙãaý‡ÀCýÿïÓï?æÔ?ü_ÿýõÿŠ¶t§ß Œë?Ê ZôO}ø®~þôï«ú÷—ògMàì	@úoÞ?ýé·ò§/àü	 )8ú³ÿîöOÀù3€õß´Æ³¿ïæOÀÅÏ€é¿]ÿŒŸýkÔÿQÿLò‡ôÿ¿üþ˜†×ÿ©‹þq˜Æpã]‘ÿ)"QÿGý³,Ö¿ñ¯÷óoØ?j Ón÷O[@á/w	9ÿÏýŠ˜Œ¾úßéŸ²€™W{Kzßùg?DÎ{ðþóyÞäfþmûßûp~cçOés ·_ã÷¶€üK¯Ÿ~b×ÿnÿ¨Éû ´SÀõÞ?q Ko6›?ç;Àµ–úÏžæ®`ðü©ýgÞnùu~§.p™vþò£÷OÀÅ[NËùûèþáÅËž?õ¥ÝNßö÷/Õï¥Òk‚÷Ÿ@ÊÅºïŸ0 ù3O )ùwÞNIÿ§ô¿? ý´¿üŸ"Oÿ»î?Jÿ¡óŸ-`ÚMÿÇØþÓØÒ¿ø»ÙÅTå¿ê¿Ê!Äû¯rÄGÑÿ„‹\ÿùùù¹æò½÷OºüÐõß•_Eýkó,`ö~þü9?Å:8Ôç_ðóÓtøüåè¸Pý£à¢ñ‚úû’yÁ&ùOëÓ¿pøS?wòŸÇ?è æòN ¾ÿyþ¬Dç¿Ž?Vÿ’	Tö¿¬Ÿµ€Àü³éìŸ¿ªÌåO@@ýåîãöÏÜ@EÿoUýkóßo?nÿœ	÷_ÈŸ:€šüií‡îŸ¾Ò|«@iþôöÃ÷Oœ@YÿoÑýããëŸ6¢|«@~þìøú'.  ÿ­üIÈÍ_Rÿˆùúß_ÀÖý›Ä×?}¹ý¿…öoTÿùûß@hÿ„$ç/®Ðþå¸½€•û Yýƒæ¯ègëö¿øõ¿áõš¿®ÿí	DåÏ}*@ƒú‡Í_ÝÿÞÇ„Cø¶Â êê7Ä êž<¼Â	 2þ¡ó‡ô¯\@Ûþê¯1€ç>ûWÇ?zý°þhÕ¿>þñëG x-òÄ¢~è ž{é¯þF([@lñ7ì_¶€Àþêo=€‚	„åW¿‹d/ ¦¿úÝ wùÕïky¨Í¯~¨_@êeÕïs Y(Î¯~Ç¨X@Ú…Äï| YÔ?à jŸ"°Lý} ÍÔz ê7°›¨¿³Ä.@ý¡ þÈP¿±¾ ~{@ýUt: õWÓã Ä_SwPe}@ýõuÔ_üMô2 õ7ÓÃ ÄßÒ*ýÿ÷¿åPkûÿïÃü;¿-ð™a ê÷a…þs¿]÷_áöS½¹«èßþvó¥»þío2Vû@ünEåÿ\Àì¿ˆß·˜þ7hß½–ù‡ù¥œ{×(ÿÌ ¢œhõßh¿KAõßh                                                                                                                                                                                 0 ×××­­¼~šºôãÇ­ýïÍzsàú.àÇx¯oQùgð×_ÓÆùð•ß bòÏ ßþ'ù ¨onô?Ëo 1ù»@J~ýƒú÷6€%—ý &hÿïŸ¦æùõêÿ¿Åôï»ÿEüè\ç7€ŽúÏÕ€þ÷_¨¹ ý»í£~Ø æò@ýoç€þ½ö¿—?f úwÚÿ~þË<¾É}7úwÒÿé·òþïù³'0ßß 2Õæÿ¨ÿg )ùÏðÕ?kú‡¨Ëÿ§~LÿŒè£"ÿiýÏþiùÏpÚ?cú)Ì^?¬úôP?ïô6€ËþÉÐ+Wõsïþ7O éÐ¿øýoŸ J'Ðê6s3~þé?áÿÉ@üÍ%%þŸGÊúß@öƒ¬¿¬¿¦~Þƒ¿sý- oiõ³ò_}Pÿn¥Õ¯ìcëÝRf¤ÅÏí?û4€ôþ¿irs¹X?¢ÿüæÒÿÑæFåáÌù¿¥Öé÷ñà‹ú&Û~f‰õ>xw³ÿ\}Ž±€äü1ý¯p·¾Ç?@rþ˜ Ëß¾•ßBãŸ. 9ãþwò[@lýå´î?æ·€Èø‹ý§Mú'å·€ÀúKhß*Ïoañÿ 1'ý- (þü	`þ'(Èo1ñgO 7ßI7ýG\ÀË›Ðøs'€•û—æoïùgP^ÿz ÓŽúµ€ü×¨ª¿Uÿ¯Ôõhý+ëgö¯xØ…¨üÃ,àev Õù/0í°ÿ˜íÿýGXÀËÌ Vï_ö#`íû3ýCò}xçý>€Nú—üð½þ!ù>€ëþèÿØ´ÄöOüøŸ<€iýþÇ@/ý^èÞã?úoÞ?íáŸßòŸ? Õ”Dæ/èŸ2€{Wqö@ý·îŸøðï—ÚüúhÒÿýºÒ¾û{¦.ÿù ôß¶âwÿ/ÔÔ¿x]PHr¯É(2žýs¥"ÿùS õOs³ÿÇÛÔäÏì?3ä>6Àtp·¾þûz£¼þ©Oþ]–ÿúg ôO³ÜÿäÖÍ_æ¼ÿ£þ‰Rú§/ ùG?Z÷OÀçÚÿ[ý§¢ü[öOÀéUŒÿö«z¤ý ðSGýSp~ú× ã'¿W@ö è«ÿ½\ÕßºÿíSÀÌUŒÿÞ€;xê°ÿSÀÜUè_<€ù—ýZóàgû/æ¯bôþ÷O K˜­ßEÿ¹,\ÃðùN ³HÉÇ-ú_~?hñ†ÏŸt¸|«[¯øÚGÿÓçÝºý¯ÓÞy»÷ÿ~ê½Ú+BËÿ&±ÿ‰§þû'@þw¹ýŸöÐ?a îþŸÂòï¸ÿ4¶³ÿŽû¯qÀÇpÄþkîQ°ÿG{‡éŸòÝö¯Îÿ¾€ÖGy@  ÿ¨žŸŸŸ+.®ÿîë¿;nÿª+þùa:xþòtÞ?¤þQpš¿Å¦=ç?‰Ô\ô/]@¿ýÃês WýK'ÐgÿÈúGì?—¿p› 6ÿ\û¡ú—M ¢ÿ·Oy«¿”~¸þ%¨ÀWýÜÔç¿~Ìþù¨ëV?ouùSÚÚ?wý¯ò§ ¦~jüqûgm x 3ù“Pš?£ýàýÓ7PØ6ê ŠògÆ×?qEXÈŸ8€üúùñ˜?·Ú6îß&¾þÅ¨ÉŸ6€5êëŸ±€Ü|«@zþâø‡Ì_Ø?ayý¿õoX_ÿÌ	¬Ùÿ÷ šÖ?dþº¤.`ªëŸù­€6õš¿®ÿÝ	ôÓ¿²¾þÅg©6ÿ·ê5Dÿú4î__ÿ°ùƒðÜï â¸~TÿÊ4ëQÿÐùãP36ýCâ¼~dÿò4èÿðõƒPº€èüâo5€çíû‹¿é J&Ø_ýí¿€¨þâ÷1€ÜÄäW¿Ÿd.  ¿ú} oµùÅïp 9¨ê¯~§ÈX@y~ñ;@ú¶Ë_ñí@ž{[@ÒeÄ?êRÞ^ýƒàsio¬þ^ð<±+ê= õ›ØË ÔßÛ B ~;ý@ý¶:€øÍõ< õG^€úkér â¯¨¿¨¿®Îú‹¿¾Ž þ&z€ú[é¢¿ú[Ú| âo­qÿÿ}˜ÿWõ{Ð®ÿgý¥ˆß‰Føßí¨ß‘Žû¯qó©@£þkÜp>õÖÛÌ¹°üg˜ùWñ»Ôÿö€âw-¤ÿ-Úw¯eþ…„ß*µÊ=€à'Zlþ³„'…ÕÿMú]
i                                                                                                                                                                                À¸^?M{ôßÿý·õ1#ÿðß§­äù÷¶€¯ü”n M[úñãGJ~ýcò_à¯¿¶À7	ù ªÿkXÿï§*òÿHÉ¯_ýÏâO`¹ÿe~Êñ9àLü²,ö¿Î¯Tÿ×Fõ ÿîúß¨_8€´üúwÑÿvþâOïç×?¬ÿkÃü!Ð¿ÓþßWé?›_ÿíû§äÀ|ØºZþúèe›þß›ä×ãþÉùõïÆ&wÿÊèg“»¿þýØäî_7 ýC­ûÅ_»@ÕU-¢¾þûV?3ÿÜ Sß—ü{úÖÿñKÊû—¿ƒöçëŸ8õ7o_Óÿûüéç6JÙi &ÐqûšÿÉý- ÛøUý3`Ö?É_Ýß`ù×êo [IÎ_ßÿÖV¼ÅåÏï_>€¿O´þ?0†‡S'Ÿž?¤ÊW§ñM ºýÅÒóÇô¿û8Ðu}ˆŽº€ÔúQýp³¾„×ÿ@rþ¨þó¸—ß‚ë 9Aÿô@B~ˆ­s SÃþsHÊ?ü ^^BóÿÀúý§Òüc/àå]`ýåLôOÊ?ð ~çO[@bý¥Lû_ #ÿ°øÊŸ0€‡C÷s éý3êÏ`jÞÿ| ™ù‡\ÀIþÛÈ«?÷5ÀâU7ê?å÷ÿ{ìþ/qùgN [ôÏÌ?Þûçç¿>¬ÑÿòÙàùýÿ¹ÿK\þ«À´“þC-à%©ÿÃ^ûåy ÑýO°Nÿ?¨è?Ð RN ý§•ûO5ýÇY@ý#žÝ”´îÿ5€Ýõc ûŸŸ ö×ˆ¼$`Øþ#,`¥O nD`ÿ³T÷?þ ’h{÷x	fý?€v eôÏÀÍ«Ò¿“4ëûªN 
èø¤õ¯ýà½£hÐÿQÿÀþùÈÉøÀÑýàCÛþa¯~ö ýãúç?,å›?Ää?€þ	Rûç ñ›¿'bòŸ?¨°õÈýcøÜŸ3!ùÏŸZzO©ú	 ç žòûß_À”Û?c ç×2pÿˆ,½Øç]Õù/ ¨þé ¦ãKïŸº€§Òþõ¿ö±d ×W3Pþô§¿i›ÿMMý™Ÿ,©ÿg Ó^bðT×f—}ÌÀüõŒÔ?ë0åæÏïÿ¦¤}É –®f¤ü?ö&3Yÿb×ýo-`ùzFÊ>€ûoS¿‡þ‹Ý¸ž¡òçý$øò ž:í?¿€uìP˜’ëwÒÿzëVÿ²òÏ ãEß6éöœuiòúŸO í—=lÜßëAß‘—ÿÌÓú[@+7òë?vþ®ú@úí©›ÜÉ¯úm7ý×<”è?¸ô_óH†²þU×üóÝtPÏv>€VùÇ?î>ó—/ ÿþ!õ9€“ü-0­¦Aýóø#ô/]@ÏUÿ¸ì_:­û×Ÿ‹Äþ3ùc0­$°þBûúN`ËÄÔ¿‘~°þeØ¬}þ{éÇë_2­PW?©ýˆý6ÐGÿñíŸ;‚Ú|{—y¡Âü9í˜?¹Öjúÿ®Ÿ=’ú™ñ‡ïŸ>âœÔÏZ@~þüøú§O °ÿEþôdÖ/Š¯éŠó'/ §~iü#æ/êŸ6üþsùSÏ ©ùËãëŸ;Ü|«ÀÔ¶¾þ¹ˆÈŸý•`³úGÌ_Õ?aý¿õQÿ˜ýkpwõù¿õQÿ˜ùëû—?qp½þõš?¢È–óW ¢þQóÇô˜@³þ!õ›?n Ï=ö‰äüqýëÐ¢¿ú+ báý£â¼~ô žûè¯þVýÙ_ümP2¸þâw0€ç­ú‹ßÉ r’_üŽ7€þê÷6€ç5û‹ßá ÒP™_üNº€ªüât I—ÿØ*Ýÿ´#yÞvEùÕ?Î .r	õcõ3€”7W?HþRp¥Oû+þÚöH¥~û€úíì` ê½ ñ[ëz ê¯ Ûˆ¿–. þŠú€úëêl â¯®§¨¿‰^ þVºè¯þ–6€ú[kÚÿ_æß¹ø=h6€?ùç ~/šô?Ë?7 õ;²~ñ{Ócÿun9û_àêŸÅïSXÿ³\ÿ«øý
Éº€™¿oýo¿{-óò;y÷®]ÿË8±¢ëŸ ò@i(2?{¥=                                                                                                                                                                                A^?l}lYŸøïÃÖÇqˆü»[Àg}Ê¿«œÔ7€¨þqø~jjß bòÇà¬}›	\æ×?¨ÿå þú+¢~é~¤æ×?ªÿù þú+s KõKðãÇ‰ù þ·òçà-ÿì æòëÕÿj Qõs°Ô6¿þaý‹?¼›?k ?úÏç×óþ	ùs ÿ¾ú'åÏÀÕßÊß¼ÿkËþéÈÉ¯ÿÖýSóW>¤ ÀþÉùë°”_ÿú.¬FþšÈlƒ»¿þ=Ù¢ù ô·AþøþÅWHÈ“À¾¯4 ý›¨Í¿uÿÒ«ãDqüûûÖoŸ¾oyˆ½)ôÜÿj‘·‚µò=wHñô©ºÿü ¯­r»HË~¢Eÿ™ü&Ð_úVýò[@õ/Ðº¿t—¿¶ÿÌ ôßiþöý ³ü-ú;léáa'ýÿ>ÕäÅXÎ}ý}zþ¨þ	_œÅ7èø§hÜ¿ä+À™úðîå·ˆúŸHÏ¿Â	àV~ø¨Ÿ9€Åúw0µêë!ÀåúÃà¥d ·ò¿ ¯þ7ó½€“üÉ¸]ÿö ¦þHÈ?ð Îò'ànþ·$çì?;€”üã  BþÅL«÷OË?ì ^rTq ûOegÿqð’Ûÿ¡ªÿ´vÿŒüCà%s Éùg0õÝÀdöÏÈ?÷5@`ÿ´äåp yýsòÏœ ¦îû7€—¬äö¿Àý§ªüÃ «ÿÃ ý@NÿÌüW˜ÖîÿöGýsû¿ì»ÿÉ Šú5 ýÇî?5î2€iíþeù€þú' UÿÐ Oðößúß¡ÿØý§µúO«÷/úò_ÿ¸O ZöŸšõŸÆÒð@âé?ºÿé ýûW= |ëõ÷øoŠuúß<„ØüúwrH½ûG¿Ôé#€òß•Ñ¿ü	 ÛôÌí?¨Õ	àìÑÿ;Ç™¿â0(§Ö Óó¿xá	`T›äÜýƒÀÙs@äß¨Ê÷~ÿÌþ$À¸ü¿~ýú5Q‹œ?÷+å(Âò_<	4(ÿ[}ý“ð”ÝjÔ?i ‰ù q OýÃ~	ìcî ¦äüãô¯ÀSQÿ¨_þ˜9€ŒüÇìŸy˜ró'÷¿·€Ä+É@Nþƒö@Eþ›H¾Š«þ·p}cö/üY°«ú™ý—q3ý—˜òòµî	`y Oõýß”Ç_~% €ü‡íŸ?€)µ~Qÿ*ý/OiW6Fþ’\½üç|ýŽú¼ðY~ý/œÄOý…ÛöÏ]À0ùðÇbýÎúg` ü¹¯žõ<F`¨ü%¯•–ÿ©«ü,Å Ù¸üWˆÉ€þÓ8ß?õz†¬ÿ.øÓ¿÷o{´ÇÐÓ	 (ÿÇ ZéôÓ?,?ì_qÅ??MÇôü®ôÒûèPÿ ø]¿Õ¦õ´Èÿ˜ø“¿|½÷ªÄœ÷_À´šèú3ñØÿ2ø¦µDÖŸo?HÿØLk‰ª¿Ü~˜þ‘˜ÖQÿvûú—N`»Tç¿ß~¬þ…è¦ƒø£õ/ÛÀ6(¯ŸÜþ€ùï÷/ÁæýÛÄ·î¶íß¨ýàýó6°ú rëÄ×?cõoÿ€ùóû§O`ý¯ š¶×?{k?Ô¸¾þÙ(ìÿí·©«øGÌ_Ñ¿â	IñÃP[_ÿU&pš?p õõ˜¿ºôÎë‡  þ1û rWùCRÿ˜ùCúG-`¦~À bê4Pÿ|kÑ?¨þQóÇ ~ßâUÿ¸ùûW.à[tÿ°ø®<€çù¿m]ÿØùcû—O ¶¿úÛàyëþâo<€‚	|ë¯~ý³Ö_üNð¼Eñ;ÀóÚýµïl éÈ/~‡H^@uñw½€Êüâï| UùÅïz I¨è/þPœ_ü8 åÕßÅ  ~6ÀùRVýcàki‡ªþñNüfö0 õ[ê~ â·Öõ Ôyâ¯¤Ï¨¿¢þ þº:€øëëg êo£“¨¿ú«¿­Æøßo‹ï^ýíµëÿQÿÆÔïB›œåŸ€úÝˆï‘f êw¥×þ+Ý|ª&ÐªÿJ·œaý¯põâw*¦ÿÅ ®ÿ]ý~Eô?ÀÜ?Šß·úü·iß½¦ýç~¨Ô*ÿõb›H-ò¿~GÂë³Gâ                                                                                                                                                                               ‘^¿L{ôß›­âõ÷¸€÷øÖÿu§õ &à¾Ÿ˜Úç7€˜ü18ßhõ ªÿkƒúñ¸Î¯Pÿ×&õc0“_ÿ¨þ¯MêG.`.¿þúÿ–?j ³ùõë6€¿þú+,æ ~üøñ#9¿þqýOðWú îçÏÀ[þ¹è¿fÿ)4Î ú/ä×?°É§€iùÓðc¾ÿR~ýlÑÿ{UÿÅüúoÛÿû*ýåïu ß£0×9¿þÛöÿÞ¨ÿÙ_Én‹þ8ÿýãÅôÏÊ_ú0 ü-lÐ¿p ú·±öé¿°¿ü­è?º¿ú+€üM­™?öPteÌ)|òÇ–ý‹®ŠPß·@øm¡ÛþWˆ¾ôÝÿl±7®ú?þ±ÎMà–§OQý¿'¥7^ºŸjÚ¦¾tv qýò@Gù¯Ö1¿þ÷¼¼¼¬•?¢ÿ÷ÌþpËË§uú_@ÿNòÇà©ãþ‰ºµ‡É_2€‡SŸ™“ÍþÚ›À\þÜœÅ?™À6ýï}xUß®ú¿ÔÕÿ@óþ¹'€Åü£/à2ú æë, #`ÿÅÜ¨?øŠû/ç@wýoåy /e¸Uÿö ¦úßË?î ^ÊúßÉÿðÐ¼Ö îæv eýïæ_À´Aÿ„ü£à¥d 	ùÐ¸ÿü÷Sú¹€’þý§õû§æ×?­ZþùLÍû_ 5ÿhÙf ýSO Éwÿ!ð’=€Ôüs'€i…þSÖ#?£ »zþ™À&ý3ò7€–ý¯O ë÷Ï»ûë¯Nþ«À´Jÿ©¦ÿh8xÿìüwûÿúõë×4î Fïÿ–_ÿä¤ä~  eÿ÷ü‡@ÛþgX«ÿÔ¬ÿG~ýõ?ŒÕúO»ïÿ™àÀ.úOmúÿÉ¯¿þGqèþ¹ÿ&æ?Rÿ†HÌßÿô ÷ý¤ò˜€þ8Rÿ³ü# ¢bþà—€¹x°ÁÝ„þõH¾ûÇ¿TYÿôü‡êßêöàßoÁý‹‘„þÕHûæÏoÁùÏžPŸ_ÿS%wÿ§•_þ1{ YùÕ¿Í ²òGÿ ³þ)òòÑ¿j O™ý§vý™ÿ`ýsO Snþ§µ	äyÿ»n^×¸ýËðTÐ?ò— ?f ;ÿÑúGà©¨â¦’þ·ŸÿpýcðTÚ?e SYÿåä§Á ®ë§÷¿»€Äk™ë?¿€©$ÿñúçŸ þsßKò/¿LVýÅüõÏûaÐŒ—ý¸¥¶þ½×‚LHÿnœü…˜’êg÷SÿfþŒWèî_<€‹õ‹úW¹Ý?q¿Æê_ò)@Zýþú§`´üu'€§qúOGUÑÿépý‡»ûWàpýGÌ_ô‚@ƒõŸ®Mÿ§½õ5éKÂî¬ÿÝ+µþ›ýXŒïú.Úû€Õùo<çëçÏŸ?§ãËÍßÕ ªó/<ã÷çÓ=¿ùúSVý®¬­?ÿó~'õ9€÷úgÈ´‡þéWr+þûå¯˜@ý#êŸ»ª¼œåo°€i=Áõçâ¿ô¦õÖ_h¼þ×ùƒ0­'¨þöƒôýTpZMDý;ñGéx˜VS[ÿ~û‘úO “þ-Ú.ÿíþ¥è ›øãõ/Á&hÐþ%#ØîÐ®ýÐý³7°þ€Y
Ú/fÿÌtÛ¿¬ýû üÑ½Ç×÷¨ŠÀü¥ý÷¹ÊúúïyÕñ˜¿²ÿ~P_ÿÝN ¤þó‡àyˆúú¯5o_zªÌüQýÃð'~ÈÂê4\ÿˆ\Ä¯@\ý£æ@í¾Åö¬Üü±ýk0W¿b êo3€çØü…ýÕßn eˆì¯þ¶ý°”¿` êw0€ç­ú‹ßÉ ò&Ô_üžð¼ÓüÓpž7^@Hñw;€€þÚ÷9€¤ô[ŸH<xíw¾€-ó×þ;ŒP“_ýƒ í ÅÔÓ ÒŽXýƒ épÕ?ÎÖ¼óü:®v ê7²Ñ ~O õ Åoi£¤Sèˆ¿‚n þZº\€ø+êo ê¯¬¯¨¿¾~ þFú€úÚ¾¿úk7€ÿ™ïêw Í ÎóÏ/@ýNÄ÷¿Ê?7 õû±AùûÒiÿµn>5Èï/~—VûüOý^Eô¿Àõˆß±úþ¸ñ>Äï[uÿ;Äï^Ëüˆ¾	Tj–ÿj¡‡M¤6ùÙù¹ÁÖ‡                                                                                                                                                                              À1¼~švé¿w[Åþëïr¿ã[@PþØ|7­Rß búG-àû™i…ü’?d çõÛ,à²¾þAý_ãë7XÀu~êÿÚ"ðæòë“¿j ‹õC0›_ÿíp+ÜæóëÖÿµMþ ,ä×¿Qÿ¿Âò‡`)¿þqýOð×_…åÀb~ýÛ ¶Æ ~üøñãê/åïµÿ÷àþoù¯°œ_ÿf¦Èþß³òÿHÎ¯ÿ¶ý¿·é6 ùÃ­ßÿ{“üúo;€ïíûËßÄêý¿7èŸy›9Ñsÿ“¿q÷oeíþé8ù³üíôØÿm §”¿¥ÚþYù‹–¿­ïþE¿µŠü[ö/¸.”æ_¡¿g}ôl…þžóyœþA¿ôÜÿ| Ñ7îûÿ™@èÁÓaÿÇSkÜ„{y~µODöÿžÞÞ’ë/à¤ý½„öŸÉoiõ0Wq‘ýçó@bþ ,åŸ@`ÿ¥üú§öiš³þ%øçŸi¼ü¸‘v ßÃðØÿŸ7ÓÑ×ÿï?nÞŠ!úÏäÏÀÃ™îûŸÄ¿3÷ü‡@eÿóúŸØ®ÿÿWõo,@ÿ‚úhÞ?ÿ°Tq ÷©¨ÿ>€¼ü+õ_Ê?¿€üúgç¿=€úßÌ?7€åþ¿~ýšŽÿ¥.ÿÃÃvý—p;ÿÌ –úÿúm:tÿ—ºü70õÏ<ÜË=€…þù2€Òþwò/ yÿ©,ÿÕ æûå?È 
ûßÍÿð‘¿yÿ”ü—˜í’äþ	ùÐsÿ¿ïö?ÍŒ4ì?÷`ŠëŸ1€Äüú'öOÊ?{Ø¤ÿ/ý0Óÿ×8ý_êóÏœ ¦mú§æ?Àý§†ý¯O ëôŸJïþúë™ÿŸÅü£öOÎõ`
íÿ½Aÿ?Ð¿ý§âü×ýO®uÐþÿþûïÙ%Fíÿëýï~èß7eý/?X<ý;ïÿoYÿóÀ´Zÿ©Aÿ_cõ»ÂÝ¨þ'ÐÿPý§µúß:†èþSÐ—·ò¼ÿK}ÿÔ»ð7 ß”=ü«Â	`„þåoø “þéøºøýOþß¿þüá?¾Ñ	àÏ¥îþÇéßì|÷}pTÿÛùß¿ö~úý	°™‡ +óÞÿê1 ð»ôK ]|03ÿ{ÿ{ùÔ?q Þ>üîß?ûpzÙ”ü#ô¯ÀSVÿð×€}ÌÀéeo=ëóˆýÓ¾œ÷M€§ÌþSËþ÷?,_Ñ¯û/? ïìŸÒ?ø— =f ?ÿýŸ”y÷Zý— ^ô¿ý!  ÿ¡ú‡ $ìo½ìãpëj†ï¿üLÀôú©ý#ôuÿ¥”å?Vÿ‚Àò žŠû§-`*í?·€©0ÿÁúÇ`¦~Fÿ„Lý/&pç:nå§ÖÏ‚ÌÖÏéo©×òðR#õ/ÀÙ–_ö%ïPêëßîŸ8›ùGêŸöz`‹ñ³û/M ç
îôOXÀ¯±úŸ òç÷S?¥ÿ½Œ–¿n 7ëö¯¢ÿšž×¼ü5'€Ãõÿ5bÿò<u7€¶ý§ƒ¨ÿÍKš¿ìÞì®ÿíKš¿ü%;ëß0ÿtp#ô¿séë¿)éßÙ ªòßyÒÏÏŸ?NÇVÐ¿Å#€åªòßxÊçÏ/Óñ<¿ûýßýc¿P§¦þâ|ý‰ÈüÎÿ5ìü ®þü‹ýœ×?Þ þä¿Z@ú•ôÞ?ùîÅ?\ÿ³ü_òõÜ?ë:þ|Æ7ÿp¸ì_¾€ù	Lkª¯ÿe)þñûÇ.`ZSPüí‡èº€iEõï´?Zÿùü5(ø°0µõâ+ÿrÿ°“À´¦æñGê_±ò Uûáú—o`›þ%râ,Ú J7°ƒúyíÇí_óÁà8íïœ”¥?`þüþ»Ÿ@y{ý÷¿ºú‡Ë_Ü—¨ŒÄþUØ×êëë¿ß	DÔ?`þúþ»X@H}ýw: úGÌ5€çã×?fþ¨þ½N ¬þAóöYÀ·/}Õ?jþØ<GÅY@`ýãæí_³€‹úµˆ¬àüáxŽË_1 õ7ë_6o‘ýÕßx Ï1ùË ~xÞ¬¿ø}ày“þâ÷3€çêü¹ýÅïk Ïëö×¾»<¯Ø_û½ ¢¿ø e›ç¯øw ¶¿øûÀ†ù+ÿŸÊófØ(íÿ°Ãéh ©‡¬þ°zþúÿUÕÇ RVýxÛàl‰G*þ!z˜ê·³É òˆßVßý@ý•ô¹ õWÔÝ Ä_[WPý@ýô1 õ7Ôn ÿ»´pêo¬É ®ê/,@ý¬Ôf êw"x ‰ýÕïÇýåïKŸý×»ýLköW¿Kýgpù6â÷ª¾Ê×ÿê÷¬²ÿûî¼ñûVÙÿ>ñ{×4ÿ¿”ù Úå#ý4ËÏnÈÏÕ¶>                                                                                                                                                                              à8^?Lûôßo[ÆÞëïtõ- "ÿîpRß "òÇàû—iúú‡ô®ßn—ù ¤ÿktý6¸®¯Hþú\ç_À\~ýƒú¿†×Àl~ý;è¿”?tóù ªÿk‹üq¿Û|_a KùõëÿÚ"Ì óëØÿµEþïMóëßh ýÕÿ{ËüúoÜÿ~þêÈ¿É 6éÿãMz~ý‹Ä}’?c ?®ûËßó bûÿ¸î3¿þûèÿ=+ÿé äï{ Múÿùù›Yµÿ÷²þò7Ô]ÿëÓ¿ü-õÚÿë/äol½þøógù[ë°ÿÉŸåo¯§þ—ä_CMþ¶ý—Pt],+ÎŸÞ?îPrEÜST¿uÏ÷¿çåÍ†ï¿q?îu7þo‡í2Èã>XþÍð½É óóoµ€èþgšþòÇàéÓÚýÏã.àŸ7Ó€ù_BÛ§Ž °ÿLþ‚ü3Æ ^à:þýÄõŸÏŸ;€Æè?—¿v ùo ìÀchÿ™üúõk:Œýóß@ûþ%ù/ûÿú48Õ nä¿5€¨þMûå?ÈvÙÿ{}ÿ¿ÿþûï´þÿ,å?Ä "ú?|ØIÿ¿OÝÏÿÏbþ#÷É²®ûŸÕ_^@Rÿ ²ÿEýßèµÿ\ý¥Ìö¿Ì€TõŸ©o 1ýË0_~ ú—æ[@—ýóÏ-`®ÿuþ¡û/æxè±ÿ­ü×HìÿkÜþ7ò/`
ê_0€›ù¯0|ÿ—šü‹Ø®ÿ”ÕÿŸ™þsù‡í'ÿÒ ¢òg÷¿—ÿb ú7é?­Òn wóŸ@ÿ—ºüóˆëŸy¸÷×?¸ÿÜ›õOÈ6€™þ‡ÌŸÔÿßÿÍÏ?w˜Vê?•ÜýÇìŸðà¿oFè2 ý_Îò_ ©ÿõ€­ú'æŸïÿùWƒ÷ÿ77ÿÌ	`µþS|ÿÙüúçôŸ"ûoÙ?õô?Rÿ“è˜ü÷0xÿƒßýWì?­Øÿ| úGôÿw˜þ}ø¿ÿÐ±ûßÌìþËØAÿiþÓ!¬Ôê¾ÿ˜wÿ’Ï Kÿ»sÁùK> |^Tÿóþ×8dÿ¯‹¦æ·ÿþá?ö	 Wh’ÿ(ýÛœ òîþû'àë‚ú‡ óîùÐ’‡ ò¦‹ÀåwïDlþËï7È?@ÿò\ä~	¨‚×€JËýsÿc÷/@Aþè×€¼ÀeùÓ?åi€Y_<uØù0ýÇè_4€§²þ±¿ìºÿü)àô2YwÿõÀSqÿ´L¥ýgÎSyþAúç`¦~zÿ©uÿ³“ÀÅ%2ó©á ¦ÔŸýO?¨ü·^fá¥À2ó×îÉà÷ïûyýï.`Šè?7ËüCõ/À—Åø™ýo. ýJîõ¿ZÀÐùoö?ýaÀ¥þ·êçö_\@ÎU<æ 3ÿÁú×àvýüþ³È»|Qÿ)=ÿPýÏ~øºÿSƒþoJÛõ?ók¸þÉ'€­ú×hÝ:œâ<í³ÿx÷o:€i_ýÇÌ?Xÿ—´âƒ Çèã¢£æOüFÐŒþúWäò“¿Oeýû€ü…ÊúßÀ´¶òüƒ=ð{­¨ðÀÕÊóó]ÿ%Eý#¿ ¸þ§|þü4Îó‡òß
¹‡þ÷/º\ÿ+þð™iÓ®P\ùÅ~Îë­ÿIþÙ$^M×ýS/œÿp8ïµ€ô+ê¶Æ¥â¬ÿeþ÷|N ÷ÊzìŸ{_Ÿì/Ä?|ÿ”é­áµ,·¡ä¦•5?DÿªœM`Z[]ý»íGét˜6P|ÏOŠ¬ü·úœ¦ýHŒ?VÿÚ®ý€ý¾¼øËŸØÿ #ÈM?vÿ# ¨üóç`ÿ(o¯ÿþGPWÿpù‹ûïr•ñõßõêë°í v3ˆúÌ_ß©Äü!ý{_@Lýcö@ÇˆªÌüaý;]@Xýƒæì°€oú«Ôü±xŽˆ6ÀúÇÍÛ¿bçùëYÿÀùÃð”¿n êoÖ¿h3ù+ þ¶ÈžÀlþâ¨¿ý ž7ë¯~x®ï_2 ñ»ÀóúýÅßå ¢úkßÙ ÐQþiPÏ[. ¤¿ö»@Dí÷»€óWü?;”Îsèâïz •ùÅÒÏ 2Zýã ãÅÕÅ 2ŽWýc, ,¿øMl1€’çÿ‰ßÌÈ¦~S@üö:^€úëèt â¯§¿¨¿²¾ þú€úi7€ÿ][<
õ7Ôd 3õ—7 þÆÂ°˜n êo/x 9ýÕïÃJý/ ?6¸ÿ«ß—æ¸xêw§iÿ‹÷¥~—ªû/àò©ß«Êþ'8ùÓõ»Q¿_Uý7¿û>ÄïZEþDâw®qÿ™<šæ§}ïšægÔçr[                                                                                                                                                                              Góúúú:í×¶>ŽýÆÿ0í8¾TçßãNó@mþ½-à¼¾ôÝq}ýëóG-àû—i½üúGôÍßj sùõéÿY¿ÑfóëÓÿ56ƒÌç×?¨ÿklþð,ä×?ªÿklþà,å×¿ƒ|o>€Åüúoßÿ{óþò¯Ñÿ5¸ÿ÷öùõß~ ‹ù£p#¿þÛ uù×ëÿg õÒÿV~ý‹$õÿ«þò÷þ °ÿ?~¤×—¿‹ÄõË6€Ûùõ/×cÿ—ýåßÃ ¢úÿ¸ì/K{ïŸ{˜\è¬ÿËþò·Ö| Íîþ¹‡È¬Æý³®%çîŸ{„,é®ÿ×ŸÕ_G}ÿ o '~ñŸ}tGöò®î:ªó7zþ‡üIñÃPpññß¨Ÿš¿z'(¹t“ü×¹Òcæ¯_Àû
/¹X¿zÙñÿùg3À Ê-ôoø³`óþy7ûO¿~ýšË,æ_y ÿ,à×§éÀù»9œÿeæ5=ž*ËÿÏRýÃ,à¥Õ žÞÅô/øTð,~þþ™ÀYþc Aÿ§k•ÈþZ`¦~Þfû_ä?Â ò`¦}î®>ÌÿZp!ú¾òŸà*ÿÛ¹~Æ ®ÈÀrþÔ¤öÿuØþ/ÑùCPßÿ±¸ÿ¯öY³ÿÓJ'€›ùÓÜçÐžþ-ú?õÐ?3ÿ?·óï| ±ýƒ>ø^9€„ü¿Kêÿ9 ý<|zûÃúÿŽkú§à+þçZ÷OÀíü§õ— bÿ‹üoØ¾ÿ­‡.ëÏ/@ÿ¤þ×õï,  UÿÙü3¦Õ' óùo ¢Å€ùú3˜é¿”_ÿôLÛö_¸÷Ï@ÿ³þÿþûï¿ùZÞýË? üÚÿ,¿þoù¯p#ÿÒ bú—ž nä¿€þ§ýç¿ÀCþ bòö¿qö¿@Î§£öÈï?­Ön ·é?½ÿgþ‹<ä (Yÿ©®ÿAïþ	O è¯Ñ€;ùÏ ÿlÿ3òöÿÞCÿœOÿ¦½kÕf +ö¿€þ…Ÿ „õŸ¶ì?•ö?øéÿþ	àßÙ´éŸ–¿ä€þ± Ü¨ÓÿQûOAý÷/@~ÿiÓþŸÿéÑÿê{€÷/Êˆþ÷hf MNÿ-û'?þ7ÚÝ¿Ñ	`ëþ™'€?—îîŸð3`'€’üMû'~ÿw¼ÓÙ	 ÅÝ»þ.–“˜þùØ¾Î 
ó¿ÿÌ ¾.••?è¹Uýp+ÿýÃO ¥ùãÿ_x˜;ù3ïþô/ÀÌóS¤mÿ¹SÀTž„þ¨z °üKÏ_®Ÿ{ö?NÿÌü¹\ÚÉ?ë Z÷ÿ3«KäæµÿÍÌæÏy° üù¯‘{ö?PÿòL)õ+^ ®<ÿ½þ—ÈÏ?Hÿ;ø3¥ø¹/¹ZÿÇšþ‡ê_7€7Ëñ^4 ~Rÿ“ä¦ÿÍÏïÆ/yØ€üyýKò×a ÷ò?mò›@
û™¿j O-ú/¾|“þ%ùÕ?{ íû¿+J_Þÿó/ôO@ÓþåJNÿ9ùÖ?{ Çë?eå?ZÿÔ W¯±Ûþ'o|÷•¾Ÿ?ùð{Óîû/^rÐþ98Óç äÏVØ¿É ÕJóùÉß‡Âþñ öžÿ ý[`Z_iþ¿ô?SÖ?ä•¿CÖ=ùïÚMÿÛ—·þó»¸wûèçrwãÿ|74ÿû
ûßXÀ´º²ú÷žðÿ;þð•y)WÓwÿ”.×?‰¸œæ_X@â5õÛ?í‚iñ6€‹þsH¾®>û'_òöi”þ—Ÿf][ýk~ÿ{Bûã÷_Àç²¯oóü§ýË¯d9þ±úÏåÿX@±û Mû1úW.àsÓþÜ?HÿÚìRJüaú6Äø‡Ê§ÿ8HŽ°þ÷püä´?Zþ¤þÞ@fûqûmá˜?³ÿ1FPÜ^ÿýo *þáò`§#¨¬¯ÿž7Pÿ€ùkûïgõØ?` {˜@Hý#æéßûbêë¿Ï	DÕ?dþÀD,àÛ»©ÇúÍØ¿vßNõVÿ¨ùcðT?fõ›?¶ñ®ò×/@ýMðÖÿ['õ?~ ÏAù+ú«¿eÿü|‹€ú[à9"aõ{ÀóVýÅïd Ï›ôW¿Ÿ<¯Þ_û= ¬¿ø½ m½äŸ¶å búk¿×Dô×þ`È;vñ6€¼#ß¨ì/þÑuÐâêa yG¬~¬mp²€¬£¿Mð{™G*~#› ›øu? õ[ëzâ¯¢×¨¿š þª:€úëk9€ÿ]»u(êo£Í fâßúÛ‰Àüó[±¸f êo/p ¹ýÕïÃZ'€Ë÷«~7¶è¯~OÚàâªß›¶ý/ß›üªìc WïJü>Uõ?ÀÙŸ¯ßúÝªèÿYüü/fß‹ú+ÎŸAü®5ïµ€ 'Jãüï¤ï[ãüôO}.F°õÑ                                                                                                                                                                             @¿þûoë#`+ÿ}ÙúHöèõÓ´÷úP“Ÿ8«¯Uþ.à"¿ÔåßÙ®êë_Ýÿu×ùõ¯î¿›Ìå×? ÿënëëÒÿu·ùõéÿº×üúÇôÀ÷iõüúõ¯À÷ïß[@þöý_ò7Àr~ý»À&ùõì_7 ù§ÑO ÓÚùõïêS€äßÍG€ÕóëôÈ?ô äßl ýµñ1ÊßÐ.N ò5€?~œþQþ–ºëÿãÝŸ?Ë?Ö .úËß\Wýœ÷W°¤÷ßâèªŸþ?’ûoppzùR~õÿú³úùkÐUÿ?¯ÿë×tÜúÁ˜6pž¿ìG=þùçŸæþþ×—é°ù?L=(¸ï¿åŸÀŸúÇYÀLþšœ/`êBþ™ÿŸÙœç?È ^¢p²€©yõ?ò_à2ÿ!0Ÿ¿n ¿70í×lÿëüG@£þûöÏÌ æòï Kùóðôôô4uçñÌù_%ä×?=þ•©«ö3úÿs;ÿîð2€ÙüÏànýåäôÿuÔü/Aù7Ú@Jþ¥èŸÕÿ~þõð¸Zÿ]`µþ+/ 1ÿÂ ôoÐÿi×ý×ÿe¿ý×ì¿ç¬Ùÿi—ý? ÿ!ûßÏ¯ÿ}úÝ¿»¯ jêë?Óÿßÿ½sMûë¿xiý/ûÿûnéJ~»;i=åñÇêŸö À¿·úÔO˜@7ý§¿?Í^XÿóþùgpZÿÞV¼YiõÙ:xÿ¯ü3¸ÌÿððÐ{ÿÓú³8Ï¯ÿþ3ùo`Å›•žÿz ú×õ_Àš·+éä??€‘>ü§<äßÅ<dõ_õf¥ßýkûOûÖ ÿÂ V½YwÿËèŸØÿaýÿ¾ß¨ÿ¹ýÿMê??€uo×Zý§éèØ°ÿï‚/z9ð þG¿û×| Èë_U?ú7ÿ Ð¶ÿEýÜ”öŸ;ý9Â€lÒÿ:Ä rûOC÷¿ó eÿ¹üyHï?Ý¿øÕ?"Ö Ò? ž?ág 3ûWßý¿¯ÙÿìRú ‹þ©¨ÉŒþÑ'€§výëO ¸¸LfþÃ÷/@«ÏþbúŸ.àò"¹wÿÑûOmîþ-Ïÿ'¸¾Hnþƒô=<õÒ?ÿ fòß?÷0Ÿ?âÑŸ&ýkÎþú_`ñéŸ¹G´Zÿ“äç?JÿªL	OþÍ> €ü¹ýóÏþcô¿?€w‹í‹ú×?þŸûS`%ùÇèÿ‰`7Û—õŸYÀ´vÿ_Ãô¯:Ü­_øÜŸÊüy ŠòÒÿö ò—>÷«ª~Ö eùÓ¿b û¿)_ÞÿãÒú'}
’£×€Lï?|þ{ý—°óþ¿ß²,ÿ‘ú7ÀF7©äîŸ“ÄþÓ±úÿ~ÃÂü‡ê_<€=÷ÿxÃÂüÇêŸ<€Ë„èv Ùý?/8dþ»ý¯°÷þŸoX–ÿhýÓO ¯µ×þÞò´~rþÃõÏÀtúð>û/\jÜüy8µÃþ‹—8êÃ€×zìß6ÿ1û ›—þû£¤þàwÿ7…ýo`ÚBQþùûãùùù¹â—‚ì¤ÿÍ^ÿÞî\EW(¨?Ö“>æó¿- ´ÿâ¦ÔOyÆçÏÓaóß8$\Q7ý¯p™ÄøÇ[ÀYÿÅS@ÒUu’ÿ²Ú…Rã¼ÿüR¯¬ÃþÉ—Jk´\åŸû s…ôOøUßsÒÚ¿ÿÕ2¯róüorã¿Ki?Bÿ·|<"Tv­›ç¯s3þý?0¢{ñé?æâÓ¸	¤Å?Tþ;ýZ@jüÁú±Œö#ö?ô2Û,ò 8‚üòƒ÷?ÎJÓ/vÿý &þáò—õßï
êâ°Í v·êúÇË_ÙG¨¯ÿ~Rÿ€ùcÐûbê2Pÿ¨	|;ÑYýcæÀsdü°DÕ?jþÀþ•¸Ê°€°ú‡Í;€çØüµýå_»ñfó× ®þ‘ó‡à90Mõ·Àsýãê>ƒ<å/î¯þ¶ý3Ü_ýð¼Yñ÷6€ÿgï>’ãV(Šb
N´iØd|ºqÿé -— ÒÂ$ÎtIEJ÷EÑÞÕì¯þV½€ÍåçqÕTë/~¶5°™üÃ=®·€Jýµïi ÉÇ¯}OH>zíw¼€òþâw5€Ô¿’M õ Õ¯h¥œ- õˆÅ¯k¥|. ýpÅ¯od¿@ýv¶? ñÛöÔ_Âf þR69 õ—Ôx ¿O"HýÅ5Àïq£‡¢þ:ê`¢þøÔ_OåüÎ€úëª8€¹ü¡¨¿ºz€6ý—ú{8°¥. 7w,ÿVl´ÿr÷Oþ€úÓt ·w§þæl¦ÿR˜ký/põ{R£róŸ‚_ÿFø~ÄßªìþÁ£ïFüíÊíŸFü-kžÿƒôÖ>?§>—#Xû`                                                                                                                                                                             ¶îß¿kkù÷míÙ¥···¡‹úîíÇ°ÿúŸŸ¸ª¯Aþ.à&¿þEý÷µ€ÛúP˜Oæ×¿°ÿn ›þ;Y@8¿þú¿í¶¾þUú¿í6¿þUúo| òz ãùõ¯Õÿm—ùõ¯Ö³ÿÐ˜Ê¯Íþ›€ü‡€üµíªÿd~ý{€ü‡€ü‡€ükàïº‡(ÿÊøûwÃõå/´õþê7¶í7Ôon·ý×>¶y~~~ÎéMàÏŸ?~~Q½þÓÓÓÐcü/™¯aCýÿÄõÏyÕO'C—õó°™ü¹èŸUÿåÝdýžp•¿ò†MöŸÏ3€Ëúý,à6Õ¼üÏ¼†—Ð nó÷1€Pþš¶×?2ÿË\þ.î_ïÍÀaiùÇ¿Ê÷þþ~®ÿËúä¯6€aq—ù¯ðù{÷_¢û‡ów0€*ý>|ýbíþÝ
œúSHéÿÔkþ„|Ö?›ÀÆò_:‹À)ÿi £ùõ?Ïu¶~d iýŸºíÿœ•ÿ|›î®ÿLþ‚þÛÙÀdúð û?»ÿXþMŒ ¢þtÿïèŸ×ÕDÕ/ïÿtäþóùW›@dþ›èŸ0€‡Í :¿þíû?l8qÿ`±þ‹@ÿªý____‹ú?l6¿þóýßó ÿúæ ÷þ_8vÿïüô×ÿ2¿þµú/; ýãÄô?å×¿³ü©ýo ÿ±û/üÀ]ìõï±ÿ]û÷ÿó÷ÛHì_0€e×rý‡c÷ßèÇ «öï÷ô¯Ñ†ÿýïs3XòAéß¬h ÿûÒAÿ—äþÃÐû æúçŸÀÒ«Jÿ¯ßÕ¢ÿÿºïßsþò'€³þSoì¢ÿñ.ÿ1_Ýâ0ì±ÿ×ïêèþO}÷/@Üõù‡•Ñÿˆ§ÍÀCý{?ý‹ßÜæéŸó|úwÑ?æ‹€c. [zë?«úéÌþÁ÷M¿ÿwXAaÿ˜üÝ÷¹ L†ßQÿô«'ý‹Þˆ©¿ßþ3ùÓì°Ýü©ý›?îË€Ãè¦ÎÕ¿—þÉŸöš–¥ïPÜ.ÿ1úO ›þYùÕ?4€-çOù YWÿ~úg_ ºìÿ(ýÇÐIÿ¼«ÿqú ƒþï·ÌÌßOÿœ|üFýsó»ü`­•sú§äï¨î öÞ¿(ÿ‘ú=ôÕ8lÿÜì»Yþcõù~{îÿq+ù?Åö?[ÀÇ¯öÛÿóVÙù;ëŸ1€Ï_íµÿ÷Író®ÿÍ ¾~µÏþ§ÛÕ?pþ¤|Làç¿÷ØäeŽÜ?áàÊîú½È¡óÇ¿èÆÎú½ÄÑóÇ~$0`GýÇ_âØùK0¾€a%©õÿñSÉØAÿÉv3¯eëý§_à¸õÏòO`öm¹ÿÜDÆÿï¿ÿ†žûO- âUm¦ÿÕ æoÿ¿CÇýÇõÊ¶Ø?æöÑí»ÀUþñD¾¾Mä? ööÑíûïÿü§`Â«ÜBÿd¡öôÝ Ð?´€Ä×º³ø"Û¡ÿÍûƒ†c™Œˆþ8¦¹øéÌDÄ?LÿÃM .þ‘úhÑñ»Ê?ÛÝ	Ü}ØTüãõ_oŸù ­}gù#û¯³ïü­\¾Ãþ	Xzw-ûg¶ï.Zÿ%Wp–¿ò òÛë¿Øîõ/‹ß]þ‚þMGp™¿Ö Jã÷—¿x M&p]¿Nÿòúæ/ï_{·ñkô¯¿ÏþUPoÁúÅýëÔï2¥þu0R¿°¥ú}æ¯7€ò	Üµè_«~¯ù+ö/\À]‹þò/:€Çmå¯V¿ãü•ðX?nõ×èŸ·€»úýå_k Øpþ¡«/ v~õWÀãªýÕßÙ 6™8Çu°ÁüÃ±<®º€šýÅïg éCüM v›É?×æþ´/²â ÖÎŸ~g=z\o+æO¿§~mf é‡.~GH?pñ+ÙÀ 2ŽZüzÖÀç²YüªV@&ñkÛÕ Ôoa/¿™=@ü¦¶¾ õÛÛð Ô_Hóü>}Tê/¨Ý ~›: õ—Öd õ' þ*j`&ÿèä_Íú«¿ªzø5 õWWi ­ú/ô·phËôÜ±ú±Ä w«þv”öŸÀí]ª¿-MûîOýÍ)è?=€Ð©¿Aùý/pùëð}©¿I¹ýÏ‚_ýÆÈ©¿Q™ý¿‚_ýÎÄýˆ¿Yyý“‰¿]ägÛäG}Ä                                                                                                                                                                            ˆ÷ïÓÚ‡ÁŠñ ËÛÛÛÛÐG}Èªÿaè"¿äÕßë®ëë_Ð¸Í¯Aþ½ _ÿ¢þ{Z@¨¾þ¥ýßö_ÿÂü{ÀH~ý‹û¿í9¿þ°ýÈß´ÿÛ^óë_§ÿ¶ óþo»Ì¯ÿ ÿ"ýßö—_ÿTmúÿú54#ÿÖ/ ¿>mÈ¿õüjÙ*¿þ[À¯†ý'ëË¿‰4ì/ÿöð«]ùw0€•ò×¿»C©7€Vùükàïß˜Wääß§˜þQh¢ný§w-³ë¬Ø¿bý§3C_žä½|µ·kË©ÿòòò2]¿³œêg/`wý§óß,àº~O¸ÌŸ¹€m ãÒÿêÈßÍ nòç-`Oý‡ˆþ/sù;@(ÍKûóçôßãùï?Lä™ÍßÅ Âù+>ûóç4€ÑüŸõCx	à©ã”÷øðñŸèÿžÿt˜©@ ÿxþý`,ô >ë/`ûý¯òß@ÿ¤þ§üŸØDÿÓ¯fë—öê5ä .ú‡0¬yú_ Pªÿ÷ ôÍXÀ°¬«üWßÞë¶þÍ Rû?uÛÿ9«ÿû–Èww×ÿG0~Dÿéü‡îÊ~hxä#ý/þõ?ßþ¦ÿKòùÿÔkþüþ_ÿlèî]äm§ÚëÛÿõ5¥ãÜE÷Ÿ‹= ýƒý_?$åo8»Øþ1õ'úÇ½°ã´îßd_õ#úÇå×¶ÿgþ›Äô¯¾€èü‘õõŸÀkQÿ‡&õ+ö?€þSý_³ú?´¨?Û?>¿þû?4¨_ñôŸë?¼ÿ)ÿå ¢óWÀeýš§ÿqûûé_ÿ=õX:¿þmú¿®Óÿn¡þ—ùõßHÿôüIýOÐÿ¶ÿëÚýoëoªÿ°g;èŸ•_ÿFý_—îŸ—?¯ÿU~ý×ïŸ™¹þCïý‡5ûçæ¯Ù¿ãÓ¿è°@ÿÜúyý¯óë¿nÿüúyï 8ÞåÓýKêë+ù€×…úÕÏéŸsùvo‘þÇUV¿Fÿáý#ð@ÓþEíköŸÌŒþÃŠýóWjÿã½ógËýËÕéß}þüôÕÿ¨§Ü—õ_åa•þQùûïÿ|ìþOGèßþ°ÎÃ*¹ü½
ý«\ v×?2ÿúO £þYWÿ^úç~à¶óôÿzúO_ :éŸŸÿýG°ñþñ_ÿyõ?JÿÑg€.úg~ÕgOý#{XëQåþ	ùÖÿf =ôÏû¦?õÏ}è¢þéœþ#ØtþØoþ•Ÿÿ@ý°Úƒ’¿ñ ºëŸ–ÿXý³°ÞƒŠÉ?äçï©ü`H}p½ÇÔ8WýÛ`½‡‘(È´þ#ßl¯ý?o#É >~µÏþß7ºx·Ï‘û'<\}Gà=ö?Ý*êGý Ú .¾%üîú¼ÀÓ±û'àÌÎúÜþèùãß|kGý‡ùûì_0€Ñ«IËðÓÿñCô7…ÙCÿñ[Ëÿ¹€‚Œü@¸µ¤Ô?ø›þ?ùg0óŠ¶Ôÿz “·=tþóþ%ýo0¬'¾þ!?è7ÖòñÊ6Óÿl s·Œ®ÿß‡¡çü“ˆz}Éÿ3€ù&´ïp×ý'ù·‘?AJûîpÛì_‚Ë[ù·‚‰2žþ¦ü!ú,`á+þ>P	Ú÷6€`ÿÐ–=¬Âï˜núŠ¸þï8ŸÀÂGUô`ÍÅ?Hÿ¬ån­DÄ?Lÿ'°Nÿ¸øGê¿ÒBù› ºþ¡ú¯2åû'Äï*Lÿåp·è ’Ú²ÿÒX¬rúÞòÇ÷_r‹ôÏjß]ÿ¤,5‚»ÖÈnß]þäþìà®iÿ’öýåÏîßpûÆï/á Zlà®Uÿâøú/0»FýkÔï0•Tœ@›üUâ÷™¿NÿZ¸kÑ¿Rý>ó×ÀcÛüw+×ï5½þÅ¸kÐ_ýEð¸­üµê÷œ¿ò ÛäÏê/ÿ
ýsP=¿úk gò÷4€ôl5ÿpë`›ù‡£x\{[Ì?ÈãÊØ^þáX¶:€ôG"þf°€-üÃ!mp Bû.`ù‡ƒÛÔ r€ö…¶3€œ£¿›ä»ø5¬8€²ïú¢}È'~=;€øUím â×¶«ˆßÂn ~+{€øMm} ê7·È ~_‰<6õ—Ñp ×åSv þrš`:þÜÔ_XíDäŸX€úk¨z(€úkÙÄ@ý5-:€Ð¨¿¶å¸sõ·`™þ¡{V#@ènÕßŽ²þ³Ý¥ú›Ò²ðÕßšüþÓß›úÛ“Ýj cw¦þeö_Àè=©¿M™ýpñË©;«ròçP³éÏ–Éxês6‚µ                                                                                                                                                                            `óþ}Zû0X1¾GÏo ‰Þ¾]Ô7€Ìü»Àu~ýsóïq7õõ/éÿ¶ÿüúäßÙBùõ/ëÿ¶óüúößÍÂùõ/îÿ¶çüú—÷/À¯Ãõå¯Ñÿ­¼~ÛŒæ×¿Jÿ·
õ`<¿þëà"«Èß¾ÿ[üm ÿVðk‰þùõ¯Øÿ­Bþ³X¢¿ü›À¯úOå×Ý,Ð_þíàWûþêox Íû;ù7=€‚þwwwó7RÛÈî÷nöVê·Ta ™ý?êÏö¯VÿéGÚËõ.¦ÿßÉ×P”¦¥ú§ø}.àùS£üýû·zÿ»¨þéõ_ÞM×ïm_ñó'07€¿Ó(ÊW5ÿGýëò÷4€‹üy¨Þ¨Ò?óì¿@°~G¸ÎŸµ€ùL¼pQþœþÃ0ÜÍÿ2›¿—ò×@Ô/žÿ³þí ^nðÔ÷ ‚ùãðð©p yÿðŸë‘ÿz ·ý'ò÷0€‘ü±øÊ?5€¨×“Vÿ<zÿ‹ü÷cùõOÉÿ±€‚þßˆ<ê’ËÿeþË¤öê6Ü "Ðà¨ãNÿ‘/ò»¬?×:ÿÁû_äÀÂýÿœþ3âä/íÿÔoÿçäþ¡,ÛÿÏŸÓ ¢ò_àåf }÷Žîÿúúú:ß?p	X<ÿxÿ`ýÂþOÇèÿžÿf ·ùX´ÿ{þ±'€Ÿ÷ùèŸÜÿ5ºÿõs@ãüÓý‡ùøÅýŸºíÿ|ÿz áþ——€Eóßô?­?Ó¿ï@“þgçþ’âë?ßÿ'ÿÕ Fû¼;°©ü#ý§ë÷:jÿ‰üÍ&p™?âò?ÿr /{ eÿ¸ªxçÏUÿ˜ú3ý»~HîÿšÒ¿ònêÞ÷›“_ÿéþ¯ùýk.à6ÿÜgþFæ×¿aÿZ¸k—_ÿ¦ýZå¯ßÿ2ÜG€;îÿèÿšœ¿Æ šæ?@ÿmöÏÉ¯ÿfú?´È¯;è®?ÿUŸéý_²úÇêÿºpÿÜüúo§ÿCõüú¢ÿ]~~ýõ]¬ÿ]Iþôþ×ùñàÛí_V_ÿj€Uúß•æ/ï€ËÉ@ËþåõÓûòô/xhØ¿B}ýwÛ¿Jýòþ‡¸ü<´ê_§~rÿƒžþù€…OÿäÇU§ï§Ü×€„°äéŸó¸Òúçþ=ôÏ½ ´é_)þ»¢þqùÒX¯þãZ ÿÐ}ÿñÀ"ýK—Ó#€”c©V¿Fÿ¹üGè?>€ÖýKVBÿÌÓÿýŸ×é_áqe÷ÍßIÿÌ@Óþ5Vîå?:ÿ1ú‡Ðê ªÕOèŸ÷ä˜þcÏ Múµêg÷×?k Ë~PŽæùÖ?s ë=¬‚þQùÓäK{è_’¿›þ±Èº ¬÷¨¢òç}Ó—£õ ‡þùÔ?4€¸Àz*ùôOÌßOÿ–XïAµÎÄþWØuÿ÷ÛÈ_2€˜À^ú'ç?ZÿÀ Vù6pÑ"òù»êßn ë=¤ˆü×?ðñ¸ýžÎðþ«}öÿºü9øYÀÇ/öØÿçFgõÓò±ÿÙ8åŸÀû‡oìü©¸°Éþ£¨‘¿ÃþIÏ WöÔ?|cù>°—þC•üö|LøPpÀ>úÜôðù?•`ä'‚­'º¾ü_ù#0ùj¶Õÿz £·“ÿLIÿÛkŠ«ïM¿‹þ…¸þ©Ð«Š©ïþWýgžæ_[qÿÚ_6}“£Ç¿Î?3€¨×XvöWú ‘Râÿ÷iè»ÿÔ8œpþfˆlÿ•¾ÇÜö+`ÍþmX¾Ã„ú]Öí¿ð ÂéÑÿýý«äŸì¿Ø FNû.0Ò?pºìÿîü­¼ÓzGïùA¥Žg•œ™œþXØªý£â©ÿ
Xm ±ñÕñ¬Ó?!~Wù#ú/=åû'Å?bÿE'°ì µ}gù£û/7åúg´ï®Ê ÚÀ"ý3Ûw—?±ÿ+hÞ?¿}ù³ú·AÓþEí{ì_2€6h×¿8~‡ùû×ß@«üâ÷˜¿Æ ªN Mÿ*õ»Ì_¥½	Üµè_§~Ÿù« ÎôW¡þP?¥úýæ¯:€Â	ÜÕî_«~Ïù+ dòwÐ?[Í?ôîq¨›_ýµ ù=€æŽâqØ\þá@60€½å7Ëãú¨TßGúv:€ÍäŽiõÔ¨_œ8®m ï1ˆ¿±$- ´~QþÌ»ìÊÚøZ@îák¿û”¿‚ý@ü:v: ñ«Ùã ´¯iw¿¶]@üö3 ñi6€ß¿+¥úµÀï/·¿s!î Õo®ö ~§¸8’ÛUˆ¿ˆªHê–<°õ—³Þ >š‡®ê/¬Ò 2p{9ˆË¿Ê_SÏê §W ÿZªôOZ@à Ô_S•D/ tê¯m±„î\ý-(í5€Ð«¿ t·êoGQÿùïSü-)é?7€ð=ª¿1ùý§0rwêoNvÿ©ŒÝ™ú[”Ùt w¥þ&åõÏù õ7*«ÿí æïHü­JÏÿ.¥=—žŸÞ¨ø                                                                                                                                                                             Ñþ½[û X1¾G¯o ÉÞ>½ä×?£þž'pYß róït7ùõÏÍ¿ÇÜæ×¿ ÿÞÈ¯Qÿ:øõë×°R~ý‹ò—à×É°B~ýû—-à¬~ã„ëë_Þÿ­Zþ†{¸©ßn cùõ¯Ñÿ­ZþFÍ¯•þoÕò7€üÀrýÇóë_«ÿ[­üq¸ûuOòop ãùE×€üËô«ÕÿW|þˆþòor ýïRúOä×½üÊï—Ð_ý ¿ÿ]Bù[¨1€ìþw	ýÕßì rûß%ôW»ÈìŸ¿Ný§)/Õ¿Ò4ï_£þ)¾T@^ÿòü#7y7]¿Ç<[| UNÿºù/¨ßÙ ~âçN`v ÿþý;ò²mOÿ‰ü÷÷÷cùÏÎßÓ ®òç,`n yýÇï¯<ÿý§‘ü§Œåïg ·ùSððððþýGÐòôŸÍ5€Ûþãù{@(ô >Í «ÿøÝÖË1€³üßxê} áü‘øÊÿ±€úO ‹äŸîÿtØþÏIù'ðuÛôþC£þ—ùÏÚÿ©ãüWý_ßMõÀü1ö/Ì_Òÿ©ãþÏ7ù¯p‘¿` ‹žþ7ùÝÿ9®ÿkLÿ‡ª€‰›×Í?Õ.ÿî×ÿ;ÿÕ âq)õ‹úòŸð’~þë??€˜ã¨ŸˆÎ_Ôÿ©Ûüg÷¿Í@ì±Ä¤/ìÎ¯ÿLÿSþ‹<Ä úAOõÿóçÏÏGÖ/ì¿ëÔï;€…óŸ›ÿôàí ôOíóÏÀÊ‡<õ¿üáÀxýÉþ?´èu	¨|Ä“ÿö¿ê?\~°Wÿ¼þçùÏ0ÚÿüÐ6èô?ëÿcª~iÿ§nû?çöÿYÀ°dþÑþÓõÇÞþ‹ù  þZ×¿þ·_¸ÿ\}ý›ô¯¿€»œþóõõoÔ¿înëß¼ë'3ÿXÿØÇì?Ÿ¿æ "ò_ýó?:¿þ)ý_SúW[@ è=¿YùÜhÞÿaÉü×é?_ Êú?l>ÿ÷ ®óëìÿºxÿP~ý÷Òÿa­üúwÑ¿}þûpþ#ôèÿP½~Ü7û+íÿõjºÎŸÓÿu¹þõõ¯ÕX©8~tþÄþ/ÇìŸÿÐ´ÿXûøúõ†£>´ëW£~qÿcœþÛë_©~bÿ£^þ³Þ xmØ¿VýÒþÃAúg_ šô¯¿Vÿîógÿ`Áþy,¥ÿa/ÿù€ý+ÖO{÷ofþ£ô–é_³~Â F?ô«ÿÄ`™þ%¬àò üí/ ÑRµ~IÿÈü‡è?:€êý+çÏï›ÿýŸ×ê_ú¸šŸþôÏý4ÐÆý‹VóÓÿ ýÇP9ÒÏs‰Ò:ÿQú|!@ÓþÃZýò÷Ò¿í`ÛýÃ_ö—ÿ0ýGÐ°•‡•úÇå?Nÿ’g€è£¨?¦Æw}>dÿð zèŸýäßQÿ¦Ørÿ«Ó?1¿þ1ˆ>ˆÚù‡ÆWÿŽú·¼ ¬×?æ;¿”ä?VÿÐ ª~ˆÅû¿ßDþèþ™Ølÿ›äï©î j~ …ûçïªÂ3@â âaÑþ_7É|Ëÿ˜ýxÿåûß¤ _ý“pZÀÇ¯êä_ô€?·Iøl¿®ógàóW{ë¼õÓÁû§¼	ðî”ú›o¯úýåOÀ…
ý« eþû·À°¹@è†ò*è?öa,ñ ¡NþNû×@Ò½·ÿàÍä†ÇñŸV–¿ù§€…o$ÿwþ÷õüTØìþõ?8|ùÏû×ÀPÒ¿ÆæâË•ÿññ±¬ÿÅ†ÂTû2 ñ?WÿºÿÜ%`þÕeÖ¯øÝ¢©“n d¢›¨ê?½€a½T_@Zûÿ¾½÷ŸÀšýk 6ýOù.è?¾€¶‡²ð æÓ_—ïq Áþ#Vî_w 9éûÀHÿÐû›Ë&. ·ücö¿™@ûcYøp5Ïß™ßÙ ¦ú¿/`Q‹÷¿ÿHý—^Àªˆ­¨þ/`µþññ»ÊÑÙ¬Ò?%þû/:Åû'Æ?fÿ'°dÿôöåOÀRX¨Vûîò§õ_fôÏ¯ÿ#hÜ¿ }ù³Ðríú—µï1IÿV#hÓ¿¸}—ùËP-ú×¨ßeþ
ýko zþ*ñû¬_m 'P¹úÝæ¯Ö¿Úäßí ·–¿Rýžó×@ù*öW.@þ½÷/[ÀÖò°¡l¬þ!ò7@ö¶•8ŠÇÍ, Êþêïv þÕçÝ½Û@ÞŠëûXOž­àsùCüí`é/"ñQþ£@ü»€ø›À’¿Øž þ¡ ~;€öÕìr Ú×´»ˆ_Ù® ~»€ø­4Àï/Cà÷.D¤ú-UÀï4g‡ž…ø­Õ@bÿïâc×õ—°ò F/	‘ùWù;ëÍû«¿¬*(]ÀépÔ_A…MàôJÔ_I…doàôòê¯©¼ânŽ@ýµ z;W
ûÇ xÏêoDóïUýí(é??€ð}ª¿)ùýç0r‡êoLvÿéŒÝúÛ“Ùbw¦þeöÀÔ]‰¿Iyýƒ˜¹'õ7*§`ów$þV¥ç¿Àb‡J©ù/°Ì!ÒXZþï,p`,'¶=                                                                                                                                                                             Ù¿kkÖ7€ƒ×7€do_†.ê@fþý.à*¿dæßénòëŸ›¿Î~kä×¿ ÿ[ÅúL P_ÿ’ü…¸®ßxÁüú—õ«›¿á Âùõ/ìÿVµ~Ú î>ÄÝVþFýßêæÀgüØŒä×¿Â ÞªæÀ©~Ô Æòë_£ÿ[Õü¸¨Ñ_þ¶ýßªæŸÀ]bÿÑüú¯2€_e¸Kì/ûþoUóOö—çøU4€»Äþãùõ_g Eýåßý Júß¥õWƒ¨Ûêžäßâ 
ú§þêor Uûßú­ ¿ü	óéLÂ‹õ¯ì°Hÿâüçñ-àZÉ ²û—çßøåÓtþðücc¿\tþ‰“ÿþþ~$ÿù Bõ{À)~Ö–ï_!ÿý§pþÓ Fòw5€«üIxøøßìT:ý³ó_àå¶ÿhþŽp›?4€×ÀK>|ŠÀß¿ÿ†î»Îé_ÿ| /7˜ÈßÍ Bùoðú!œr gýC¨rúå?zÿpþ«¼†úÿäÿXÀô Öè?–ÿßEþÓ ^û?õœÿ9ÿj ÉýÓ0rÐ…§ÿ}Lÿ—Ùü]à9b ?ù/pž¿Õ |Ì5¯þïÿ\«ÿø ¾nžóàÈAW½ú—ô:Dÿ×¨þ£˜9‚Òþc¯7:¿þ3ˆìÿP½ÿØ‹T½úõê8°ÿëTÿ¼¯]´ ¿þ•ú`ö RóŸ÷½M|þ¢þ;@Ýþág€ù£hˆÏ?Ñ8tÿç@þéþÁDFRþüþÁúúWì@ÔÄ×ürßØ“¿´ÿ¾P½` ñGÿ¼ÿÍŸüùóçû?ãóOõïýP¿ÿí jódþÑŒÖ×?©ÿë\ÿë‹õÿsÑÿê›{Žç×¿rÿË,|ú‡0YºÿpäþÏ™ýÏßPûˆ'Þö»î?DÕÿé•_ÿüþ?¨~ÀSoúßôÿ2“_ÿý??-°¶éùô¿ÏìùÀpÐþÓù›,`æþÁþ³õgú÷ý9 ý_cûWÀÜû}2óëß¨åÌ¾Û/Ðÿ>¾ÿËûmû×@Ä;}óNÿ±þ_¯¢ëü9ý_ú×@Ìûü‡¬üúO ¨µDÔ¿¥_ý‡ùï'Ÿþ;ïŸÿÙ¿Í;âè?Oÿ‘þÇÈ¯ÿgÿ£žþYo ¼¦ô_q ú7¼ 4ëŸõ–~õþqùÚÿµYÿ˜OíoÐÿ¸§Ö»€[õ?¯_a ýsú·ÈÎ¯€ìüËõÏÍ¯ýG?õç§ö j÷¯ž¿¸ÿ!Nÿ¸þCÏýsó£é b£zþÜþÑù;é7€ÖýëŸþCÑé‘ÿ(ýGÐ¶…ÇÕúô?VÿÛOî¡øûþÅåï¥î Zö¯ñ°rNÿ”üÇé?ò• ûïü®¯±ùÔ?<€výë<®ÜÓ?2ÿáúg`ËýÃ§ÿÓÑúç ê`ÛýåìÀ¾ûæCtþƒõ½	PñË Wèÿ~“‚üõo9€Íöÿ¸IAþcöOÀ¦û—äï©ö öÛÿã%ù×?g ÃFûÝ$çÝ>=öOÀÕO„Øcÿï›ä?bÿÛ|ürwý7~:tþÄÀõ„ªÝ¿Î šæï­â ®~&\qÿ€¦ùÚÿüÃE|;àUûÏ|Ã÷3ò§_ ®ÔíßðP'‡ýþ‰›ë¸™üÍÝ¿Õ 7’ÿGYÿàÏ„Zu õ³ò÷Øÿññ1å#Áaùù[|øõ B·ÿÃã§Ê(ê_{ Á?—ÿ<Ü¦_UfþÖÿ©ü×ý#0÷Êòòú×z?À(ùoòG âæ|ã§Pÿ¶P?Ôv­Žbd Íf þHÿ™¬Ò¿ÁÄë?½€aµT]@búÿÎ½çŸZ@ÃYt yé{@°ÿèVí_o QéoË÷8€‘þá4=’%/ ÓéGËw8€Ñþ·ïn}(¸ /øGíÿ¾€ï-r,«½ðó»ñÔÿ{‹Yp ·ââ¬ÿÂX¯tý£õßÒ6¿³þQØÌ6ÿýžÀ‚HŽßYþèþËN`‘üí»ËŸÒÉ4ïŸ¿¿þÉXh-ûg·ï0NÿE6Ð¨Iûóçöo?‚úùÛw™¿l -GP¹yü>ó÷o¶šùkÔï3´˜@µþUâ÷Z¿Ú ªo Rþ:õ;Î_¯åÈ¿¿Ôœ€ú»@½È¿ÏT½ä¿¬ú«`áO
’Í¬¾ õ= õWÀšPXmêz êof k,@ül=@ýC@ü2;€øÛÀ‚¿‚ý@ü:v: ñ«Ùã ´¯iw¿²}@ûà÷§ë{ûp{Láß¿‘ä¥m`lê7T{ “±'&0~]¿±ªÈè?²ˆ/ê/ ^ÿ*8˜ø‹ÙÐàtPê/j8úË+@éN‡¢þJ
ûižá¿•c©0€Ä\½°ú«+í=€Ð«¿…ˆZ@ðŽÕßŠ¢þß«úÛQÒn c÷©þ¦´Àèª¿1Ùý§0~wêoOfÿÑLÞ™ú”Ù?òó?.¨¿M9ùC˜½#ñ7*«ÿÕ ¢îHü­JÏ±€e’–’ó/`cc‰ù                                                                                                                                                                             àxþýû·ö!°–ßÖ>†__V¨o ÉÞ¾TŽ¿àÎë@^ýJ¸¬Ÿ½€»w™ùõÏÌ_a·ù3ð?~×ùõÏïÿÖ âNõãúßä7€‚þEËŸ2€óü1ä×¿ Á ÆóG/à²~DÿP~ý‹ú¿µÈ· ù·Ðÿ­Iþù\×Ÿí¬¯qÿœDäŸYÀ]jÿ‘üú—÷k“jòïx ÑùGp—Ú,¿þUú¿5Ê?2 ùw<€¤üÁÔË¯­þoËõ¿Kí/ÿ†ð«Iÿ©{”K(î/ÿžÐäôŸºCõ—ÀÛ:ý'îNýJPÜ¿JþÂ¿€£+@ýÓâÎŠë?Ä¿Ð,5€Û—_§¾ÔÀ6ó¿|š¨ßëž¿-ôPµNþûwáüçäïo ?ñÇðúú:úÂíxéÒ7ü>ê_-à§þÙ ‚ù;ÀeýÀ^?]¿ÜÃ»ìå?ï_”ÿ| /·ÉßÕ nó_à+ÿõ >ò/1€ÐWËÎÿ9€Ñüày®ÿOþË|åÿX@Ö ÖËÑÿþØýƒù/îÊ?5€Öý‡Œü—§ÿOÿ—Ûþù»ÀóÜ ^Kúÿàïß¿7wŸÿ»^þ:ýŸºÎîÿÌsø@~þ¯þYù¯OÿC÷Í@LÿùüÍ@ø¸KòG÷ŸÎßÅ jõhÕìÀ>Óï*¿þUúÇàæîóûÏˆ¿ú÷IïÿÔsþçPþñþãø~‰@þùþ¹,áôï?ºÿs¨ÿëhÿÑg€ÉXúôä/è¿ûTíŸõuËžþ¡üú×é?6€™Ch‘æƒ~ú7é?ò0wËõç/éÿÔqþôþáÌEýüCJþ‰þÃ¡û?'÷`þ0ªçRòë_¯h QGR7ÿ’_ÿŠýˆ=˜zõCýÇóOõïý= õûß õ
âÿùóçû?oòÖ×?©ÿë\ÿë,÷`þœõâóë_·ÿå –Í¾ L\ûõ¯ßÿüAÃZýÏ¿·ûd}ý§Ñÿt	X<ÿYÿÏ3'ÿwÿ›üsŸ |Ôþ¯1ýß?)xaøpŸ×ÿë¥õÏê¿ü Êò´ÿÐ¬ÿâéß´ÿ°wû?l¡ÿ|þ#?ýgýà5¶ÿ*¸úMýWì¿ì 2óùÍ¿¨Ï x`{ý‡!ã¿¯þc§ÿÁû?ö_áŸÉùKúû×Ñ@ÍþG9ý³úïæÛÿ¸—ÿüÀúßg÷ËØþ¯ÑýW€þÅýÇ/ -úG|Uw
ù[õmÑ?ê{z,Ñ?2ý_ â#ò;zÕïŸ{ú£ÿè úè_púë_³ì÷slÞ?:'ý72€Õú‡OÿˆüGé?öy€=ô;ýcò¦ÿÈ ªöþ~¾	rNÿãå½ Ü~%Èþûßœþ	ùÔ¿ä°ñþùùÔäKÁZõ¯ô¸’Oÿ¤ü‡ê@gýÓò÷Ó¿é 6Ü¿,ÿûß|7¸=÷¿IAþƒõÏÀ^ú'çï¨Á öÛ¿4ÿáú‡PíÁïÿq‹’üÇëŸ5€öÿ¼EIþžúç`þKÁ·ùþŸÏ[Ôï*Zÿ”Ûìÿ}“üü}õÏÀû/w×ÿö¶ÉùÙ?y ›ì_#gýSpõC+÷¯3 ùô¿þÁP_¿ØbÿÉï÷[˜¿»þÉ€«Ÿ
¼ãþ9ùûëŸ3€sEù¯û·{¸½•üuþ™ë{#ùöþP˜ÌþP§~¯ýë þ®ésù/ö¿ý± ›º Üü±ü×
û_-`õþç¸ýCùO?Ô@Ò´ÀíÉÿ}¥ýO¶Ðÿs¡ß—??ns¯.½~Ë„©?Ò?b MŽánÙ¨?Ö~Ãþ þxþÙ»@Nûÿ¾ý÷Ÿ^@³ã¸[l™é;]@ ÿÔ¿‡%Ðdñé¯Ê÷¹€`ÿÑ´<’ñT@Lú‘òêÿ¾€›	4>”eyÖ÷:€ÑþŸøÁ2G³À žëÞÿk+Xh —WÿPý×[@£Oÿhý·³€mÄ?^ÿ5'°Hÿ´úGì¿‰·¶¿³üÑýW›@Ëüéñ»ëŸ2€u&ÐªVüîò§õ_eòg¶ï0zÿå7P9~üóg`Ý®Ó¾ÏüÙý÷·Âø}æ/À~FP¿×üÅýw°
ñ{­_i [ž@úç¯5€n Jý®óWÀæ& þÂý·µ ùWÀf þJØÆÔ_o X€ú«àqÿõ”¿³¨è¨¿¬´ õ= ñ= õ½ ñ= õ‹íy âoq Ë-@ü*ö: ñkÙå Ä¯©å ~ÿ»×ßÆopûÚ×Öj c	/Ûo5>ñ[h1€pÜ`ü«[MCüFê Pq"þéfSñª<€ßuœ¡øÕì_i gG§þê vñ—²¥ü”ú‹ªÐ¿Æ ~ŽGýåàÇùþ»9ŠJÈšÀé…Õ_Uþ±€ú«[f áû–
ûÇ½ÿ/Dýh;€Ñ»U;JúO`ü>Õß”üþ˜ºCõ7&¿ÿØ &ïNýíÉíZÀÜ}‰¿E¹ý#>ýëšúÛ”ÙêüÂÄßª¼ü´ßªeú³aêó=‚µ                                                                                                                                                                              Î¯Okëµ/ÀÝ§ª‡ÆÂõsðßv_?k çùcðïSúÑ6ò.ëÇà«¾¤{ûÔ0Ú îÒûŸê@^ýÏŸ2»ôþù 3é¦óÇNá.¹ÿU}ýóû¿-ÓbwÉýoòëŸß¿`)ùGP#¿þùóP£ÿ]rÿ@~ý‹ú¿-‘ÿWÃüú—õÛVÿäüúö[ ÿ¯vùõ/À[óüþòo§ÿÛòù“ßñ3’_ÿýßÚæ;ý'ïSþ­à*iµþ“w*ãþÑ¸MšÓ?­¾ü›@0iyÿé;•3'M¾ü_`æ>Õ_f ‰ZÔæ.üµ «ð5EÖwòoi c]3ú,`þP‹ë?}Jx‰ÈÀHØ¬ü1JëÅ·€JiÛªÿhþûûÛ¿|©ßóž¿þèõõõµâ ¦CWÎ?úÌÿ!Xÿ|×ùûÀwüÐÞë. g KöËÿYÿjgù¿p›¿Ã\Ô¿Àkx Ë Yþû‘üŸæïm ×ù/ð“ÿr ïù?1€¥òÔ¿ì?’ÿ0ýoóŸà5Üÿ+Þ ê—ªÿHþ®Ê6€×à ~ò/4€ºùƒý¯ó¿à©ÿ<—öŸÀè½®™ÿêôÿ@ ÿSÿýGòÿàu¾ÿ¨›¿Fÿ§C÷¿È¿À3@Íü7§ÿ}Æå¿—þÏiý_ƒý£. ÿþý{~Ïëå¯Óÿ©óþÏ	ýcpÝ?e 5óßžþú/Õ?s uó‡OÿôþO}çOê?1€ñþÑH~XIùõ¯Ðÿaöè9€ÆWÿìþ bÿ¨Àõý7ÉŸxúõÞÿy¢Ê N÷v“?f *-¿þUú>LÁšïøíßý jöÀÌ!ÔÏ?¤å×¿Vÿ¼ïP=ÿxÿ`~ý+õ¹ ÌÅ
Ÿô¡^ÿñ Œ â0êæÒòë_­p qGR1ÿ–äÝ¿Ÿ¯Jÿ¤þ¡DL­üáïï6_ÿ‘$ö¿@ÒñT©üöŽ£ùõOêÿ:Óÿf ‹=–?þüùþï„üú×í5€Eóÿ !ÿøGßéŸÜÿr Ëæ^ FÞíÓÿ©óþC‹þçïVê?Dç/xóÿýGð7€¥óŸú/àãË<õö¯Mÿ/[T ÿ·ûˆþ}úo×ÿa3ýï³ú½ð±û‡ß xêÿ°‘þ÷1ýóNÿúç^ 66€±þ÷yý¿^Zÿ±ÀÃ6póÛQù3ßúï¿ÿŽ. ïþûáôoÑ“€ ¢þG8ýgú_ ö0€ˆü÷Ù§ýs/ ½ôÏ?ýÑß€¼þ‘ùÑt ;èŸwùÍþÏ]÷;ý“¿ç@þé‘ÿ0ýÇ>°‡þáoú§µ$IÔ·òNqúÇçï¦Ó@ÊqD}#ÿ¶§Bþõ@åþq?È¡ééŸPÿPýÀòýƒ§lþCõùZÀÝ÷Ï?ûûÉ_0€šýc’O¼ÄÓ?-ÿ!ûg`»ýßo’Ÿÿhýƒ¨ùy€kô/ÈßSÿ–Ølÿ÷[dý»ï¨ýÃ¨Õ?ú9Æ›ÍÿÓ?#ÿû‡0{ØhÿÏ[ä^û{ëßp Ûï?då?dÿŒl³ÿÏmb?×«ïüÑý˜ûbàHñ?É9ZDþ!7gýÛ`‹ý+ä?xÿó¼ÿªjÿZh™¿·þøøUÍüK÷—?¥ÿÍOûüÅ~úW¨ßaÿœ\ü\èŠý› Jþûgà\QÿÅ. W7‘¿Zÿ‘ï	½­þuòwÙ¿É 6Öÿêò7@ü}/òÀÕË¥´àCF[ ÿÕŸÊß| +÷ÿœ÷/ò÷¿úÉà	Z÷¿ú#ù¯<>>>VÀêýO¸þùoë§,`êueåoò! ïÜþ¶úÁüï(îÿ¹€ôƒhÒ?LýÑþqhr[Î?GÉõ$Ðè@6šÿóÅþ{7 ÿü†]Knÿß…¡ÿþsö¬ }§ô_ÀØ†}‹L,ßç ‚ý?˜À°w¹gýáúMàlC¦ÓÏ¶ïo ãùÐ“pö!>~oý§Ðß‚åSê«Ÿ¸ù­øøÇëßãòã²ÏøïØù#ûw:äøîßÝrâw—?m ýl /~‡ùSû÷0Üø=æÏè¿ï	äÇï2æ vº’øæÏî¿·”µï6Ù v³õ›`û(Žßuþ
ý7½õ—À6'P¡~ïùë`sPéljò¯0€ÍL@ýµ°‰¨è¨¿ê Ö^€ük`Í¨è¨è¨¿™¬± ñKì~ êok /@üb{€úÝà÷—ÐŸ‰¿‡Œæ;Å<õg>©¿ž†ˆiÞÀÌ8Ä¯©Õ FŽÄ?»ÝÄ0>ˆ_[“NÕŸ™Å7ñh0€ÛŠYñ¯ûkßHíäÖžì¯~Cuû×ÀéÅo¬æ ê÷	[ÀÏ‰¿”-àç Ô_T…þ?(ØÂÏ«yå8Ó<ÿ’3ÇQ­äÎnzþ²ê¯i±Œ€ú««Ðn ãw®þ4ÀÄ=«¿…ý§0q¯êoHQÿˆÿ¨¿)õ0wêoLAÿ±O˜¢þöôO&þ-–¿ÿÑ·WKõ?- þk¦È2ùÙ0ù9ÁÚG                                                                                                                                                                             Ñ~ý(z5wwwwÕŽ‰Åã—,àîLåd±ø¹8¯o»®Ÿ3€ëü°ãúé¸Ío »Î¾€ù=„òë¿ïü	„»¼þÿþýûWõÑ.ÿÄ î²úÿûVýõîíÃÒùëöÿ©o YõËð«Ö î2úŸç×?/ájõÏÈQß òû¿í²ÿu~ý³û, qÿ„üúçç/¹Té_|ñ×¿¬Ù›mú§å×¿¨ñ¿#G~Ù’7üõ¯Ò¿| Q¿\R}ù·;€Ù„_*¥~8¿þÅý@ø…âãËß®ÿ{™Øøòï{ Å¯[þ`¢eÃþò7î9€é˜òw>€¹œú«_SÁ æz6ÉïäßÊ%`¶h‹þêof ³IëçO;ù_Þ]üÎÓ—’cèOæ f£Vï?–ÿþþþ>ÿrßõ{_Àó‡Ûß}WmóUÊÿ^ÿz§ú§œçïwŸñø¨?¶€ŒÌv­|úÿ›É>€—@ÿ«ü}à¬þõ^Ãxxxxh1€pýüþóùïÇòà&¸Ê>€×`ÿ÷úŸHÀdÚ_uûÿ‹Èÿ3€—ÈþOÝç÷½í?5€±L´­ŸÙÿ_qÿPþÞp›ÿ4€×`ÿŸü5úÕýU9ÿ¿Èü÷cùÑÿ9ºÿk ¥Ì©š?¾8Wæÿ@DÿEP³þuþŒþO½çŸìž¡ÔÌ¯ÿbýßVêŸ”ÿ>=7Ëÿ=€×Ð Š/ õ¾ò;=¿þ•ûO½	x6€¿ÿžÝqËþ‰ù³úw2€:ýcð÷ÝÙ=oçô?pÿç*ý£žþ^ eMóõû×¿þuúÇ íAMç¯Õ¿‹Tê3€¿h{ú÷Üÿy¼h Y€¢/û“—_ÿ²þô@âcJ½úõÿÍÞŸ ªõŸ¸ œîí6Ä ’Sj~ýkôÀÌ!ÔÎ?¤æ×?¾ÿè€˜=ˆºùã?ì;ýæßÇïêŸÐ?ûÃ«æý¤ý+÷» ÄGÅüãŸó¥Ûþ#ˆ;’jù‡ÔüúOà58€‡”ÄKúã_ëuŸÔÿóUéŸÔ?8€ø£©“¤ÿýdÿðé¯bÿÀ ’Ž§Bý‘ïïxŸÓÿ©÷þCíþ·H>¤¼øÞ}ýwZ~ýSÞ |é=€…ÇŸóþC¥üúgô¿À’ùG0ñ¦ŸþYO ÑÖé?Äç¿å?Êå¾p ÓýÏÞ¸pþSÿŸsùƒý?_‡þy€Ÿ/Öëÿ>Ïÿ»Ïíÿtôþá'€ˆÀû –î_˜ÿýÛ<,=€‰þ÷­Nÿ#ô½ <lk ùïsOÿÃôÏ» ¬1€¡Îé—ÿýGð°Á5OÿƒäŸëÿœßé7³òúÇåï¥ÃÀúh˜ÿ(ýÇ>Dÿƒôßñ Zæ?Nÿ‘7úì¸üM/ ýæ?Rÿ‘lþ—?ªþ±úç`_ýòwÔ?w ›{'àµ–ùÖ?<€_ fó_öOÊÈþØôéÞ8lþ¨þ¹XñaµÌßUÿüì¸ÿû-²ë±Þ V|T³ùú§ç?bÿ¬ì FýÎú`ösÁ×3›ÈÏÌþûÀlþ“äüíŸ1€õ”ü‹`îËWÓ0ÿqû'`ûý3ò¸ÿí Þ¹§þòw×?} W?t?ý¯n%fÿŸ|þj/ýkäï°Î .0t…üw‹÷—¿h ŠûßÝU@³ü‡ïŸ0€õ¿¼…üÍtÍû_Þ@þöÖ#ªCõ—‰+’ý+’?]iÿ›Ÿ¼¢êù‡¾=ÖÀ°ªºù‡®=~Iýd€ö¿úõÇò§,`ô•m$ÿi W¿­þTÿ÷§²þßVªŸý¹žÿý÷ßp€üÑv*½ýç†þûG-`Ø©ÄÓþ¢}¯¸éÿ±€ùï¿GÑíå{@ ÿçÆ60ìWú¿ûóÿ,àjÃÎå\ñÚÿlýí¿¿Lôïoãícã«w·Oˆß]ÿÙô6[ÿ9Dÿ®'ÿ¨ý{@rýãöïoñûËŸÒ¿«	dÕï/ê ¿Ëü©ý÷?Üø}æÏÀŽ'¿×üYý÷¹’øÝæÏÀ¾6P¿ßúEýw³Âú=ç/Àæ7P¿ïúU°á¨¿Ð 69âúGÈ_m ›[€ú`SPlfò¯4€M,@ý°þÔ?ô Ô?ôÔßÀ V[€ú@»üþý{ôÏÔßù~šùã±[¨¿éLÆ=¥k<õgÄßô&ââ_Ýtn%ùý]îRÃŒÖûãæÈÅßøbÏì¼þêWÓh ™¡ãú‹_S“´ì/~e›ÀÅÑŠ__ý´ê/~#ÀÙQŠßÐöû‹ßØðspâ/akø90ñS¥ü¼2ñ—Uc gÉ¿äßÏT@ÎÎ^ZýuÔë±€ñÃPMË`êÔ_[þ“˜ºsõ· ¼ÿø¦ïYý(@psw«þv”öùô¾kâoJiÿdêoÍ²ýñcšvfÍþµ_?9–ë±€ú¯œ\Kå'ý&-•Ÿí’ŸÏ¬}                                                                                                                                                                             É~¼–»ÅÒ-àßöZ¾`×ù`§íC˜]Äm}ØqýóÄ\‚ù`ÏùSžFòëßSþ‰Œõ7€žòÿJÎ¯OùÓû/ûÀX§ÞéÿïS›ÇØ³·wkä¯Ùÿ«¾dÕ/YÀ.ÿ§úÛ?wËõËo ™ù3°XÿØüúg÷ÏÀmÎÂü©ïû½Î¯vþü3³Ú‡~nòë_Ð?k áßÍï=€!)¿þ%ýþ%x-;ÿÙæîCþ½ Ê=òë_Ø¿â ê~FÈ-ù[ô_d ­òë¿‹ÔxÕò·êŸ0€Ù–ÍúËßp ±ˆˆ)ÇˆÉÙ¤¿ú[@\Où{@dÑÚýS®ý/ïJïð˜˜]@lÒÕòÄ·€VˆZ·ÿHþûáúçxú0Òë»zˆ­Z3°þ¿¯ú¸Èÿ=€Ïú½Oàù[ xo9ˆíZ±ÿ\þÓ ^BýÏò÷;€ŸúWøÎ5€‡‡‡ÌDv­wùÿ7Ÿÿ~$ÿËMþ^p‘ÿl §üçxø41€·Â°¿jõÿ“ÿ{ 7ý_nòw9€«úsý¿òç ¦ìõm²ûÕ÷‰êÿÔþŸœç?à§ÿÃDÿ±Ì§½­ŸÛ?:ÿxÿÛüÝà9¿ƒ„êç`¼~¸ ÿaû?Oô?ËŸ3€É¶#õ3úÿKÉ?Ö?˜¿³<G÷õ¯8€ÑøýÿµìÿÔ}þèþ“€èÌ[%¿þý—@ÍüåýŸzÏÿ5€ˆþÓ€jhšôò¯Dÿœ$/ bþýŸÙÿ5Ô?þàïù·ëŸž_ÿ’þ±Ï ÿþÍ^@ÊCšË¯Dþ¤þCtÿ‹$, íé?Òÿöƒ?Ý JÿÈÀßÛÝw@F~ýû¹ý#òÒ¯þúöÈïŸôm`[žþQüïn •úÇ} s i(#¿þcˆï=€Ûc¨šæã>ãýƒ—ýõü8`°Ý¯ùÏÈîÿñÚôì?5€Ù£¨W?í£þúÏôâû â0êå2òûÏå×¿bÿš_ñ|õ×?¾ÿëxÿÑÄI­üýï'ú'_þ»ïŸúÀè "¥RþØÏøŽ9ýõOê?2€èƒ©’?êë=*\þûè_ó€‘¤MyýÑ¯õÏŸwù?hÿ©7 ÂH;žÜúþüùþÏÔü¡þóùûïÿœÑ?0€EÆŸwß¿(Ï¯ÿÔà!e ËåÀdþÑÓ_ÿœÀÕ –ÌÿÓHÉŸwú ÿè[€ÑÖé?D½Ûg´ÿqògôŸ{8ÿ`à°VÿóŸí•œ_ÿ²À÷·†ÎÑÿÇ}“Ó¿—þH¿ |,`9“ýÓóë?ûð°Í,xú¤ÿØ3À¶ ³þ#Ï @NþûäOûë­³,ú ²óyùÖØú`Dúé™ÿ@ý÷ñ0Ô9ýcó©ÿ>ž–Í¨þá/Øþ ùêÄü õôÏÄþ9è5ÿÑú‡°ïþWöO©¼þáo´í$þiù»êßr ;9ýë÷•?®Þ V|T³ùú©ùÛGHÊŸT¿·þˆùT•Ìåÿê?dä?fÿ¬¬÷ æò`ÈÊÐþ9XïAÍæÿ–\¿»þ=`þôÿ"|ÿÐ æ¾ h%ó¸ú ÖzHó÷×?a ·xÿå~ú_ÞJþäþ7øøå>ûgåï±É vÕÿâ6ògõ¿üép_¿ØGÿ‹›È_8€»ëŸ—_ÿ}ÀéŸ¨¸ÿØ7]…ü[À°ŠFWÿ¡gmž†U4É?t®É †UÈ¿•ì¯þrV!ÿV0¬¢òÕ8ŽÂl´ÿùŸ‰òøáý¿ê`XE½üÃê§/ ôº¶×ÿârãÿ7¢âB¯lký/þ$£ýg†îó- í³‚/m«ÿåŸ´ïwWý¿ð•a×6ÔÿòÚß¦ïv 7ý¿ùíA67€‘úÑßÔ{¬}§ôÿY@Ü7‰¼µ…þ·qÉŸŽßã ‚ù/'pc.ÿÏ†U„ëû_üùlûCõŸ\@„5?ÿ#üûåñÕ¿x[3Ö>:þáú÷¶@û”øö@_(ªÐþÝ. µ~ù#û÷8äøÇîßÙrêw˜?©7ÈŠßeþä<¶~Ÿù“ûï|¹ñ{ÍŸ5€ÝN@ýJý÷¸üø=ç/Àž6P¿ëú…ØÇŠê÷ž¿°ÿæ7P¿ûúU°Ý¨¿Ô ¶8õÀÖ ÿÒØÒÔ?ôÔ_i ‹,à÷ïß¿§þ\ý0±€Éh78™¿Ñèä_w #ˆí:¹ˆ…¨¿ÉÌt»­¸íì<ÔßÈ n0.\ÿê¶—èÙìâÏëpçÙ‹Ã;õ74€ËÄŸ×±n_übÍ0–/·~ ¿ú[ÀÙò;ÇöW¿Ž6hÞ_üm/ qñkj0€¦ùÅ¯mó8?XñØö ÎTýF6<€ÓAŠßRÍþp:@ñ[Ûà N'þ66€Ó‰¿”:ý«LàôºÄ_TœÖ?æ7î[WÝD-àì¦—/,þ:*öûàÿõ×S­ÿÄfAý•Õ@pów¯þTéóiÝ·Ôß†:H§þfl©í»!ÊFú×¾â-Üÿv ÕïDKæ¿@ƒ×O†ûÿ, Éë&×bùÙ*ù9`í                                                                                                                                                                           €õÝÝ­}¤ûõ®ðuÜ«t\´Iýåê—%¸¨o[õkÖÈK$Ö7€æ¿Jweå7€æ?ÅŽ}jç7€ÝæŸ½,Då×¿§ü¿’óëßS~ý÷­U~ý·búo|ùÓ_ÿ%Íý¥;ý»6÷×þkCýÿ}ªñ°ù4û÷Þ*ú¿þ¿ê@²·O¡?šý›o–¬ÿ|~ÈÊ\ÀÜ_ýxÒâþiïü?Ïo yù˜ûÛŸêY˜?4€Èüúgö¿Y@Rÿé?MÎ}ÿ7»Ê¯vÿ«Ì39‹ûÇ¹Î¯~ÿ·ÜþÁW¾N~ýúOàæ…çkÊ¿·þo9o Œ¿þÖýoóë_Öt —Ž¨)ÿžPÞ?¸€†ùõ/î@àe#{.ùä/å|/ ô¢ÑA]ýw<€ñ/¿‰/*ÿ¾ú?t#%ézù_^^^jÝçq³€¤sºrþÈ7ý^¾UºÛ.å í¢¾Dþûw¡üÐ` ©Oê­ÿá÷Qÿl çõõ†áõCô Þj¿U÷«]ý?õp™ÿg O†Þ=¿Ô¯8€ÔÕÕ¹üÿ›Í?Õÿ³~ïøˆ½€×à FûO/ ñŸõužþ#òßóà”¿ãœêŸà”ÿ| ïùß3€´þUÞþ×ÿ÷ïþ¦ÿËlÿ^p‘ÿ4€`ÿ¯üSx«2€*ÿü«uú÷:@ÿ«üß8ÏÀCÑ âû'¾¡˜Vÿ:ÿhÿ«ü]à9¥ÿCTÿÑ\õû4êõƒý_¢ú? °ÿëMÿˆ¹MÞ þ¥äOèÿÔþ¯”õÏÀMýœþ“õ£û‡òë_6€é´øø—š?¥ÿSÿù£ûWÀHýÔþÿÚö:fÿ×Ûþ3€¨Œý~~ÿŒü÷ñOÿ}õ.ë?7€ðBm'â'öÿW­ÿÍ¿þûÀ*ýÓ¿
¸}~ý³úg u	Hÿeûg mó‡ûß¼ó¿¿Œäÿ@TÿÜÀ'ý÷ß?z ÿþý{} ÛÈ¯Lÿ×`ÿ‡¤þYHx@yùƒý‡‰þ½ Jÿ!¥Æ Rþ‹÷@fÿ¤”—¬ÿÓ¡û‘ý£ßì_á»¾ç½ûçýÕéÕ?öã@áþÓH{<sùÓNÿ÷Nëù™ ÉýSOöé?÷©¿ú Ø?ú3A‚ý+~Ï—¼ücýŸÞˆî?9€ùÃ¨•æs¾&ú'žþúÇ?ÄG­üIŸóWpùï¿ÿØÀHÿ¼/8S'ÿ“?ãò¯ü "¥Jþ„Ïø.ºü¤ÂÀø b¥FþñLäéÿt€þ5/ #H8˜
ù#¿Ü«ôô?Jÿ!¥x I‡SZ?ò«=õè?rxHÀ2ãÏŸŸÿLÎŸ‘ÿ0ýÓ. ,ñ þ¼ûùUrþôgÿcôNï3€ÅòO`üý>‡?ýçû—`X£ÿõw™¬ìÓºÆ[ —X2ÿù .~¸×tþûœüýôÏÀÌàì}ÁÃjý¿&ðþÿ9ùõŸ|˜éÿ°ì#çÿvßâô?Lÿ¼g€‡íôo“ÿ8ýÃÏ [ÀTùKûïf Yù¯ûÇåï©ÈÎsúGæ×[Ó*ÿ±úg^ Ö@êÕ?:ÿÁúït ùŸŽ—¿á V~\Íò³ÿÞvú	ù×?üýÀ¶ý’?©þûg`Í‡5—ÿ¬bþÎú÷9€øü©õ{Ë×?o ë=¨¹üßý“ëµÖ Ö{PsùÏ~Ê_bþ£ößÕ æóÿx:zÿ’Ì}2ÈZ):rýþòG÷ßÑ Úå?rÿŒl»¿ü9¸þÁPÛëß.ÿÁûß`Øâ äo6€›ç€÷_î¥q~ý¯/Ÿ¿:Jÿ¡Sù68 ù›ö?û	±?ÿµ»þò×ÀÉúŸßDþ’þ)Ødù;€ü«`ãýÏn þ’Ø\õÀîOÿá(J°@åÓ8’&Xø1TÍ?Lá%`«ýÏþXýi{@½Ó8’ÇÿY2€mö?ý©øSù+,`õÔ¸úŸ¿¾ÿÎÝçÿ^@úç„|[¹qþa,~Ç8Ïÿ³€ÄÏý±µþçZÔ¾ß\õÿY@Òmc “ùã¤K8~¯¸é¶€ÿ³woYm+‹FÕ†ŒõÂêNò
ãÂ^¤ÿ9ÃÜlI%©ªT%Éª9_ö^Ááï—L—.ú;Ä¿íØ>ÿTÿØög@ _?€ùü¡þIíÏÙ?œbán±Wÿ…ü£þÉñë?9ÁF/Ýi ù{ý»œøíõŸ™À÷/Úe K§ÿu¹ñ›ì?7Ièûj)õÏØ?f éØ~ YùÓâ7Ü?y;÷¯SÿŒù£û'.`ë$çO¯Êü	ý“&°qÿÄüñOš?­ÂÜ?«þIó§à÷Ÿ?/þyó§÷ÝÀNý«Ô?oþÌÄL`»þq§vüSçÏí¿¼]úOÞFý
˜ŸÀýËÇ?{ýµ˜ÛÀAú«_y Ó¨˜ÿááûÿÎæ_S¿ü%05Jù>|ýçt~õ7@Äß	n›ÍÝ¦7â6SùÕßv XûÝuvó«¿ý ~¯8³GõÃ·]ÈõwÀôNë™Ä1W'ÿrZOßvùúðNý=\ÀB·éþ7·]¼:|RÿxHº¬‡o»tqø¤þ0ZÀl¹ÙüŸ7žÆõ¹€¹vKùç‡Ñ§þaÐ[Àt½üúþêuk2G÷Wÿ`¸.à°ù·~xïÀ½`pØêSa µó‹_Ô w¼â~GÊ¿Ë#zo=€Û¿–¢ý‹àæ Å¯è ¸9Bñk+7€R¸98ñ·Pl %p{`âo¥Pÿ«íòoö\áäl ÿêâo­pÿà—†L÷PeÎñÝý½ÃŒì3´cW%EýÝµù7Æ”Ãõ/ÿ–˜w¤þåßŽÑ¿ü!ÚÖý‡¨ðH´iÿÛT¹{2lÙÿBúÃÙ2?‡¤>·¿_                                                                                                                                                                           àüøTéîÿùTéî)S?m±7ÿŠow?vÑ7ï×·€Ãçÿn:W8v/ãúpüüƒ˜z•Äüpwùo3/c9¿þ÷˜qÑù`;v‰üúÕò¾O~ý7±üˆ—È¯ÿA-?æUó»üï+âQ¯š_ÿ}-?ìuóO÷¯û~ó.âq¯›ß_ÿwµüÀÏ5-Pr S·~{Wä'â3ïóIäºõëÀ®ý^œš?p‹ù ÑßÉý—‹Èß?.¢¾då-`ñ¹7"h‰ü1úùõÏëÿw]ÿÐï’_ÿÌþ×ôßûùõ/Õy 7/+ºC~ý³ûß.`¡lQùïªÿÂ ®/Oºq~ýWõÿ›ÕöMl›_ÿŠ¸¾ZRÓjùþåû áÃ¿Å·R§¾üÛàæµ*^ÓK_ýÿüÙáÐî¹ÿÔ ºƒõŸÈÿøøøø}›?Ÿö9Â{ÀÌ× î?€pþKýïþ_õ- w ×tëÌÿQÿk ·ùõïº×××ÈþÃØöouëó?ŽòÀë‡ÈŒþExhßþ¡ü×úÁþà3ÿ` OOSý<€@ý··ÇAÿ?ýŸŸŸŸ»³{yÊ;€§wSXXÀnÏ ÁúýÓºÿ¥þéðQ¿·€×Ð ž0¿€}ú¿Åääÿs›ÿÌ¸Ö¿à5Ôÿ3ÿÓÓdÿ¿G» LÔ\ý'ûßä?í zù¿ðÀSÄ æ°yÿ·Øüý{ùO:€—œþOs°í`:þèêÌ?îÿÜ@þÏ¼†ðu˜Y@Bÿ•™‹yúÿå?ã Âý_CýoòÏ^ ¦}Xy•X¨?:ýÛíÿ’Ûö0¹€¨þkŸ&–êOÿèþÏçÏÿ>€åþyˆ(;¨ŸÜ¹þøôïÿÜfÿ×äþX(;ŠŸ<€ˆüãÓ?îÃý`æE¹ýß²Nÿ„þÏ§Ï_¬Ú ¦ê'õË;ýÃýƒùõ/8€à®èÿ–yú?F?ý7Ò¿+Ói £?Ø¢ÿc\ÿ‰Ëÿ™ð²®ö z?Ì}!~JÿüÓ_ÿ…þ¯eû[®¿Éé¯Nÿøq„Ó?ÔøgÀúþ™^m}úóëõ€§•€_¿Æ‡P0Ñþ]ãý»Èþ	€_ÃC(˜?ï3¿ú¯ø@Ì æûú©Oï²óÿú7—¿Íþ€§Äþi€´wg£Óÿüýž –/ ýçøîäŸþúg÷_@—{H~wró'^þÏ3€¤þ¯ýã¿ íÐ¶wúþ€§œÜ¼½`þr?ô+;ð;ÿôî?7€˜ã(“¿ËÌßìå?±ÿëTÿÙDH‘ü]fþQÿ÷;k»Ú óÛAnÈ??€™ü¡þ3ùõO@ô±ÈßmsúŸ§ò ž’p0këÏõOÈ¿xú7Ü?y ‰Ç³ªþÌ fò§ŸþmôO½ „°õ;´>ÿòéßPÿñ·¦`“wâçÏŸ×ÿHÍ<ý[É?Û?ùXÀïÂÏw×ÿN«<ýçó7Óý 6Ë?3€ôüúß ­ÿ3AÝ.ý¿Ük6ÆÕÿTý‹_ nÐm™¿×ÿk—ÿS>Cý3°¡©þŸ+äo©p OÀ|ÿÄüšË¿Ø?ãC€M0Û)—“¿±þw2€íòŸ«ÔàøÈÈ?¼úw‘ù[ëèÊän0Dÿ¬7þkÀê«tþû‡p¤Àúü]|þ³õ½ ÜÛ ò§Ôo²ÿ`¡þmÿ¤úmö¿¿,åï2ëŸ.\ÿ¼8ÿgÿ.5ÿùúŸr ‹ù/ý»ôúíö¿«,Ÿþ_äíÀì—ƒ³ÿºü-÷¿ŸÔËÆþñ,`i »¼CòWê?@wÄÈ¿Ù .ÿy´þ‘§z~ýÇ¿ê€¿bÿÁ%àãÕ?îô—Ý >Ðo òo3€ž;è{ù×ô9rÿ˜Ó_ýó@þ£àîûw-xY»€cô—¯ã°Ü_ý­°å;Q8×’•8Â`ñôW¿à 8nÿëÔŸUg Û¹Ó¿kÓªKÀî€Rù»†ÕÀ}õïZôû÷ïß_ÿÿnP ÿð.ÿïKwöúïV.`ßþk?ø›lö	|ç¿¹$YÐ»ãõ¿¾8í¢?ŒâÜæÏ›À!úÇ´?ñ †ýoô‚ïÖÿæå+Nüs`Ü¿¿€‘ýwÀRþPÿ¤öMõN`þWF~9PÿÞVÇo¬ÿÄ‚èö¿ ,åï 'þIûOçŸœÀh½îÒñô¿@fü&ûONàvƒ—ì1€ˆüÏîÅ×?gÿåLNàcã?Ý¾dþUñî?7Í—?±þ9óGöO›À=ôO­Òüñý°{ÿâñõOšÀ¶ýSóçÔ?kþÔDN`×þåãŸ8rÿ¸	l9€„þê@Ä*÷øðþÿcógÆ?yþÌþKö¿6+RÿóÎâò«_| ³ô¿=i‹ÔïŸ]ÿüùW`f£þýjKe'o7ºÉbþüø-Ô_Ùz§ÿdÿaýðMÇ/_È¯~ý„'0uú‡Ì?ºmà¥³ùÕßh ¡	LöˆÏß¿mè¥3ùÕ?Æ.ÿwþº>ÿö¶ÁNæWë&ðýwÿüþß7žxY8¿ú»`ò/“'uè¥ÁÛN½Lþ;XÀäI~iè¶“/*š¿k×ïŠ˜<«'^:¾íÜ4Ôßy Ì¦[ê?¿Œ!õ¸€¹vEû«ÄÌÄ;Dþ-ÛÆÐ[ÀL¾¢ýÕ_mÃ¬5<tõ5€›6ÿÆn³¨ß_ýrîa ƒC¿¨ã w¸âwðôŽUýŽ<€ÞŠ_ËQÐ;Hõ+*:€Rè¡ø•n ½£Åú_”¬ßòðÙVÁÜÆŽ™¿îÓ
mðdïõ·V¼Ì7MÅð¹ô#Q/¥ûgQOû@ü½µ…7Æ„Ãõ¯ð–˜u þÞöèßÎoê¹Û÷ï Ê[ ÉÆýù=mweËü“üÍ“ŸËö>                                                                                                                                                                           €?>ì}ìY?u	·ÿç[Þ²Iý„$¼Â5¾=ì^aßŽ?f 	¯0®o ÇÎ¿<€„Wæ7€c÷Ÿ@Êí'òë¿‘¥‡:œÿ3h¨ðÜíÃoß vñhÿ(eùôßXÌã­ÿYE=àµóë¿›˜G¼X~OÿGõ˜×®¯ÿ^¢ôÙ Eòë¿“˜G}¡gú>ý³—˜Ón©gú>ý{ÜþËA×ÇŸ8”âï.‘ýoúˆ¢êÇþMôâí"ó&*ÿõ±JZ þèpfë@yýGwS&ÿõˆ¦_üUß ¶¹ D6-–ÁM~Hö÷o‰þÁ»Þ!¿þiþ¾Këßtûüúgä, ½ÿäý×Ï¯‘þqHºu~ý3ûÿîŸxNo›ÿ£ÿãcñ7túþ+õ¿¹}W?ÿ{ÿÇGHï³€¢ý¿^¥ÆñOæ×Í ÒúïwôÁÓÿ=¿þ9ý°Õ‡ôòõÿs±ÛÞ]ÿùÜCÿÇÛþïõ- Ð ºƒõÏo ÑýgÐk sùùàõbÕ ºcõç»ææo} ïùûxzzz
õŸøkàõÑ>ÿã(Ûý?óßà’b ôîí XÈ¯8ÿÍ >ú?ûþIxhçê¿½=Î÷ÿÀóósw~/Áþ¯ýüOOÁþ‹Øµ0ïôçïÿü©;ý›¼ÎõŸÀß£à-"ÿDÿ¯ü§Àwýï¼°ÜaûôÇ^ýC—ÿ?·ùO¼€—Ôþ3ø{°ÀdýÑé¿Üÿ¹üŸXèÿ4ÝnÛöŸN8ýC—ÿ?ƒüÏ-äçÿÀSÜàXh?>ý£ú?7ÿ} ëúO/`›þËñÇ§ðÃ¿aþ3 ¯ÿÒ þ®þ {$QõG§dÿçóç/Ób‘ýW\%2óë?×ÿuÔ?s 1€UMˆË?ºúG÷>}þbýƒXj;ˆŸ:€·ÜÓ?Ð¿k´ÿKTÿ"˜{YNÿ·ìÓ?ºÿsý»BýSŽŸÔÿmÅéßdÿ—5ý`²}þ¡Ó?ô¯¿úÏô» ,°h‹Ó?þòªD÷õÏ@Ú¶8ýõOïŸøP:ÿŠþý»¦ûwQýW n›œþúgô_{ˆÀ6§ÿ¨×pÿ—ØþÙüV0ög~Oÿ6úêŸöI _¿~ýA¹ü›õ?Ñ ÖöOû$à%Ú ’Þ™ùS.ÿô‰î3€AÿÁ ŠåïVäõn»õ@Ì3À|ÿr?ôq«Ó¿Íþ“€Å\ß\°±úXöôoºøð”÷Ð-\ JýÐÇüüæOêÿ:Õ?áKÁ‚ùKýÐÇåþSù[=ý§û'] æÐ{ƒáþe¾A<;ÿ°ÿ|~ýÓu ò/ +sú·Ñ?8€‰þ³ÄÊúü]fþÄÓ¿áþ9ˆ?˜µù»2ù[ê_êû¡«êÏ`:ÚÿM÷ÏÀ¶ïNNþ¤Oý5Ô?í0µ€mß2ùÛ9ýgûÿ q õßƒŸßÿU?Cý˜ëÀFùoÐ%ÕOòo­Ò FØ*ÿÏ¹_ï0—?ùÉ¿©þ+°Áñÿ ‹®Ÿ“ÿ\ý#0ü`¶ÿíç·Ìÿsêw{Ê¿ªú žÂ¿!nãþ_Šço­êÇ€ŸèÑÿ±|þû§`Ã¬Éßåä?[ÿ;À\ÿ¤ü‘õì¾DþBý=€))ù£ë·Û?y ;/`¡þð7½Äæo²ÿ= >Jýö?ç –òwyõO˜?ªø‡·ÿbþëoùK©ßnÿ;ÀbþoiùÛíú¹ð‡@tþÄúgÌ=€—û@­üm÷¿›È_§ÿx ß|ý“óŸ´ÿÙ µþ£\þënú÷n%VÿÁ ºã îô—Õ ú¿ø>úßÞHþµ¸Làûõ4€¨Ó_þýoMì—;èsùÏ;€ý»ó[;€£ô—“þãÜOõO<€Òù»f¬À!ú/ŸþêÀËñP´×šjØì=(˜¿kÐºKÀþýOõO=€Rù»v­YÀIúwm»ß”È¿É\…lrÜ«?øÝéÿ½ëNï÷ïß¿¯ÿ•¹€]û¯<ý'ÛêÎ^ÿÃ÷ÝÝ VœþKíÏ>€kþÜ«Àþý³óGÅ?÷ zý{Hú¡]×?¶ý©0Ì?XÀ»µ¨þN,äõOiæú‡&°øã‚ßíÔ)ÿ¸jüÖú‡0ÿK#÷¼ ,åôÏˆß^ÿ©Ìößç°xú÷Wÿ¬ýçòG_º}°œÿk]nüÓö_ÀÄn7ÐûóƒôzÅ„úgÍÑjŸþáLÿ‡‡ÝNÿ•õÛî?3±éÀÃ»bGþugYùÓâŸ7lÿ„	,ô/³€›»ÊÈŸZÿ¼ùúGO`¢ÿWþèÝUjþäøú'N`©ÿÌb2¸£¤þ9ñÏœ?} 1XìÜ{ñÌNF7HÈ¯~‰þËõŸO¬?¾aà¥ñùóêŸ<æ 6Ñÿ!®þõ¶/‰í¯~éÌM ¢ÿC|þ¹eDåÏŒßDþýgÐÿ¡dÿÐ±¨_o “XîÿP¡à@Ô¯=€ðŽÑ_ýMšÀ6ý{‚úÛ`<é¿þ—@¯ÿàí«¿ó6î_¨~“ù`8ïüôï½aõ÷ÀÄßfú¯ÀõÀ½·¦þÑP»ï©¿ï ˜ª·¾×zæßànwuú‡Þõ1€áfúí¯þ10ð¡dõ×Ûr «Œ]ýã.`ƒþêx Õó«ì.ÿÆé9ú ‡+~q‡ÀàXÕ¯á¸è§øÕ”@©ôQüšŽ7€Áª_[Áþ_èýÇ mRýøü›<TgUr }¡¸Ó“½ºø[©5€à7OåCuú¯ùñêo¬Ò 2‰¿‡Býÿ{·êHÔßI|ä_5 ñ÷T¨ÿŠ¨¿³5¨ØÝ;E’Õýó þ1¬{Xñ†Å?ŠŒþ_XñVÕ?’ÄüEˆ(›÷ÿX@½{'Ù¶ù9"ùQ                                                                                                                                                                         €»÷ãÇÞGÀn~|Ùû@Ø³~Íüó©Ú @þ„¤¼ÂW|8zþØ¤¼Æ ¾9Ü R^eœß œ?¦Ê+…òÀqó/ é•Âù`sNÿàëL½ÚT~ý+‹z¬BÎ¿Êäëé¿‹¸G;¡ãLöÙ×Ô‘wTÅ¸òúHäãS1¥~h úï î¯_ÿ#ˆ|È·È¯ÿâò˜„+Â/L¥w™S®÷ G…\Ù~úhj¼ß,õ¿yØãZ®l?}8¥ßgŠôÞÕÊôSÇSì]%­ÿ÷#›tuüÐ•x'YÓ?:j‰úƒcš¼ÍÛÛ[ú“ÔÿóÑ¯Z&„·Uî»-ËýNêòÖ7€ÝúOÝÛÆù¿ðøøXã-5`±Ú5}ãüŸý/j¼­Æûÿ“þœ¾ÙsÿÍ ÞóëŸ'£ÿìým›ÿí;¿þqþþMêŸxú_Ô¬?Ì¯¢¿·Pøô¯l˜ÿí;¿þÑùû¸ëþ×Ó_ÿ”þ7(}ùßéô×?©Ô ú¿óÿùógÏã»£þï°ÿÒéÿçÓŽ‡xPOãþË8ÚÓÿÛÌéÿx“ß †žžžžFý¯¸×þýÓÿš¿ù¼^ôóàoÂ Þ_r þ§ÿmþÆû¿ç¿ÀSÎ >^pœÀlþaÿ¦ð™ÿ:€§ë þÆàëGéÿ¶Ð¿Ÿ¿åþßù¿ðÕÿiÜê£ÀëÝ£ÿR~ýCý_ýŸÆýÃŸ	¸½¿# ÿíq®ÿ× žŸ»†óû‡0ø¡±Ýð¶pú.ÿýŸ?uçöò.ØÿuÐ?xH@·ýþéîÿ•ÿÜø¨]@NÿÅì8€pýþéìÍâ\ëÇõŸÀÂöÀDûQþÅþÏäÿÀkvÿÙlý!ÀtùÀÕ?Ø¿—ÿ¬xà50€ÛþO3ýç°Qÿ¥îáÓ?¢ÿsù£úÏ] æ&°Å "ëgœþ§ÀKþS¨ÿ]?çô×?ê	`z)ý³ŸxúÇõ>}þÐ Æý—/ áÄ óñ–úë?xJ¿ ñ= uòNÿqÿÁßþÎ9€Üþ]­Ä-¤üéßfÿ—Úý—ðcîeIýWþú'õÏÀTþýå?Ù 6èq(ÓÝé¯ÿü_ †ýóŸ°Ñéÿwùo³ÿëšþÜºÔé¯ÿlÿ€2?è³ìéÝÿ¹Íþe/ »õåöŸÎþþ‘ ¬» \”Ì¿¶ôéßdÿòO ï
æïŠžþÍ÷ï"úg|ð×¯_½·_.·*Âå¿þ/±ý#ðýæ~]ô Xþ•ýãOÿFúð”èå@Ú»Røô×?âøïÀ¿’ø®¬ÉŸrùo¡` ýcp}s¡þ)¿n}ÿpþÁåÿrwúÇ<D`¡¡Ÿ´&«—ÿÉþÑ€˜Ü¼½pÿ2ß!žõoöôOé?qXþ [î_äûCóó§œþô] Âý¿<˜´€œ÷%;ÒéßJÿÐç ²{(kó/`2ÊÿMõ¼ Ì áhVÕ_êŸ_ÿ´ÀÜ ¶|o¶È®þõ°é{“‘?å3¿çË¿Ô?ö`rÕßŸ?þ¼þWzþ´'ÿ¦ú§\ r*HúË˜®Ÿœ¿©þë°Mþ…”ÌßVÿÀ ¦ûÐmß¿K¨Ÿ‘¿½þIè/`³ü½~¹›üe0óÐ_@ýcŸèÿ5Ëÿ™«Ÿ‘¿¹þÉøú)ñ[˜Ìÿå±tþöúßÇ Jä¨ßbÿôl·€bùãNþ3ö» $`ã$×ÿª‡çVóG^ ;€)	ù£OþFûg`ç,Ô¿éŸP¿Õþw8€¥ü]Ný3æêwXÌÿÞ¿K«ÎþgÀrþOIõÏ™?®èƒO|Eðþ¨”¿éþK@wÔTÊßxÿ»€üm .jýÓæï?Z@wÄÄþòçà{ïÿq7ýWå×ÿv ½ß|¬È_w ß¿$îªþÝ©½ÔÀ	òwgwžÄô—å Æ¸§þò¯îÿrÔþåówmxY¹€ƒ`¹¿ú›`Ã÷¢lþ®%/+p„=ý»Æ¼¬[À‘ûß@ý=p˜þê—ÀË!. Q—õ—T@å£~xø@™Ó¿kÙšìÕÿ!²¿ú•°0€ÏJUò?É_ãðîOö –û?ÔÊ_ ùC»_Uð}.ê;ÿäwýÿÿ¾tç÷ûâæ¿Ë _jËÓÿóv©ñ¿Ó·±€ßW×?L@Dÿ‡ƒõ‰úÜäï_º‚¨Ø1üoóµ?ý úý¸Xýpíÿ°åéÿ}Ã¸ú“ñÏ=€QþÀ¢~VÔìà¡Â ¾ïñ1µbüæú'Ð¹ ”Àõòû'Ço±xs¿5ì"¢©ÜÜÝBþ~ÿŒøöŸ˜@hß/[~(4€‡øÓÿf]^ýfûÇN ©ÿäbn3ºéòé?)6~Óý§&p»›?êŠÛ¿ÁÂz·ÉÌŸPÿÄùcúONà}ƒ?™À|ÚPü™ô^žwú§Ô×nCqýoÊÎÄ.`ðÒŒüiñO?¾ì¢û'¸ÞûøE©ùSãŸ;Rÿ¸	Tè?7´üéõÏ?y 8lÿŒø§ÏŸÞyTëŸ?«þéóç`a^ bó«_x ³8Zÿ¼úmäÏî?3ÍúžþCG£~µLM`¯þCQ¿î ÂØ§ÿø8Ôß` ¡ôóïÔ_ýÍ0žÀöý‹Äo°~¡'°uÿþ[—÷\ó×ÀmÿÞ›V§ðþÿêä¿ùçÿÛ7«þŽÿ… vÿÛ·¥þP·ÿÍRÿ¨“ÿc ·oGýf:~õº€Ãæßæa½#•°AõË¸‡[ý£ ·€Ãåßîñ¼?Àø€Õ/ìÐ­úåw £C¿ŠÊ~KGú÷%æßðñ;Âÿ,ˆPÚzù«?^çS¶ÿX¨íô w ~muúù0S­ÔßBÕ¬ù‘âo¥pÿÿÞ­=(ñ·Tp ùW/@ü­•ÀwþuPëûßæŸÀÿ.&_*þN¶êÿžz êïhÅ þ‹ÀgþÉˆ¿¯Ú€¬þ%ßA–¬ÉwHõþ°ðü?@¡÷‡d©ýo0w¿³õûXÿN°FZÿï¬|«ÚIB~ÎI~ú#Øû`Ø‡ø                                                                                                                                                                          ÜµŸö>ö¬o]ëù«àŸ[•ÞëóÇ åzõ-àÈù#û§¼Ò¨¾7Ü ¯6ùŠ¡üp	—^mê•ÃùàRNã¥W›zuý÷÷8çõŸÍ?|ý©üúWùHÇ^Âc^+¹¿TûPgõ_Ê?¸ý7û`G¿7Öÿp¢íèü	íõß[ôÃ]+dÿŠAÓbð˜xs7Œìïï‹½àVË¯ÿ1ó÷òzù‡w"ÿûÇæŸûÑõæïEþƒô¿>ê±õC·¿Ý¹È°þñùþ}xîò¢ÿ×Ÿ?å_úço!þaú§äOúJ›	Öz||,tOmùgy Iù7¯wàoßÿõxQïWÝþuë_ðžß ªôOÌŸö•ž+óà3¿þõ_ºÓíò@ÿcõ¯ìmÐÿ+¿dXêðü½þ;ØQ==Í¼PÿÓ{šÀÝõïçsù_òt1ýâùþÉýoœ_ÿ¸þOåúwGí¿ï¼ÿ÷ þ^Ümÿa~ýcû?Ýäï-à®žþÇý{—ÿ?ïv=Â;é5€Ãõ_8ý?ò@÷úú:êÿÔË3€™üëÿ6úåo} ¯†ýŸúý—pyÙ}öoz Ÿù¿0Ùÿº€éü‡êŸ¿åþßùCø?€Ïg o	ý@Jÿ™ç€ï—¸ÿMþÇ~~ý¯¸öõŸükÀÍd ó§¿þüãþã?Ô¿ËC`!°ÿó‡®%Éýo0aÿê¿½õòúæ?û^>„ú¿úž ¢°ó ‚õgOÿ?½ü§Àgþ¯äô_žÀž×ïŸþþ·ùÏ;€ïú_˜ï?=€…lÖÿýÌîý×[Äé¿Øÿ¬(×a›`&÷üéßjÿÛüx ¡ÿÌ6xH©?8ýÇýùÏ9€—äþOKý'7P} Iù§Dÿ3 £ÿâ`j?*àmÍéßfÿAþ÷,õº 'ú]À5óOÿñ§ž@VÿÈÀxþÁÆYˆ·u§ÿãòé¾þ/qýóž "0jœ÷ñ¶òôêÿÜ`ÿ5O ÃûßvÎÿaíésùo é'€Ø,cÑÚÓ_ÿJý×`«Ó_ÿ„þ`«ÓÐ¿k¢ÿËýû®¬=ýþMä?Ù ^b0ì¿â#€‹æ×¿^ÿØ¬Üå_ÿ2€ØD¿'«OýçP¾Ôº:ý—.ÿÓùí¿r á·^0·ÕéßHÿ®Vÿ_½·_,·2ÿèôo¹Ü@Î¿ýº¸=€RùSú?®9ý[éßEô@×ëy	H{OÖåï÷ïZï_ú0è7€´÷dÝÕümô_wˆÀ°Ì Rß“5ù[½üÏ^ Ê ›ï_æGDÍß|ÿ—ÈþQ¸y{áþ%¾04®0üÿMõ/uè½Ápÿ¥_è#?üÕ¿þ‘€˜ôßb8ÿÂïsŠQ.¿þ%0kêÇô\ú·Õ0€`ÿÅ6{_²>ôKÌßPÿØÀÂ%`ÃwFþ¢ý‹ îáÿ|÷ýŸÕóŸ®õl?f õ#¿èSÿù¦°IþÅt¥ò7Ö?þ01€nëþ]Rýäü­õOÀìO†«›ÿgäo÷˜Íßµ˜©Ò †èvéß[Àtýœü'ìqHÀí'êúTÿ‹Áïõ‹È¿\¿Åþ©˜ûEa¥Íäÿ0Wø³¾cò·Ø?ò«wY@¹üÏ­æ_îŸ>€\?öäoµà‡Â-`Ëg¼ü]zýsö¯4€½°Pÿ³—Rÿœùcúßß ó‰¯ßrÿÀ^ÀÓñó§Ô?iþ3 Jþ¶ûŸ.ÿyÌDæO«Úü±ýG—€£ N~ý‡—€î ¿î ú¿òpˆ;ýåÏéÿøí°wÓÿöFògà{WÇ€üuû'à€ýåßp ¿+òWÀËqúË¿¶Ú 6}Gäßd £,õ¸8BõËà%éðž¿Ú®÷½xùWûÜô¯1€Ûû.š¿kËËºÄõ/¾€þ=/ôW¿ì ^2ú—ÀàŽ‹þ]‹^V-`n •0¸ßR§×¨U8nÿÏ«¶<¤ôW¿ò¢ûÀà^ç/ÿêï6€Mú¯?ýKÖËÀÖO )—ñS”@@Üåÿã¶ê'*<€êý§Nÿ›¦Çÿ¿«®¿?ÝüQú bû—@‘Ó¡}+øÊ?˜@ê‡núÓÿã–«â·°€ÛüÃ	¤|“`·á æòÿyÓØúáöö- òG…ì×ÿ1±JüÓ`œ?c]‰$¬$¢ÿ×M—ëÏÇo³p]æ †ýCm‡7™Ý@Âé?ìŸ^¿Õþá	t%ú?DÕŸœÀà³ù{È‰ßrÿè	|½$o ÓõÃè¿|!ÿ÷ ºÌúm÷Ÿ˜À`ßÛÿ&ë|ýñ †/]ì_ÿ‰ÜLàæ£û§¸}«£—eåO¨îüQý''0¾ ¬ìÀøùSâŸ=lÿè	T¹ Ìì"µZüÓçO@Üöï_°þùó'õšÀÞýËÅo!jÿˆ	Tù `BüéŸQ¿…ü9X˜À–€Øü9õÛÈŸ7€Ù	l×|ùúåûÏMàXý³ê·“Å &'°[ÿñ¡¨_u öï¶é?:õ7@h›ô~éO™úíå_?€ñöï¯þ¶L ß¿Ê æò«¿Ã ¦P§ÿàô¿}Óêïµ€Û	Üä¯1€~ÿ›·«þž-àãÿVÈÛÿæª \UèÀÍÛQÿ (Ÿÿ»ÿõ¨ŒP>ÿWÿëÛPÿÀ(ßÿ} 7oAýî` áWÿØHëZ?ÅGðÞí2€áA¤õWÿÞ8Œjù«<h§²Á ú2qQùÕ¯ î F4y¥ó—{„N¯ü >rŽþ`þ›þ^ûW?$)ß?`©ÿç&^ ~U[`õ««1€ÿ>¬?8ñ·P¸ÿgý+p“aÿ»˜y¹ú›*Ó¿Ÿf ïõg þÖ
 ¶ÿwþéˆ¿ƒÒýÿ[Ì?Õ_ý½¬@Fÿ‰ˆ¿£Ãö/þž2¥Ì@öõ?0€²ï‹ªõÏøø¯è;F¬Ôþ‘Ÿ XÎßÞ/ì8ª´þ±Ÿ\ª¡ýQìô/ G|~NK~>G°÷Q                                                                                                                                                                           äùñeïaÏúµðÏEÕ·ÀºüÕðOO¥7ÂÚú)Hx…~}8pþØ^qòÕÇùàÎûOæ¼~(¿Bä	õzSwÎo uE=À±ð¨×›¸‡©üúWý(ëFñsfÿ…üý»˜ìo U$<Ð•Nýw”òPë>	un~ý+åÁNÈß™þ‡•ðhÇç½8¥¿¿ÿ"ÿøñNÏ}	ˆ:¨òï=sýÿÉÌì?¿€˜ƒ*þ¾“Ò?+è&ËýýÐ1úß>äÑõ£¾<dñ¾ä?Vÿ„ü]êÂ7”ÿþÿääüêÀå»Sÿ(ýÓòG~uhüýÅx¼X}/Íù'f ‰ù¿_!îVEú¿ç7€ú/ßoê?–Éo OO+û'ŸþÑVÝãÛÅçÿ×ÒÓEvÿË ªåOú’àPý¯|ç×?˜Uÿz§ÿÅÊüÐ¡ÿÓaûç¹æ€þKýŸNÕÿ6¿þkú/ xôüúGõ:qÿk~ýèßÏ¯\ÿ¼t÷ÕïC;žóõä×ÞRÿ¥/Ñÿd€¿77˜Ï¸þÃüoò½¾¾¾NôÏ;€ãõ[èÿç¢kÛ¥þ÷ žúøÌß[À\þÃ÷ï_þßó·>€×ÛLö_ÀÇÕ?êôo| _ùGô_ÀÇËuXèÿ•_ÿ©Àßø|½ì@ýgóßöox ×ü˜é?7€›{<Ì Þú_óëêÿ4ì?ù÷€þ]e ñ§ÿgÿçw]SÒúßàkãû<Æ ÞRûäol‰ýû˜r„ò¿=ÎõÿÎö¼¼¼¼û¿ú?úÇ-`÷„ê÷NÿÞÓÿŸ~þSàRÿféý£&°Í_¿ºNüùÜé?ßÿùôù¿Õ?b`pr‡þpúôöïç?í ^ý_gûÏ`a?j`&´þùC¸üAJÿ¹%TÀÚüKýŸ[ìŸò°´@ÿ‚HÏßö~úg”ÿ”èåÿÀº'€¹$ }«Oý+ôï- Ø?”9ãêPöôo¥ÿKzÿ§¿Å0ÈœóôðVöô÷>}ÿ—ˆþ]…Lþ¤¿íNýƒý_×÷@ìsC­Óùé¿‘þÝBÿä'€ÞuPàôo±ÿ(ð	à©ä q ‘ïHÓÿqùòºìÑ?m ÛåüãŸþ0x³wÐÿ¹Õþ\ ù~Èuù×¿ÀG€ïŠæï¶ºü·Ð?0€§ÒO ‘ˆ~?
œþúoÛ?fÕúçæo¥ÿðß€W øÖ‹åï¶:ý›è_ãðýýº}û…òw¥ó7ß¿[èŸû¯À¿.n LþÄþÙ§ýc. y_òž?îô~ÎßzÿÑ Vöïýÿ² uWÿVOÿèþ+0ß¿Ä×ÍßNÿ5€¬¯öøu>KÖå=ý›ê_n Ëý#~™Ë‚ù£¯þõ?<e ÷Ãù×þ(ÿØþ1ùõ~ˆ@ÂÑ¬ùrð"ùNÿ–úÀFïIvþø«Ûý3P÷ø^ÿ¯üeû/ 9¨yð??|ýgFý´ü'ìŸ6€§ôÔÏ7€ù[ë9€5ß^"ÿõ9`ºþÄµ?-óý“ÐmÛ¿K<ùó7×?z è¶î¿ø#žäOê?€Ðºú»ÃdýþOû\¬ßdÿ¨/šX@å#ŸÈ?øÝ~åòŸ²ÉÜþxÐŽ|²ÿÕDýÏŸóõ)ß“ç_ìŸ4€Ù_\Üºúý»èü­öÿP˜Ùlº€.£þè—|ÄÕo·ÿh ã	pÀ	Äæn;ü ?þØ(^¿éþØw‘ùêŸ6Tÿá†íŽ=€
ùï?¼tG^@\þ¤úçÍŸ8€Ï	tÀcTÿ´üúßþ„ø«#@þãà ùëŸ;|ÿÐŽ6 ù5€#ö—?¿ÿá åŒ°ÜÿáÝ1NùWö/`©ÿGþz¸¹où6€Ûü50¸ï¥þòÀKÊ nû^ÀðžçïÚñ²j	ý.`|ÇýÕß~ ãL…ºÛ‚ù»Ö¼¬Z@RÿÙü{5w³‡äþò—ÀKÔà!e 7õç'ÐÿãÔßg Iý‡ù'¼ÓB§×ª—H{xˆÍ?5€„þ¯ þnØ¨ÿìå_ýjx9Jÿ™Ë¿ú±Ê åo kžÿ×žþuÏû“;€¤ÀÚÿÓ.ÿâ')<€ÄOD} ìé_ü¼{eÔ?Jlÿ÷çÄÿ¿‹®eéØ³æÕºý—®¿¿ôþ´Þ Vn‘Ó±};øÎ?š@ìÞoº[ÿ‰þÞo_?¿ôò&ûâ. QóXúGÇo³Î.·YÕ|£©!Äõÿ¸íÊøM Ô?4¥95€ˆ Cñ£—2súû'Æo ÿDþÄ	tk0?°€”ÓØ?9~ÛýƒèŠôˆ¬¿|­˜Ëß@—S¿õþÁ&Ð%à!®þâµb¾ÿ÷ òâŸ?ÿbÿ¨	|ÿqBÿ×7;~Ù|þ	±õè3€ð®è*÷Ÿ¹X„«S¡ø-äë?±€±Z˜Fbÿ”øúgL`ãþiùë·?¡Ü6íŸrú§Æo#â "&°å B¿Ð»TýFò§ö_ÜÀ†ý£ó«_v ³ôïvíŸQ¿¡ü™˜™ÀŽýÕo*nÿé	l4€˜üêWÀÄŽÒ_ýšÀ¨…Œ¿ð§Dýó¯Àx{ôïúÛ`0aÿnÛüêï±€Û	ûÀègþÜ¾/êï5€›ûw[õWÿhøøÏÂùûý¯oUýp@¿Ä ®‡q»bù·{€Û\À÷½G¶_¼õÇËCùÕ_«ð zRêÏÝüãÅEòWzïYÅ$åŸ¼ùçKK\ûk<~woûLÉì×ç/þÈEµ$öŸýæ‘µù‹?jg²å f$úÖê—Ui 7Ac$j+êWi 9Êæ/tPçw˜þKÔ¯ä> ~=µðß‡‡¨~]úÖ/2ñë+<€Ûü³øß»ùcû÷óOà£þÂÔßL©ûÿ·”n âo©DÿQþð nóO@üÍ­@Vÿ©¨¿‡;è_ü}¦¯ä@éþ¥ßW‚Ð?0€Âï$³ªý .ÿ°Ñ÷(Éý‡Xó÷¿›zwH—Ø¿?€©;ËÏA$ä¿]ÀÜ]ª_âósZòó>ƒ½                                                                                                                                                                            2ýø´÷q°gýÚøçCÍ7ÁªúõðÙÞž?¥ÿíÍçï _ßŽ›?z ãWœ¾ƒq~¸ïþÓõ÷Êo ‡uúF½Úô]„óë_Mü#wùŽ{½©»˜Èo •¤<Æ™ýòë¿Ÿ´G¹Îéß¿ý7”ö8gžþúUâ#™_ÿ£J|¨3ó§}  ÿfþI{¬³ó—ù pýûKlÿàƒ¿Ì_ W¿»Dç>ÚÙõ¯<wWú àáŽ­?ñòèþ>|ÈþÑçþü-"úû ôÿgUþÙ›,öZÞûHnþÁÿÄ=‘Ù»”ïþÿäåïÇÌM–.(ò¦ôµ?ZÌ Rþeòññ±Ìµc±ÿ?õòþ2ÂÇ¥Ží<žž
ô/ªNÿÏü0ðô.¿ÿÇ Jž¨u ÿLþ5(~¡¾U¡¿Ôî_ððVÞñÛÛÛ(¿þ¡þOkúW;ý×}\ñöáýÿë?Ÿÿ¨ý“>©ªÿ9 ýëõÿQõÛ½ô?ö j÷údñ\þ÷è¿ýsÜæ×¿¹þ½üúÇôÏÀš/ùÚ¨ÿ›¿þWë¿êKþ6ÊÿæôŸ´ØñK€ôoø°îK~·Ê¯ÿŠþ³¸¼ü®úï}lÇðúúú:ÕÿïÅíò®ÿ0¿þ¡üSxÏß_À|þÃ`Üßå?ÿs Sý#ÐÝ_ÿíøý¿ó/àúâCÀå?¶ÿë|ÿ…ÜÞã‘àò›ØÿiÐî£ÀÁ}g o‰ýŸŸ»fû¿.ôïàf¡{=Ê f/ÿÃþÏº¦$ô`Ö1.I§ÿgþÆ0ÝÿiÔ?eGÀ[Dÿ?Æý[@Zÿ¿Ùýk,àzQŸy8ÿ{ÿ?ßýoòŸ} /ùýãP} ƒçõ…,õïå?õ ^Þúê;qÿ¢´]ºÁ ÿ¥ÿŸöúäÿ@Nÿ›Ìì¢ê Bu¿w0ý¢èþÏgÏÿ5€¹þK˜¿4„úO- u3ùç–ñ8Ù˜ÿ¬x©Ü?k ÉW‡¼üáÓÿc ô¿Éÿ9€Ûþ¯úß. <€aæŒ§‡’§ÿTÿS ±ÿÊLô¿íœõñÁ[ÑþùÏßÿ¥vÿÙŸá—ÿWÄ2ùNÿçÓç¯Õ?r Oaúêÿ²øàÖˆz/Jå_èÿÜ^ÿò€Äìpúÿ™Êß@ÿ—úý“õN”É¯TÿHX@Ô;Qþôo¥ÿ(` úG î½(úë_ó	à¢`þ¬þ½/û}ôßpÿá 
=ŒÞt¹üÝV§“ý=Þx©ü]‰üúO^ žJ ôÖå/Ò¿—_ÿÒ€‰·_$·ÕéßHÿ€ï·øë×¯_·GP Wðƒ¿ÙÓÿ|ý7» Üæ@Ò;±þôï}êw2+ýË_ úù—öN¬Îßìé?Ý~ %ûø!ëó7zúOô/}¸¾½`ÿÕß¶Mþ†ú—@·ÔÅÏñ}W(¿þ·x-6€Û7Î‘ÿbeþ¸Ó¿±þŸŽÀïÇù›ê¿ü;€MÞùK÷/5€zÇþóçÏŸßÿ±"—¿õþy¨Zÿvõ×åo­Ì žvëÿ•?~ õ£óŸ²ÿêD|GèFý»¬“ú¾›È?Ûý 6Èí?÷m¾ãú£Ÿõ´¿ÅþQ˜Y@ÅãöïêÕo¶ÿàç/¨yÜÁü?â±Dþ&û¿#ôò_O±¨{àáü_îR¦þIó/õÀxÕ|"ÿÅwû¨úQùÏÚ?n ýŸ	;¹€ïtÇˆŸwòŸ7ÿbÿÁº™Ìýªø£ÔŸþúÏ`ê×t1ùcëŸ¸Â .øþ¿O‡žÀcLþøú'ÎÓÿf]Ô öž@Lþ„úú§`ÏÈ¿É Žº€ˆüIõÏ?²ÿý\Šç×ÿž µP¡ÿ¿_Šæ¿é/nÿúøŽŸ;Åü‰õÏŸ?i ã,÷ø”?g‹§¿ü+0ZÀRÿ¯üKÕ_^Àà¾å¯Þ?e ƒü3˜ª?³€ÐË¿Á ^R0ê\À\þàwû°xúË_h /«ú°P<€àN÷ÿ|-ù7ÀTª‡Äþý<dõW¿ä zX×?"o ‰ý?^KýÂxYÓÿaëþòï3€Rý¯˜ºÇ‡bù»6½¬X@rÿ‡Ãöïšµb kž êöõkàk+ž Òò§>ý_^EýêXó7€Bý§/ÿêG+?€åþiŸ J¿ü‹Ÿ"s kú/àö¶I—ÿË+¨Ÿh“ôßd|þÉÏþæŸþÛ=²÷¢ä ¢ú§ü`áÓ«ÇôÎ¤ í0|{Ñù»´Ó?=þÿ}éó{øe×jã›Å÷¿Ü:-þwûæðûËð•>ŠÅøSÿö?•?åç9â7µ€ïüÙ(Ò?F‰Ó?.~;ýûùó&0=€Ø'€¯¸óÇºþôßÎ ÆýÓ7p¹Åš@ìJÖöOˆßJÿpþÄ	¼¿<û¼IäN¦óúwiõ›ï?^ÀÜoÈ¾ LÖÊÌÏùYsêë?±€É_•{˜Í?@ÒéßëŸ_ÿÉ	yøEüà!2o i§ÿu ]V}ýgÐŸÀ÷ŸÆ÷ÿ»Xÿv ©ùÃbã7’?j á	|oàú'	€ïw~IbÿøøúGM`(Øõ &‡‘–?©~+ù£ûÇM Ê Dÿ´øíäO@Ä6¼ $äO­ßPþ´þËØîñÓÝ3ë·”?} óØì{ú§×o+Nÿ¹	„úw»þê×Àä¶@Ì/÷È©ß^þO`‹þ1ùÕß` ¡	ú@è'¾Bý­0ž@õ,žþêo:€áý£?Ûw³Ùüêo?€þýSþ­wù–3ùÕßk¿ó08˜üüêï9€ëýgªŽfþ¦%óW`Û\@JÿÀ±Ìß´\þÚé}©µ€Ï?‰Ï?Û‰üêc _õþRï…ÛÊ_õ‘¼W%0êùca—n[$½‡ðÎÀ×®w]?pë¯?•¿²âèßýr÷á­û¯Q ÿÚGèìÊ ëŠÿ> ÕùKÐ	•@i+óW;®s9þ ® ~õðß§¼ãÊÿ”ÞÛkWþ_õ—ð¿ÿE¤øUÀmþ™üïÛüª_YáþƒüS¸æŸ€øõ@\ÿÛü³ÅúòÐÏ?3 õ·sý‹¾û$o ®ÿ‹ù§ þæÖ`«þÅßmn¼ñ÷—‘‚O +žÿ(ú^2§LÿnMÿþ 
¾oDIÍ?@ðFÑù¯(ñÞ#­ÿ` ÷ŸŸ#ˆÏß_Àô=ªobósbê                                                                                                                                                                           p¿~¼Ûû(Ø³~íüó¥æaMþU˜½ƒïøpäüÙ˜¿‡~}8nþy¯5£üp‹ñ¢^kö.ùà –OÞ¨×š»‹`~¨#õñÍê?Ÿpùõ¯ ù!^¾xWëo Å¥?ÆUòë¿ŒGYÿóÈyœsò»þSÖQ±Ã"Ùäã<ûHgÔ/ô÷?ý7ëqH|cúßSþu|Ÿ Ú¿Å;{ õ©E»õù[„ü{÷ßt QGWõ€š³”ït›N{vîñE$úïÛï@ï«K‹ÖþË «I›öîŸù/	/ŠÚ9<]¬éˆ@|~çŸ@Rÿõ'èØâ'Òóë?Ê?9€„þE®ÐcúÀ(ÿšÀÇË<Cé¿Iÿ€÷Û•úm¬Tÿk~h¨ÿÛ×ÿÑ¿bÿbEXÑÿíÃûÿ×¶ÿÓšþÅþŠ´6ÿÇ ôÏé÷/ ¥>D›²2¿þwÞ?ïso½èÏý3Üä×?»ÔW€¾ÿ›þµ. GíßË¯­@w‡ý÷>´ã8oÿ~~ý'DôùýÛ¼ tGí?È¯ÿŠþ1ßky´ŒúËÝÿïß¿û·ZÌ_õ_€rè¿àõu¢ÿ¥~Ô †÷x¤¸ü/x}ÀgÿÁëkú/ç÷ÿÎ?{	˜¸ÛÃ|0wù×ÿ³ÿkRÿwI?ø§;Lþ™§ÿç‹®ÉüKýCXÐÿDP•|}=G™Ëÿ{þæðzÀÓ` ‹ ôn“–èÿ•¿±Äöÿ»ºÑ£ÆÝnæéÿš¿­D÷Ÿ[@øIÈýzž…ÌžþáüMà«ÿë ÿÓ¸ÿÄ &o2î?±€äËÃ(ÿÔ²Nÿ¦Ò¼€Ù›„ú*§??„ò¸‰þ////¹ýo
O½tq ýÌ LäO ðòÇ˜Ëÿ©pÉ3€›þÃüÍ´8€kçœgò÷6|Yóý?ò_ðšqˆÀTÿÅ]¬È?;‰üãþÏ'Ïÿ=€ý³ó¬É}ú7Ðÿe©þ@ö 6=ý[ì“ÿs sý\ ’°íé¯¿•'€¤Ä¼þ'ÀKÚàï¶8ÐéÎþýü¨Þ?z{þúà©Ø úo·Xþ®Æéßnÿz€á[.”Mÿ´üúíŸø+}&mvú·Ñÿ¥Ö@à—È¿¢ÿdþ¦û¿Tº ßüúüÝf§“ýË] Âouþ®|þÆû×¹ |½Á_¿~ýº=€µù³ûË?Ó¿+~¸Éß@Ì/sšUâôïÝaëýk\ º^ÿù$¾òÇœþõ)ôÿUð;C6ÊßXÿé/ËéßÍ÷_÷¢‹æ×¿Â3ÀÍç_%=ú“cýË ÷‹çO€üý_f¿4m Õß‰5ù»Èüö/4€:þóçÏŸßÿ±AþÖú@µú·¨Ÿ¿¹þ½tÙ¨š?u —[NÖo1ÿ\ÿ"è6ê5€ùÏÚ?v ]h Ø¬ÿò æë/äo¶ÿÜ –/Ývýð~‹ìúmö¿ý†Ï›§]ºMûÏ`¡~»ùçû_¿'ðûö)—€zGÌ?¹€…+DþVûß|[øä ¾+¼’`þðwx/ý~åú'î¿4€¨Äü`ˆíÌÅÏ«âü‹ý#š@·¯ïïúïÿK_úÇ}ú^À÷º£ÄOü+ù#úÇ`îgÄ#~ü¿õµÔ?f QÏ…6ðï·âõã¾Î§±üQý£/ëFpm¿r%óŸ¼Ü .™ÇÏ@¸~Äwx4™?²ê žÊÔÏXÀDþ¥oï×?yÅ0W?u‹ùÓêŸ>ÿ°”?e òWÀhQý.ÖÔOYÀRÿÄüúÏ/`y ·²óO`pÏòh £üÄæ`ânúË¿ºÿpéý{ø7g “w*ÿx‰@¸ÔuÿfôŸ¹Kù5€²ý?0y—ýÕ/7€Þrú?¤çÿèÿÞÿã(å¯5€¬þ÷W¿ð ^b°mù7ÀuÛô¿à!¯¿úUû@úù?;¨"ù»v½d/`“ ²ûË¿Û ¶ì_àôï—=€Ì'€äÏÿåôW?AélÖòK>Åßä|øxsiùçînÕÕ·‡û€ò|øzs¥>ûŸúïõ@W¹Ìþ{Í‡„ú3÷–}úïñøÞbXìŸô€…Oÿí×;’8€Äg€Þ›Š¬?Ý?'è}þ¿ouÛ{±~ Qý£¿ áô¿Ü<©þµ}“øýiô‚:½™ˆúSH~ö_ŒßÜ ¾ê‡77€uýÇÝ¤Äé¿µôûçl ñyœ±§ÿû£êOÄo«ÿ8òº´ägÒÕ?Ð?>~[÷O›ÀåÅkúçÝfæôõOŠ¯âÇƒÝª„n2^@Òé?èŸZ¿¡üsý£'°¦¸þxIù{H¯â>ÿ<k Óùûˆ<ý¯¯_ÿ¥ô'ðý§Áþóß	6—a'Ë?ég(¶~Kùcú'ðµÛ?JÀ|ýÛ„^”–?:~[ùcœÀPü3ÀÃÃrüë‚/HÊŸP_ÿü	D_ VK¹ú'Åo-Jÿål5€„«býÖò'`~ÁþÝ~§¿ú0³§M{ú§Öo2VÿÉ	„û—@ÄOyÍªßfþì„'=€Ï×ºaD~õ7@háþK]oî ëô„ú[`<œôî`õé¯þ¶øÓ?þßz–¾{p!z}ù× 7äŒf~(³ùÕßi ¿ó0>˜´ü×þêï¹€ï	LõÿŠÀ™Í_ù!mm ¿—õÅ^ó·+˜¿âcÙø&ûÒNËÄ&ó«_B­KÀø-e~-p©üùÑ¹Uº;¾2ù‹Î	UÀ¡ò—:˜³ª0€õ/u(gV| ƒûÿï"çÀVç_÷¸´£ð Fñ?ÌÃÿþ7ú£•ù‹=<(1€ï„óÏàßz¼*ùÇèÜ
ôÿÀTþÉ\ó÷°"Gèì
``b ·ù'ðý'ê×T¸ÿ(p ýü½ëû–¾ê6ï?Ì?ºÜü—ø[(6€ÿb0ß¿Oül×œf êoè¾ú—}ßyw/ýË¾×Ü:|ÿ²ï.5ÿòñßx åÞGæeäôïÖõï Ð;F¬äþQŸ LÉÏÞ’ò¾ü÷&¶þÅŠÿãØâ~T                                                                                                                                                                             Ì‹½‚=ë¯_Àì=üsµî­P-ÿªÌÞÅM}8nþüÌÞC¿¾Ü}ÿÑmgïbœß š?®ÿðæówÊo •¤?´éý,’þ[Èzx“û/åÿ“ß ŠË|€‹÷_8,ýëÈ}ˆ÷¹üë_Xþƒœ˜¿T(iÍ£œ–_ÿ#š|”cŸÞVR~ý÷Í_ãNêï€½ûWx¤û­õ?tþê™ü“GWý Ú±{ÿù!õß¹ÿPÿš±˜?ÿÑŽÿ{Áì_"õ¿Ïþ	/œÿ,‚üûößùCÀìàþúÇ, úá´$¦õG|þ“ ƒã¬}0m9^ÿÉÄo£¿o&(êéééieÿÚXüw€åŽìõçpÈþ?Öå·€QþVúæ7€AþÉèßvÿ´ lÔÿÇÚü0È_¢µÎkô7€~ÿUO ï·¬ø·3ý«ç_Óÿý†Uÿz^èù_ÿäþ±ÿXæoç“Öä{{ô7€Jý«˜özoÞÿ¿þ5úw›ôÏô™ÿc úO÷Ïÿ àýfúŸ´äW€ê_zAßùß OÉþE>þ/~	¹É¯þåÚUx
Ñ}ÿèï [×®ÊúWîß¿e‘ü]ü—È_x ÅŽ¤Îßýþ…û—;’:qÔ¿Hÿ¾Ë®Ê§úùõÏî§ßd¥ÿ’Øþ÷ùcv}ø—uøû÷oðÆ	íñ©`ýsúÿ½Xw·	ÿX›º’ÛOçGÞTÿ”þïùW ÷¯õsyS¯ƒÏç”yú~~îZ5Ù?v ¡›öóONþŒÏ èÛŠþ×[=èÚ4º |åÀõ¶ƒ[ð£Äç{‡ùwùÿÌßêfúÿ?¼ù¸ÿ0rìÄlþùD]þ¯ùÛÀ\ÿ¿IùooêÛ9êé!"ÿì¢.ÿúÏôÿ›Rÿöæ?Ò¬È?=€¨ËÿmþÖðÀä5}±~þ ÖäŸ\@òå¿µ¼¾._ B˜¬Ÿ;€neÿ·B§[ý__ß°Ô0¹ø1T8ýÃÐèåååe©ÿè	 ÕNýGxË¹üŸz —ü·x¸ ê¿€"ùû¼(*ÿóéó_0Õóë?7ÇÆûç Ö@ì 6É¿ü—ÿvú¿lõµ€n¿þÏíô¿Íÿ5€×‰@Éþ‹ˆ:úÍNýW_ Foz}þJýŸ›íÿRñ	 ðÆ×æï6;ý[éÿRï	 ôÖWæ_Ùâç>…ò·Õ¿Ê øæ×åï6;ý›é_ï0q +ê¯@ÊéÿÜJþÛ½ |¾Á_½CX“Mÿ©Ÿú×zÿë ªõŸ@âño•¿Éþ%ÐË?ÀšŸP¦ÿÍêß» °²ÿ× Š½%òwÍæ÷Ÿ@î ;XÿÄüõÿÀûÿ¸ Ü¼ÅÂý³ðþŠ)ù›ìÿõ…€ƒŸ½.ÿEÁúYxµ@ýéü­õ¿ýr õ(}Ð?ß}ý×ù›ë_r uò_“ÿ£×zþéþåP-ÞàóuÆßèûÜbÿê(Ä?×`únçòëŸ;€n“þ±˜¹×FóÏô™ÿ@{åö[@nþFûÏ îPçCù#]¿Ùþ£¤^*s°Æw‚Åæo¶ÿÊK@µƒÕ¿¨SÿÌù“p	Øá©Q¿íþ³˜[À.ïLêŠ©ßxÿ—åßy¤ü£ßì1õÙ¾èúçÎ1€—„Ÿ–_ÿß€ïÝÄWyÄ××épýù°%ÛÁí×÷ÊŸÝé°ô#‚çÍÖÏŸ@¯}ô?ô·×¿Ð ²W°œ?c£ø1_ãÙfþ¸þ±HžATþÄ<–Ëß@ÿ
x*ž?a Áú‹ßàÑnþØþóŸÌ[@|þè,äOªßFÿø¼äàáb}þÈ<Î÷—Uÿô<Œ”é?qŸòWÀÌ×…úóßôJËÿ=€¹»”¿ú ^. ù?keõŸ½ËùÓ_þ"ýc0ë!·ÿÃì]Ê¿É n0×ÿa¾Ö¿˜½ÇÙÓ_þ°Ô?9ÿ¿K÷(ÿfx‰À1ú¿¤üÛ`!×–ýÕ/?€—ûè9Bù÷ÀÖýËäïÚõ’»€> ˜½¿éþêï4€…¿®mÑÿrpòW@Æ ëó?³÷·úôßûÑ?Ý >X¶ÿÊü{?òw¾€äÀå•RóÏÞÝª«ÿ¾ù±d ùpy¥Ôü]¥Óçüp
`¶Â>nž|ú‹Ÿ)}‰øzC	õçúgžþ»=¾w È ¾ä"ºþtÿÌÓ—‡õ®¤ ípûV"ëÏl)ãƒ¿Ð»û*?¨w¦Î o$¦þtÿô«ÿdûÆðû÷ïÀŸ®y˜Àèm,×ŸþÚ¿ÄÓ¾}»ø}cø²üDöO`|ƒ´ü‘¿Ìa¿ÍÜÖn è ë£óO÷Š¯xP®BþØø-öæOºt)È:Æ¤«ÿ¨||ýs&ðþÂpÿq¹¬cLºúT_ÿŒ	t)È:Æ´ü·ýÓâë¿<‰_ý/A9Ç˜ðäÿ!3~ƒù—û/Làû7ì¿ô£>Æâê·Ø?j ¡ÏõëÏüp˜´þ¡›¬Ì¿Éü‘ýÃŸ ì‹Àâ½Œouõ\_¿Éüñý70õ!@/àâñŒoµâôOˆßhþÄÌN`ªÿmÁë­§1úã˜ü«ë·š?y 3˜Àµáç-ç.ƒäæO«ßnþôþ“˜|TB¼høáC\õë <™þ7†E'_>ºulþÄúmçÏ@hQHë?øÏˆüêo5€ßYXêÿ}ƒÞüßåÓ_ý-0œ@ò t43/ZÊ¯þöø½b áƒ™|ÉÂé¯þ>¸@Ô‡€£K|¤Ùü©õå/8€ß‰¸L ýKæÏ|˜N¬Ð"ûg˜;ýÕß} ¿k`:¿úeÔ@™£+”¿ÌÁœTôÞÄÿý÷ß~ù×>@gWä03€ÿ¾ÌÆÿ.úTâ¹¿ìcuN50ª?»€÷ø£¬Ï_é;òåŸÀ5ok¯þU²“YÝ¿‹È@¯þí Öå¯ýˆMÑLõÿo9ÿu kòoð€ÎÊþƒßÌ@dÿ¯?T¿¦uø^@ßœ?8€¯?R¿²Uý?ðýåúß\ýúÖôïùoy ¡ü£ÜÜ^üM¤ÿû no®þfÑHüM®ÿÔ J¾Óôî?¸Ibþ`ÿrï+A™ùƒÞ$±ÿh eÞC–êß­í³€ï)Ró¸Ij~ö•Pÿb)ÿÌ¿ÿp
óõ/Ôožø                                                                                                                                                                             léÇ½€ýüøPýíüSý-]õ fïáŸ«uo…zýW`î.nêÀqó¯è?{ýüpØþ1ßrî.Fùà~û‡o;wüPCÞC›ÝÿæÆswÌ¯q¹nZÿð­Óû@Yùoöé¯ÿq¬yˆ“>úëJõ7€‚Ö=Æ)ù'RÏlHÿú¦ã”k@ìÛ
§žÞþ;æ¯ñ0‡SO^Bôß3µ¬>¼òÇÕªùþ»?ÒÇ<ªvòïþHó¨Úé¿÷C}Èƒj©ÿ?[<Í§a‘{&&Öƒð9¬c,sÏÔí_m eî—¸þÿìÜ|˜¥î·yuû×:Îr÷Ûºª ý5¦_Gþ»êŸüMËÿ,ÿ=õOþÒ šìo­÷7€2žÞ¿ÿ0¿Ì?3€3ö|||,yl÷Ÿz ÇíÿcM~èç_{¸£þŸùà6‹ý[Àmþ•O Ÿ·­ùaY©þ×üúî_÷ãòâ§ãx*Ý¿àßË‚÷¤ÿQûw%ûÏ5.ð·¿ÛþM ²·eÿbÇ›¦¸ÿŠÀ×-W&|ˆ_l ooooÿOÿpþüþ×›®Œ_ªÿ¥þ× zý@þÙ~l‘ÿ} ýüú¯ÿ  f~ýë)ÔÿŽò_ Ùþ¤n}ý×ö_ÿýÿó*¦ä×?«Ýo²¯˜þþk? ¬ú-–•ëë_âPï;¬j×Ÿïßµ,¥î÷×,­^¿—_ÿìþ7ˆ½ÿˆ®Yù¯ŸË‹¾µþ!iýSE´Í¨ß‹™ø
ú¯º Lùû÷ïßœì2Nþ^Ì·Õý»¶èÿ÷Fÿ%K§ÿ±:Ô·wúß
öŸÍ‹õ‡÷¿v^˜Flý˜èŸØ?p*Çæï½â¹ù—uù~~~îz]Ëcëç ?ÿÒ Þ"ú_ê@¿ÿßÌü7¯X¶ÿTþ…Ì]þûù›\Àtÿ¿™ùs°*ÿü ôŸ7ÝÿofþŒg€•ýßò.ÿ£ü-`|ˆé?S?c kóÏ`¹ÿm~ýûmóòß¾ÚFý'0sùïý›Àìgt"óG| xþ‰$žþú?ê&×¾Nü1ýCÝbéô?{ÿ—‹”À0hDüˆO§æê?^À[òéÿ|þú£ÄôO4|ÃkóGö,à-ýô?÷ ^âP¾ÿê¯ðí@èË§ÿ©û_ó÷Pþxã«ò§ôŸFÄéßJÿéTê¿îç·ÉßEän$o ÅŸ ‚oEþn³Ó¿ÉþÅ/ G[¿DÿæOÿaÿŠ€Ï{ýuÑ?†¬ø%úìWÛý'P¨ÿ{þÑ2­ÏßÅäoªµôûÀúü£ŸúÊßVÿ©¬ìß­|þÆú¿Ô¸ t5ú¯ÀÇôëë_íð}éÿyƒ¯öço­…ÜÜãÊþ?ß}ý×Êüíå÷/>€Á]qòä¿.`ƒüöŸø<Pæ'JïÏÁ ÊÕŸÌßbÿ’¨“?ÿš¿ùþëPöxGý“0qÇmæŸì?øz ì”>Þqÿ´tÉùí?1€Ëÿß1¨Æ×$Ôo¶ÿÄW^þï~ùÇxWïäo¸ÿÄÞÿïnù¿0øÓjõÏ?m 7Ø-ÿÇÆ˜[)Óýg°¼€­ß“*õï¿b;¼/êŸ=ú "°Ã{^@·¦¾þ“˜_@Ú1üûï¿ÿ–zŠÖ×ú9àæ'C­©ÿï¬¬wi±½üëÐû|àE¥ú«Vðiø%>)õõ_Àº—?{ïìOªßBþ¨þÓÏ«&?}·éýãó7Ñ¿Ä òf’?e £öË_âÙpþÈþ?" guú‡êÏ}ãý£0õÂ™HË; ù5€‡€µýCw6[î›ûäOè?ûC"ÕÿŠ–šÿs Ówx1›?©~KýSð’0€©üï½òúÏ-jáô—¿ø æûOç¿ôÊê?»(ù7é?ùbõûÏßãìÕ_þÍp¤þòÀu™ý2úÿ»Ð_þ# BÿÿgïÞ–ÚF0ŒúR¹Iæq’[˜=IUïÿ"»ØÈV«ÕGI¦×º™L°ð÷[œù¿ÅVùOcúY¸€Å¢ÿùåßc ÷_8ÿŸPþ>¸, èÀüü+ƒj’ÿ4´Â”œ ¶é>:õw@ôÐºÿâ·}åï:€×äŸ 6é>4õól4€’ïÿu|øï}¯I»ìÜ?9ÿÞ÷øX@î	 äù?ùù“úï}oÒÑp>¦¼üiÿ½ïçë;€ókÈËŸÙß÷Ö«Àbµ·×Úþ¬ñÙ¯;õÁ$`á°ò”­	ñÏžý7¾[‡Ì^Çjü¥þËOøÏ«ÿ¿³>÷ßãk>€Ð+Y©¿4¤¥üé¿ÐõS§¡ýwuÿ’„þ(:¸äü‘‡´ýèx¯Ü@Ã^Vþ„ËcÞ~ìÜçŸO ¬` EÇZÑbþSY|ý‹'pÊ@Ññ%æOøg¼—ãë_<——-õýØVªœ³ÿÝ ’ãë_<Sú ÊŽ//ÿ{ÿSNýqóÇû¯8xJ@éfå[@^|ý‹'pù»Å®ýŠ0ýPJýó§ôlà<ƒ›ÿ‹à¥`ùÖäOŠ?tþä„&:€:«ùŸêêëßbÏÝpþczþäøƒçÏ@dýú¿¿I~ø«ß«ÿò:à"1F}ùž@Ç÷ oÒþ9õå/@hûô¿»Œú 0ÎHxøgÕ—¿r ÷èü`5¿ú;/ kÿµ‡¿ú»àf›÷¿¾Týýðß&'€hõ±€~ýå?ô þKÀï‹øüzqóW‘üê7Ói ³ü±¼Æ¿_Àrõ?€yýåLòOÐâáßõžû(z Øÿ÷jýé ªów¿ã>Œöæà>ÿû *óorÇ}­ÎÀ¯ÅTåßê~û0Úà”ÚÿWrÿË5äï¥¦ÿÝ ûÿ^Ï@yþÍî±¦Ù š÷¿^Cý®ÊûO°œ?£ÿt ×+ˆß]qÿ›5<©8ÿüð~õ·P:€Õý¯˜\CýTçOyÿ¿Òÿu 7×C{õ’úÛjÝÿî"ÙýChô¦² 0p ÕýïÐâícUQþÀ f—ÈÎ&ýòó'|¸$?;Êˆ¶’?0€æGÌ®¢õÏäø                                                                                                                                                                             lëÓ§O{{ùôfïã`×ü0zþÚþÑøü¦òuÐ±ÿê b‹ÝÂ%¾	<tÿØc7q›ß ¿ÿü’‘Û¸Ïo Ù?vÑÈmÌó@…wmáã¿²¿4V|ç–ö¿»ìòmó@S5woz~ýªîNÎÝJÞéß Zº‡“ïãÄúñwóú.‡{9v®ÿµþ{öïp7ç~¡Ø vÌ€ûù¨Ç5JÿÝïèƒÖ(ùw¿§yTõ/¹«S?%,?Æ6·=º¤þù÷uú×Š²ÍM.-ö}ñ5¡ÒÃltËƒKì_þ]¡nÇÙè†÷(ýçÚê†Ç–ÚÿóÞýï´ÙíŽ­wÿnÇÚò†öHý'ÛôfGÖ©ô™¾5×Sÿ1úg|OøþJ=ÎlÝ¿Hä	B|üþ7ù-à4z¨öüüüü(ýgùõoPeÇÉèo MòÇp þO OOOO§Ñ=7ïßùÙ¬ÿ9ÿð˜ä 3ß3r£þoùÇÀsÃþo—mø.y!pÛü#àùÀýcÛýÇ@Ëþ×·È¿~Ž¯ýÐ_ÿYþådõoûÉ]¯Ïñ¦ýG@rÿMžÿ¿¿Cÿ›üúW÷ï[¿wÿ1ðÜ®ïüúºÿ£äÿsöò'ý³úŸöÍÿ©aþ×èß®ý‘ltòÿó>€»þC §ÿò Èïï§ùõ_ê_phpÛÔ×¿ª¿¯Ü¨þ{þó ôÏ}PñÓuÑª[å×¿²éÏÖÄËçûD®$¿þeý‹~ÿk´naýé{ò&ýOcÊîñ÷ïß¿¡¿_Lø¨ÿSvÉôÜ\ÉÃ¿ð°ÜþêöEŸ2ä×ÏX€þMúßÔ¿_@ãü³ú©¸½†þÍúÏêß þ´x÷TÝ?”¿h åù“ —@8ÿt äOÀÝ¥å¿¨ë¿”? Uù×}÷XUÿåü¹8UöÿSÑÿ4´`ÿ…ÏåËú' :ÿÚ ÖOÿ?^œ†<Ü,ÈŸ5€Sïþw—\Ìo /ýïû•ä¿½~÷‡| ‘Óÿm~ýÏ˜?ãë€§&ýÿT<ü¯ù`2€¿5ùgW®ËŸÐÿOIÿûüúŸÿj©aFþÔ¤åŸòää¡ÿÏŸ·ÿ¿Üq	ùW­ÈŸÔÿOƒþ~ ?_E°Ò1¥~p:Åõûÿ©ÏÿcŒü7ˆ÷¿Ï™VáÔQ?¹` ÷/_ÉÿcüËÈHœßÿ¬èI~‰ýï0áâ§~£õÿ™yh•¿LrÿëÂ¿– þKhÚÿûÙæý—g1vÿ›ü‘4ëÿ’¿Åå¿ö?-äªÿÂ šœ nòc ç›YË?VÿŸÝN §ãõOÊ?XÿŸN §ûþeøöíÛå-ê¿õ?š?Ði mú× ¾½zû¿ùoé¿4€ÚÀõ6ä¿`“üöï0€é«lÐ¿~ ÉùGìú, ªÿÝ+­xçßf §ôüƒ÷o2€VÛªNþ!û7@»ƒõ/@ø¶ÇÌ¿Ô?ôÝàówÍè_0€¬úÃö¿}FHù Úí¼ö2óÛ?t
8ÿiÏüï˜þ]uýXþÞ?u /xýÃŽù/¸ûËnþŸ?Öÿn WûÕ_ÔéÁ?xÿ¥¤-`Û·£KýÑû×,`Û7£ðÇA‡Ïßm §dÆ_­¯d É?í»¥¶õõ/]Ài7‰ñ“ê¿l ï¿¢>ÿ×¯_OM­ÇOÌ¯ÿÒ ._zQSÿëÄi3iõéŸ2€Ù&ßxUúÐOSü¶…~§KjýAò'õ_@Õ¯ˆMÎ_´€Ð/uÉÊ?Jÿ´¬þŒp×üy¸MÛ_þÂþÁï	Îtëÿµ"~ü¾£ço;€Ù¾Ü+Ëÿµ¢~ôùýú'÷ý–€à fí'øZ4€¥[{#ÿ°Pÿ5Ù×¢þ±A­åÏ©?VþœüLÀrÿ/…ý£‹ZÌþ½òàgâ ¾4ï¿ÅøÃ_þfýS°Gù·ÀÏ”Äj})èÿµ¬ÿËaÊßi [öÞà—Xù›à²€ãô—ÿXˆÖúºQÿóÊßg o(êßüñ¿ü…_õ8€öý[<üO£k9€ÖýWN(õùw¾ïr ?ÐºøôïÙùÚ úõÚ¶ýåo¨Ý öí>.ñ7Z@æ J¾ÿÛ+ÿÞ÷ö!å óC€’çô9ûï}GW“,T+yþßrþâ‡ÿÞwñÑu@Ãþåù÷¾wBŸœo9¯~äLRtößû~}=ðzËÓº“ÿ¿ýË«ÌüÿZŸæšàrÃ9Ïëo–¿Ë]ôÁ%à9y EÇœ?Ö¿õóý÷êþ¯‹O ógƒ•WVþ´_çü¿weÇôQã_Ü¾°Õ Ê-+ÿú¿å1ioù³&pJ@á±eåÿCn³ö°Ø?y§ø ®ýŠ.)¸ÿz|ýó'N Öÿýg‚*Ž.'ÿÒ¿â½_ÿhÿ„	œP'#ÿû N‰õõ_é?Û@°ÿxùóZÿ™x|ýSú/Ÿ®óÜs ïïAró¯Ö—?q ¯ÜèÚÿâ)«ÿz|ýsúÇ'°Å rò'Õ—?s Ëèû óáŸ_þ‚þ‹è?€Ôü©õå/ÀÂz÷O|ø«¿Á Bè}HÊŸ\_þÊÌÐ·ÊÃ?½¾üõ¸Ÿ@ßÀz~õ7Àíví¯þ>ø/o ¿ÏVå×YNþŒúò7ÀÉý_â¯.à%þýâýÕ?ô fù#x¯3€Fù{ÝsEíbýoò/à&ÿd ±þê| ¡üáÜå@ƒüÜ{A‡$÷Ÿå¿ :ÿ&÷ÝÇP5€¥þóüóò_P™»;ï#h=€¥þ¿ò/õ»Žú]´@‡þ—ë¨ßIË,åOêÿ:€â‡ÿ¶÷ÚGRÜ?ôoE%ôÿ•Ñÿrõ»*í3€ÓrÿßÉýop¹Šú½5@ûþ×«¨¿¢þ÷ÿ`híùÒrñ7RÐÿVuÿà?ìªþvêúŸªû¿.àîVÕßTyþýCÄßXiÿÐ î.Qÿv Õo)Šò'|ÿ§¨?»È­Àüò?”¬úg+ùCh}Ìì*Z?0€Ý©ô                                                                                                                                                                            À¦>½Úû0Ø³¾œFÏ€|øü‘ºÎC÷O\	?±ÿÂÅ¢·ðùªÍ‘³cÿàåb7ñ^ß¥]ÿØËnó[ÀÃ÷\0ò¢Y~h®ôžMÊŸpˆ¼,ß šª¹s“ò¯Ÿ(rû@;uwoRþõOõßKøþÍ¸‡ê_/¶8•å—ÕEùÛßÇñ3…þ‡Ëßþ^Ž)2>ü7€òán>ìÑÿûù¨Ç5FþÜÑG=®Aú—ÜÑ‰ŸTe«›XZÿì{:ñk•‡ÙèÆ–˜?÷®Nû’`õ¶ºñq%÷Ï»¯¿&\{¤­n{\}úÇ¿ÐÛìP›Ýô¸ÒûÞ»¿'Þ¿ê»”<~Ï¼ÿíñ¶½å1uïßí€[ßð˜úô¯þü?z=õßù{ù×õc"Û?þþÕ+ZÀVzå/6Ío £÷7€Áû@_yù7È¡CÏgÑKdæïßã¾¿ÔÕ_@NÿmrÈß¶~| ¹ÿ†=–n®Qÿ§§ÓÈ&ùcÈÈßöüÜ ÿÓ«Ó¨ž{ôogõ!^ýà| ©ý÷yþïwñ×ü£à6Ý	 ú`f»ˆÿ4ú ö¯=”@iý7Î_Ñ¿öP©?õî?Í?ä Úõ¯=’`ê-þ#`–¿øÀÚ#Yx¨ëÿý›ç¿¶î™_ÿFè—¿ò)Byý‡@›þ§®ù;øóçÏŸ—?èŸÓ¿îg+ÃÎëwîÎÿ2€ûüúç8õU-µý´S~ýúß ý5ûÛo”ÿ<€áûç}ð¢ìýþRéŠüïóè_s8[nÿ÷Eà­ë_#f/`z5ý‹úŸbñßÜ½¬mþ›ú™ÐÿF«þ7ñçè÷àÏ€þ=úÏóß çƒ?k 7WÑ¿QÿPþÛtÎŸ<€hÿÓ€Zào›þ5ùS0½‚‡ÿY}ÿ¥ü™¨ËŸ6€›ËËß¤ÿrþ¬œjû§Àé®gÿôëó§ Öÿ4¨Ê@4òg-ògö÷ðSÕ?žÿîë@uùWû¯ÀÃëþI_L}]jéXEÿµüóo”çoÛ?”ÿÇ?N*@~ÿä	² ÿÊ Vþçúc ¸ÿß’þ+ÿ„óý'ùà¹aþ…þEþT 1ÿˆýðPýo/µœˆü|ï¿šïï¶ý+p{™Hþ£äŸ.`¡¬`JþËµ¿ÿþ}›þrþ§‘ûÇ'Õ»Þ¹~ƒü)Àýbù”a /{@'Ö¿ëÿ}“þÌ^Ë?VÿŸ‹'€äÆÉù+ÚÿvÁÅòÿ*x GéÿíEÉ ¢Ë˜}Õoäþpªìÿšÿº€Vù_pZÈ?\ÿÐ Ö¿Ù æ¯Cÿn¸Ülƒþ¯h_?ÀþÏÎÿÓ(ù'€÷ý+–Äþ=0}•…ý7íJÌ?dÿöhq¤ß µþ ýçß8ÿqßüþ¥Ýú ùúOð¶€óŸö¬ø t ù‡í?ÀËŸvÍ?û
ÀYçü¿Ê Îxýïžõß0ý«õ—óÜÿn{æ?»­ÖïÁ?BþHÿúlóôË?xÿÚl÷Ft9÷Ñ?:€ªlúVô¨¯ÿÂ 6¶_’æõ‡È¿ÒÿgÃöè.+þzþ1ú¯ l§}´¬?HþÕþ?ë~ÛÇÆÒâ'Ô×} Ñç…îe=~ZþQú' ²€ÀNG—T˜ü)ýg¸ÿÑ°ÃÆüHZþqú— ûçCÃ¾¾‰_¢ðÆÃ¿Ó!±þ@ùÓpÿ¡‚Ÿ]ª^ÁòKÖÝýB—IÿÔüúÇpûS¢E;øš¡¦ý$rý¡ò7À|_
ò§ T?òü~ùsúž›@(þû¾– ²§òwÀÏô,æÿRÿëú ó/ýp—þ=°œÿ¥××‚ÄÏŸQÀü9XøEýû¯Ü¢üõ_øAñ»Äj}ÉÏ_Üÿå@åßz _6ï/ÿ†¸,`Ãþ+·é¯þÑPÐÿ«ü4€cô? üð3:€ûË°œŽÑ_ý# uÿåoûÈ¿Á¶èêšï{ýH6ÀVýÕßháœ¶é_™ï{ûˆ: iÿºü{ßÓ‡Õs %ßÿY¬_óÎï;ùØ²°0€…çlÌòÞ›½<+ÒÃ—ûôÁ¤`á³À`¸û¾¯|½EþïÈ‡Õa ç›MÈ÷ñ¼ü~´¿ªðr£)ù/—zùcpFEù·¸Ï>–¤þÉx½Í`ÿÏÂÇœ?Þ¿ÿõ1Õ`Zïr‹KùÓúÇóû+{ªÀ¥ßäö–ú‡PŸ¿ã]ó¡ü7qû’ÂþK?´?á°’?á—¹ÿïMé4Fþù¢ýspºýà/Þÿ} §åü)ÿ”Ë%½	$åO=œJp+Þÿm §õü§ôø?iÑþiˆç¿Í3€•øú§õ_À©~ µùç?é¿_ÿäþÑ.Wû Mþ{ËñõÏê¿»úµïeöÖ×?·ÿì]Á•%¾üEˆL ÿ 2ú¯Ö—¿°ÿâº÷OÏ¿^_ÿš„'Ð{ ‰ýSâË_;€ÿ2ú?o˜_ý­0ŸÀþýÓêËßh wH9ü~µr$¿ÞLÿn=b}ùàf«ýßê¯,àRÿf «ÿÔúò·Àt+ý'ù—0©?]ÀJ~õ°€xÿ›üKøUÔ_ýC ˜?8€ûü×´ÈßÿÞ;¾€Êþóü—Äú«ð„óÏð+¯ÿÛµÔo­õ –úÿNÈÿ6€ºü[Þyƒ`¡ÿïæýß®¤~MO iýeõ¿\KüN`±ÿï”þ/(|øo}§}(­pjÐÿ~ —+ÉßSYÿ»œÒúÿÊé½–ú•ô¿]@‡þ×+©¿ºœÚôŸ`r-õ7‘Ýÿ²€ËÿU¼û¿ïóZÄßL^þ;ëýW>þ»àövÕßRyÿ„¯ÿ­äYÀüvÅßXÃþ§ÌþaÚo­ Ê÷ÿÊò³‡Üú¡Ü_@ÿÇ’U6€ÀäÿàâùØüÙ—üÃ                                                                                                                                                                           €=|zµ÷a°_û«½‡=ë&`ƒå¿©¼¶>tþÐEö;^ŽÐß >Šõü) ðûÀG–Ð6£ÿÚ8>¿jû&P!%mò âëx‹o‡’6»ÿ§µüÐZñ›q^Ï˜Iäø ½ª;w­~âY"þuÂyh%pßfÞÁÑø×K4îo }ó7¾‹óÞM$cÃ£W,Û;yíÝDîãß 6È¿å½œõñŸlÕ‡¤æfG6rþÍ~ ›×àý÷¿£z\cäÏ¿£×¾$ÐèPÛÝþºõ_ÿšP›CmvócJïŸwO¯~®ßêX›Ýú˜2únúµžVÛîÖ‡Ô§ÿê—zÛmÃ[Ñýû á(§ÿçýû×}£’‡ïïi ƒ÷¿?â¶7>œúw=äÖ7>šì_ñ\5îuÉßçË?ÃîrÛcéÓ?å9I·Pzmöí_ýíŸ¾ç.:å¯ÕûoŽ™¿Ó7¨ì¿YÎŸAp‘›£úo%çì¿aØHFþÏÿ>hàùUÃþEëÊß&ÿÊ öË¿Xþ&ù«û?ê	þééé4¬÷üñôÏNÜý¼§W§1=7ë_y K‘?uÀ[þAp“¿j •²Xy»þà¹YÿÊù´WÿI~ýËû×ÆmãÈ N]û7€Výçß«ÿÓàùKÐ:ÿÒ‡€§Îùõ^¼60a þÂç€§S÷þƒ IÿÔWÈjß«t˜þý«~®n©õ®ùõÏê_óS‡Ì?ë?Ö òûß çUõxøÿùó'çBWÕ?w oXxÙß´®ÿç]â5f×>ÿAÿüþ§hû‹»6Í?‰_´€ëµfùõoS¾€~õ³ð~­Áû—| Zÿ~ =óg.@ÿÖýƒùïÐ³~Ö &WÑ¿É –òg .Æ býOƒÙ²| µùõß­ÿrþôTçO€ÓÿTƒþ±ü©ŸœôO€‡ã@Nÿªçu%â ô¿QÝ?ž?ðÅÀÒümúO/-ÿýKl5Ò ä¿SÙÿoIÿ"úq Ö?rú?êõ_€üs5ýÿ>Vÿå‡ÿi`xÔþÁ§þÿøñãÇi@åýÿ¬ÿŸÂ‡ÿ¥¾têÿýÕQú~òë-ÿ8øY?€¿©ýßò÷@âÌðóÇ`ý¾¸þoßþ×ü™øvÖìp{¡¥ü?Ê?Y@É þvîÿ’ÿ}•ýòŸîò1€ŸÑ\/vó>¼8ÿ´ÿ÷üü—ü©ÀÝ%–óÿ*ÿûXš¿UÿúÌ^>ý¬ÿÇØýÈŒ¼’¿¾ÿ·Œþo‰/X˜Çäk>?Fï¿8€Vý'8•õÏ@ÎÙáÇxýïò>xýßVùË>ÿëÐ?¡þýç§€×ÿm”ÿº€¼Ãœõ¯@Rþ1ûßŸ^ÿ§Yþ—„åŸw½û^û˜ùƒýÛ á@&õC˜õ¯@bþúÇðº€×?nš¾€YÿâœRóÛòúOOEùðþ7½óÜú¡«mó‡?¸ù‹ÎùGîßj ‰G‘Ô®Iþ#ç_ì\@§ú¡$^¯cþÑû×Ÿ6yêêGòÑ¿ß ¶{ºÔ×?<€ÔlüfÈßc åØüÍÈÿ• ÑúúG°áÏzäÈª/RÿŸM~Ö{+Éñ×êÔm ?+ÙË¶’â¯××?a )¿ím{«ñåo7€ÀNG—P_ÿøîŸ~àø³Ÿè”¿~ E?!¼µàô&Õ­Ê nPüSÂYü…ò÷¿YÀÝ
i÷íåßh |™›¼ôë»À!Å_šQñéýòçàö‰A+Ä¿YÀ×tÑ›\«Ÿ›_ÿ¤<¯,`)ÿ%XFþË ÖÎþÙ.ùû`9ÿ[¯¯ÙX[T,rýAóg ü“â¹ý¿f÷_»Eù7êüAáû|YÉÕ¼¿ü‡ÀJÿÌüçõ9Lù›àmÇéyøË¿Ã š÷_¹Aù÷Àéýäß÷®ÀDO§ô?üy6@~þ¯_ã{’ÇSÀÞý—¿ì¯~þ(é»9ùw^@x Ë_°õ½XÈÊ?û«_¬ï ægÞ¿2ÿ÷îCè8€û¼Á×ŸÖá+çPË,`á9 	ýo/´üÍÿŠwþßŸ¨Á N«ý'¯ïß³ëÿÝ\¤uþ=îÎGT7€À)àåVÃý_ò‡ìŠä÷ó}íTà¶ÝËmÆòÏðúç†ù·½ÿ_Ú bÏ»­n_ìÿr±·?Î"O%ý7ºÏ>˜Ú¼œÜà¼ÿ¿þmòw¼‹>ºÒ÷ ?Û2€ÓJþ‘¥_Omðº€Éÿ¯ô¿à´šÜ_èÚÎ¯îÿº¨âO­õ¿ñ”ùðÏ}û‡öß­ÛFú× UþµÊágiwÄ˜îò'NàÔh IåüCNÿ›JzE
äŸo ³ú NÕÿ…Æï¦½ä÷¿ß@ í ­ä¿. ß Jú/NàúWô_È¿ü·‡ëë_Ô?ðÑÀôÿ68äå_Š¯qÿù¶@ÖÃ?R_þª,N ÷ 2òÇêë_Ûaû'?üãñåo2€ÐðûÍÊüz3ý»Äükõåo5€ÙVû_ê¯,àRÿvIýWëËßr ÿe`š?²€iþÉ ò¯×—¿ñ þ+ïÿ;¡þû Öþ	õåo?€é¢ýïó0ËÀZþ”úòwÀd‘þóüü*ì¯~CèÑÿu Õù7ºó?äõÿ’½¿ú­5ÀRþß)ù_P•Û;ïCh:€Åþ¿kú_®&~…ýOÅý—ò/¼¸\Mý£àÔ£ÿåZê÷Ó®ÿïšþÁw —k©ßUƒœÒúÿÊê½šúå÷ü[1­û¿_MýäöŸàõ/ªûß`r5õ·‘×ö¯…µìóŠÔßNFÿû0°öÃ¿É î^ú[Êèc½ÿÊçgúwh÷†²¤¨Â÷Öû/Ò~[ùùS¾ÿWœŸíeæOyþ‡ü&£~Òó¿äÿØâõƒØüé*VÿLþÑ‰                                                                                                                                                                           ìîÓÄÞÇÂöÍCö>>vKoYV}øh
ò›ÀRØßÏo £÷7€@ÿ±9®Gy$ë}3û;GìæóçÏ×Z›Ó?åRŸ_*‹>Oå^y­YzÿõËÕ')õïÝä³zÆÃ~ÉÊƒ$9ã;8)ÿê™¢ßñ,–¿á}œõC…ŽÖjþïä•þ»ÛÈý?¸¿ôÏ¿ë Öv£C»ÿŽX=Ømèüû`ýh7:²Áû—~Y(û"ý`Çþ™wóúg{ëW]ýúþÛåÏ»›f]?í€‹^¹ý?7yw8à–¯`,½úGÞ…w8â–·?–Çëo ûõÿÜâCø‡ÜôŒäûû&PKØßwï??èÖ¯`]òß ûQ·ÃxÌþw‡ÝáŒ¢Sÿê/ÿMnfõ¸k^ÁðúäŸ âàb7 ÿ¡ûûo~ÑÔÜ>|ÀD×!xqàüúoá¸ù[}IŒþc;n~ï ¶pàüUO"#Í¾ù×êêßÛžùÎïòWx~~~^½P÷üË½ï]?a}óÇwþ&Ñà.ù×°Qþ@âþýŸžžN§ÑóïØZxÞ¸{ÿ§W§±ó× aýíû¿åq Ïmú·¬À©cþÐ¦Ûú±þ§®ù‡ÀmþÒ¤¿¾ÛˆÁöáÊ[œý@^ÿêŸª[¾–ÿõÊ§.ôOî_ù”úÄüŽÿ4ð rûW=£ú!ò?œ½ÿÍ2_Û!óëŸ;€Ï‚/i›ÿÏEãþ# uÿ¿Só·Ë_?ý[õ¿©Z@§úuÐ¿MÿYýÀšäÔ/ÀÛUôoÒ?˜?ïpªÈŸ?€·«<Ü¿Ý òçœªêgàrý[ô_Î?ÿ0°Çƒ?{ ×kèß $âçòg`¹ÿi$[ô}1 ¨~Ãþ×+Œýðo4€xþðƒJ¾§»’?c Nÿö_@¾-úŸÆòHýWó'àýÒ£÷o1€¿ÛøüeßüýÿæßvýÿnÖÿOåéÿ4 QûËßæð÷Ãô?i«þßÏÐÿý’ò7@jÿ—ü9øvÖ³¿üo:÷¿Éÿ=+ÿtú/<üO#«èŸøð¿æOÀ5ë¼_l–ÿÇ§1•`ƒþßZöŸ\è.ÿ§1•öÿ›ßÿ{vÿomû¿ý)T¤ü|U7€Äüùý°z³ï—¸?õÖÿ-pÍþùçÿÛþßšõ¬?Î ~6@rþé R°ès\?êÿ1`ÿIþë‚ý‹&ÕŸ÷¿;Žnlð`î6ÿýg§€S^äÕü×DâßO âCÀŒeÜÕ´ÿý®—k•? TÿfeŸæfùGí¿0€íóOPö5 œþóüÃö¿àu×vÊ©Àûõºç·ÿu ç	\ÿ¸GþûL®Ø=ÿÀý'˜èP=ÿí§Síòÿ8¸x»ä_ì_4€ôüƒ÷o5€ø+ÿ§j ùÈÈ?Jÿ®85Èßp 9ù‡ï_?€ÕW]Ý?o9õ‡É¿Ü¿v§Mú'Oà”•œþ¹Èûrÿý_4Î¯ÿò š=Õ»aþ³¼øÑúå p©¯:»q\Fýx~ýWû»>6’¥þXýË°<ÓžRâ¯Ö+ÿJÿÈ‚8íl¥}JþÁúW`¶Óá­×-ÿjÿûüxànžòó×?s å?$º¡ðÏt¥Ô/Ê ¦¨ûIáþ _þòþ·Ï™;³}vþ!û·Àl_nìUÿÚ?­þ˜ùðsu Ïõ[ z›Áúò7ì÷ìÐÈ‚ù3ðõlòÿ+7)ÿq°”ÿf/}o
Ï^6}ùÊ-†ó~²OþªT¸  ðü%“¯Ü¤ü›àçú ¾¬ ”8ð‚÷—ÆoQþû¯ ¸ þë‹ã·(ÿXZ@¼ÖË ¾nÑÿååßþ°Ú?ü.>6€è.çO­/ÿvˆ<üÏ²ûGþò÷Àë
ÞÄ>ú{‘Û_þÃâýcÿ9ý—¿ì«þ~§€h°µü3DîÃ_þí÷.à>îÂA¤ö?ü}É·Jƒ,~Î–ØÿæB±¯þ×}è¿å½úPºæi¯þý÷ßßÿ/¥å;ÿíïÖº€…ª–ûŸóO°Ú?ò-õ[¨À}·Órÿ·üï¸¹L8Å;ÿíïÍGT?€›ro·Í?{ðúçPýâwþ›Ý@õ ÞÛ]o3Ú2€‰†ù»Þ]PÅ žºüÞ±à<RöÎ¿ýýóñ¥ Üé™ÁÁþ£ýßpŠç÷›zh=€{«ùßpýŸÅü~­O…ï²vñüüåo9oz AþHÿŠ7š©‚þY¨Î?î¯snì¿‹û,ö¯ÀyõùGýeþâ7°Ô¿v §šüáþm_ó¨ùçæß¦<ÿÍ &×úßUÓƒ¨ÿýý7ÀZÿ·Û@]ÿ…¼ÿEÿ¬ç¿uß jû>$\ïÿ¼Sÿ@}ý«ûG&Òÿ÷ÅêüúõëWyþ`|ý›ô_ÚÀú	àZe¿Þõ_ª/³„&°Öÿ&d “ü“$ç_¬¯Ëþ	Äp—i 7õ'Hë‰/óÜM Ú–?<€ûü×¤äÖ—¿Ç nÙÿwJþË ÖûÇëËß‘þ¡üó„ò¿`-¿ú‡@rÿ_ÅýWêËßu ïØ¶ÿõŠê·Ör ‹ùï°ÿu åù·¼Û>²ìÑ_ü.š ûÿÊì½¢ú4@Ÿþ×ë©ßO‹œªûŸ°ü©Ÿú]e÷?ué7€ÉõÔï-³ÿí N‰ý5ì¿Õ3Ž¬þó,¦Aÿ›L_™úÛÈèÿ>€S‹þ¯×÷$¿-¥ö¿,àòõÿOpPâo*­ÿõüëý_ºuñ·µS#3Ò÷ÿå,õƒ¸¿„ü'µ~` óKèÿ¡­å`ûÃ¤›xýÐ 6>@ö¦þð´                                                                                                                                                                          äÓ§OŸö>ö*cï¢¯÷Æ³ôFðÁEŠÁÇ——ß>˜‚ü&p=¿Œžß Fïo ƒ÷7€Áû'ÀV†íŸ?6Ö¯þ\ØA¯þÙ{¡…Ï¯r®’9¿þ`hÿ¢à"¹Zä\¥ð@YÍ_³ƒ°úü·×ér£ZªßôN<—§õï5Ó1­õowç~â·0€~ç©%äßîNé¿ãáš³»8¡ÿžó¸ÿîˆð67rþc÷7€îýwÀÊosp#ç/¹K¾p§ÿGé_.ïjyý ÿ¼û8.ûšÁÛÐÿú/ÄË¿²þØ±^Ñõú@ÿþŸ·ëw	]ò:†wàþ7·‘pÐe¯cp½ú/Ÿ½s,]_ÿ1ú_o&å¨K_ÇÐÞéKú·Ò'ì£·,K7 ÿØýÇ]þJFÖ«ÿâïÝN 5¯e`ò×|ý7t+«Ç]óJFÖ­›Ÿß‹lHþºåo#vÙûØ>„cçö?øÍëyþ~¬“Cç×¿»Cç×¿»Cç_û €jÇÎ¯o{ç_««gÝó'ýÄïÚEj‚%}ó¯œ¿}|÷±û¯}HÿÝmS?\xåÅTy>[¿X¯ü·õÃõïœ?a }òß×_;œúxzz:\¿j Më¯œ N]<½:Üu mëÓ¯~xê™ÀLòž Úu_yˆw=ù:€iþ¢œ6ËßÑÓ°Èì_ÿlªOì?Í¯ÿªªwûÌÛÿiÜü©Xñ÷ïß¿Ë/m—ÿÏ‹¬³þ§ÂiRÿÏ–ù‡@ãþ7õPŸÿ¶~íôoÓV?w¥ñ+ “ógàT“¿f ú·è¿?õ£€Êú¸Ï¯Óü‹ŸÔØ×f ú7èÉ¿üÉ`ö§|Ñü¥Ð¿~ Ñü±¯äùÓc ú?Jÿ?=úœ«þ7ê_2 ýëðw“þëùõÏõÁúç`ìüúÞ¿Ég€«ùÛ`“þ§Á´8<pÿÑþMN éý¿ÿžv“ß^mÞÿ4œ'€Ôþß_¥ç¿]€þ]lÖÿ-Ê ÞûOÐ¡¿ü-žÖÿš?a ßBèßÿ4¦Úd>üsûç óÈåq¸þátîWÕ þvïÿ­Sõ/ŽÖ¿t yG.‹¤åöÿçìö¯6íÿò?ÎNcùùóçå½û/|þ÷Ïë¶ë?Ú ~¾©@âé?øõŸûø7(ù0ïí¿{ìÛ¾€ŒIÎÿ:€ÓjþëJ>(ºÞë5€÷üóôÈg±~` —ëté“Ôþ—Âý“¦Ÿýsòß/àýZýq[Üþw˜^0!rnþ•ú·L®—ô ç¬ðcØþ÷ùo?˜^²yý„ü÷Ÿ¦ ëÝÂ,ÿÈý¯8µê_‘¿é ÒóÓ?4€÷Ühœ?±Ã$×½x më§æo8€ôü£÷o6€S}þfÞÊèùú‡Ð®~ƒþ¹ÈÈ?Rÿ~ˆ¿Ú gõõoð>àÔ.ÿrÿ³ù‡êŸ9€´¬¾Òvý/ÚÕ+ÿrÿòœvèŸù["ùëŸ?€•$½Òýƒ8e×-¬ÿÏv¿êçN‡üó,],š¸þÑ,.`aÉ¯´Gþ›œÊêëŸ:€Àr^k‡ú¯V¾ß+æ î0{b@Aû‹ÂÂÖê˜?k å?"¶¹À“ºWóë¿¶€ºŸÜÆÂÏô¬×3Â ¦O¨ýYÁ¾–ƒüýc8Ì
fí'ùêÛ?e ÁŸYžÀ—wŽùKBýkùë±€Iýæßn¸¾ü-ûß?C|q³ü­&°x³ÑüIõ‡Îßx _º r«òo5€ÀO
Îú‡CÕ r«ùï°OþvX\@¤TÕ b7*ÿ–X9DRåàë×¯_¯ÿ»ÍHþ´úò7@ê	à½írþ÷ä÷?_Kþ>ˆ. åpÓ6ÚÿíBòk ?Ë|lGó¿]*·ÿù:òçk1€Õþ·íiýåß÷7€`Ú¤@^ÿó5ÔßïÿÐÝ©½¦¿ü=ÔŸŠ½ÞüBþÏ&ÿŸÐùì/•>8Åú¿äàåæT“»»óe,`a ÷ÍN±þoùxýsóü›Ý‘«z 7ÕÞo7–6€ËŸC'“òüÜ{Aõ ®Ý¦·º|ö¿ë?•žßÓ|ª@äIa³ý×ûÏÏ%¥û5»oÑc §üþ÷§’ÂüÕwÇ€ðÜj ©WXÊï‡{{è>€Üþ%ùKßxR~N°Í jóû½.ýl0€šüÑ‡éÛÌüþ=~4d9¿ßéÖÛrÿí°œìßçº‘¥þ[ òðø·ywðßÅì%YýŸ·Ë?î¿åÐ±~xþ› œ?ôƒ¾-_ëxfùç¸ÏŸøà÷«ÂãZÉÿ¶€Âg¥ð½Á»„À[ý´	üú•ûðøß›Õ×FRÿØVûOóÇðëjú·¹ù/ñ eÿÅ¬ îò/à½þÍòþÓøú7îÞ@¼ÿ,ÿÂ nëO“ÿ®¾þ0Ÿ@l üÁÌò_ÞV_þ>¸›@vÿß)ù/HÌ?¯ÇÜ,`¹ÿï´þÁüoHê¯þæ˜.`ëþ	ñåß{ ‘þ¿“ò¿`­¿úXÀBÿß}úO¯«þQÜÿWfÿéuÅï¡à]@—þ¿Öú«ßIý N±þ¿ÓòûO®ª~?µïZõ¿ÀôÕïªêÐ©ÿÍªß[FÿÀ?ôþ?«ÿíÑ©¿äþ7h×:€»C#iý'8ué??0ñ·’Òÿº€ËÿVö»Är~6µÞÿ<ÉŸÛôýÓNìc5ÿ„ü)ý9Œüißÿ—ÿá$Ö_ÀÝEôÿÈVóÇ¿ýÏ£[Í}úo5ìéŸ|ñúl{x€ø                                                                                                                                                                          À¡|ú´÷°“OS{;Æ·ñb/ØûPÙ³¾|<ÙùMà4z~8ž?k Fóû'×,]ÇÎŸ³l4|þ…«áú'¤,\£ájøý‹gÃGè_:Ê}¾Jºø.ù ýÔ£4éŸsÅä½’Q?u
éÇ6þ»«fž²(ÉßðþM;ƒ§öïq„CZÏ¿åý›úŽc·2ÿvwpbÿ:hÿÏGê¿ë)jÌüúÞÿóqúï9Ðaóa Ñ£Þäð>˜Ôß :÷Ï¿ƒoÞiç\'ÿÝ¿þ‡ë?ë–yµÜþp¨þpù×ÔÿQû‡Â•\7t+ú?VÿüoÜõ7€¾ýsîß¥te××´þó$wÉ«Z·üúÇ~@ÿ‡ê_xt‘éÿ‘?þ_¿ýÛØ¤ñÑE6¤ÝòOã•žþÛÿ¯æø²PóŠÕ1ÿYõsö#ïEôo¡oÿj±"Žq„îØùW>Š8Ä>¶Çé¿6€î8xþõO#Õ¯rðüM¾Œ@Ä±ó·ù2Ëž_ÿÎžßoìlÿü+uõïªwþÕvëyåï¨oþõ÷ÞIïßÕï§cþÉ'o‹}|·³ò/õÕg½òßÕ_?Ô¼2Êmòà_ï_õÚ¨°Iýµ «^!Ïg	—k?_á}ò—- êõ+ÿÓ‹Ó¸ùSú·üNú§CõÍ?à ®ùð6ê×{ÌüÃ`’?y m¨þ´ÿ`hÞÿïDô‚uùÿLµÌÿ4nþç¦ñWP^ÿ&~‹<:€ç¦˜åÏXÀ©¢~í nòëß°~âN•õ+ ƒþKùW>È´˜¿f O£à.Õ þn0€HýŠÜå×¿qþfˆç×ÇþÑü­ð§Ï ôŒþkù0nþyÿç>ùÛ@ÿ¡û¯ç/€þëÿmÓþO÷o5€ÕüøöföýGèÉ?_ÀŸ>9ÿöý¿ÿžÜÿn}úýðo5€Ôþß_%÷ÿ¶}ÿÓX6íÿ–¿p úv iý¿ôŸ, KÿÑóïÓ¿h úwq¸þ÷¸þýýOj0€¶ý—Ð¡¿üäßBRþôþèÞÿ4¨êäö¿¿þ?/¦SzÈ<pù› ­øó¿î¼ýuá	 ï¸Õ¿Ø´ÿrüÉ6î\Õ Òò¿-`­~`—+tëŸùö~H[ô¿±œÿò^ û3ÀÌãžÔÿñâ4œŸgo.@óü7˜\§CÿÓ{ýð’ÿ}e(zø¯ä¿ýtàªmÿ7×úÃõ¿æŸ- çVºä GÿIþÑ0í·€ÐÅjöÉ_2€Úúƒõ¿ÍûqÀìÂ‹Q{å¯@ê"îòÝº€ûË.•ítò_ÀÊ{€Ì“Â}þÑû_0³–9£~zþ6È¨?XÿŒ´«ŸÕ¿ë ùõ_Z@³úYùK>	¨É¯£D^iVÿ¢/¤ôÖ­¯œšå÷ÏY@øúòGú/, AüüþK˜|ŠWpò_È¯õ)`õU6ë£ÅƒÀþ¹hðƒþ}ú°pQùú—|% é5vê?À)»þˆý#X\ÀÂ_a§ü·8•Ô1Ù 2Õç­ný/ˆ\ š_ÿèfß*‰Ö-ÿšxý1ó§ æ'„n3¿þ+¨ü)±©ÎõCOì\«?jþÕülø“Bê/ýH—üP»‚¶ñï˜w’µþÈùWû¿/ 8€æhÿ½ÿzþ¡û' ðñÈ¾\¤½úö§}ù›`uüéxAâ%ç7ýËŸPôümðÊŸ±€Á[–›üLÀ}þ†ß²ü›`eý`é†#ùSêËŸÑ?a _:`évåßt ?×ð¥Ï –nVþ#-àü’ô¹†üû Kù4€È:}˜Û?©¾üuH@õqÉÿ(8ÿ}~ÿÏ²ûË¿ó–?s ïú«Už^n£$l òoªêðzïüú‡¾ô_ž¿Ñ½ô‘U¿xm–ôºþÍ=¼üÍÂg~ê·R?€D)ýg'”Ò³Í=2š”ÿm—?æ/½'F•2€çÚ¤öŸ(Ë_poÃTç÷^=l5€¾ùóßn.Š>¨ÿI¡œü+ý»Ë(
N Ï‡Éßé@Æ’xÞ6ÿBÿ.1¦åþ ¯#Y^ÿç-óú·õÌ'pÚp ‘ücÿ:çMú'½ø}Õ2ø=kÞ>®þ;üý}þ„À{ýâDóüO¹ôŒÿnöòÅßÀmþø~½KøÓ7ÿÂ®âýgù—0©» ùwÏ™@´ ÿÒ îòO ÿ!ú/M 6€ß©˜×¿Àéÿ8n`¹8` ¿rûw¿ÆµÒ?°^ý_ ÿñð_Rÿ¥ü³,ä€üGÀÍ*ûÿÊí¿é½1¢ÜèÿÁT Mÿó äßEå âý'æž ¶¾'FU5€ó_éÿàÙë;al…8uë¿ñÛOòW„ûÇòÏ¿´í›Î›”þ“œzõßòmæÆzÿë Þþ·þôÿ-€­ÞV‚Vò_pjÝÿm ¼…¬Xé+©ÿêÇKrþúþ=ßúKÉ¯ÿàýãßþå‘¥ä×ÿKÈún=ôéŸ<¼µúÑgóÄëŸ©?<ñ                                                                                                                                                                         €ƒø4±÷±°gýºÑÁÍóÌã—t9¶ûÂKí¶:‹ÐÅZíê	´9‰p ü9«÷Ãó§7¬œGíŸØ°n=6bÃºõpàþ)+×Ãó§4ÔÿÀô[ÿþuã¡/ýÇÖ½ÝxÈöybÿþuã¡¦~Êƒì?i°äå_[B¤Guýµ[yå=0´hþ¥»7±åý5/–Ö?ãŒEMþïÞŒÓÇNG8dþÍîÞôþ»MtÌþŸ’ÿÒÇsÔù·¹{«úÀ8ý÷;ÄQóorïV=üõøþÉŸþíxˆÃö/¹w'ÉÒ¯ ÿéÛ,ë:%ïþ kþì;÷þA›y­‚Ç¿þê?¯–Å…üN ÇïÊVr]ýÇë¿úôoý?vÿµ Ó¿‰÷`ýÈK^Ó¸6ê_vpEý GÇüÓ~…GÉïpüþ×~Å‡§ÿC÷ëwêÒß—€[èš¿^¬ÿé0GùÀ¹¿ç€Ô;vþù/™Z=ø}óa=tO­vðükýgÇ¿Ç1>²£÷¿@è‡8ÊÇuðüëýýX•ƒçOéO…ƒç×¿³ƒç÷k ;;Hþå¸úwuˆüÑºò÷Ô=Jºx_ý;êœ?éÁ»zõ»ÙâÁ_ÝŸ~6Ê««ÿŽúÕ_ýâýÝ«_%zÕ_ùæýì²õ¯êg<üÙW—úYvÕ¡¾‡ÿ<?'^°uü3õwöüb¿×”úOOO§aó·Àßw§Žþ\µ¹½§§aó·À$~Ç¼·o¶€×üãà=‹Üçï²€ûú-pÉ?Ü ZöÔo¾€Püxt ÓüµXÈßt ‹ùë0É¯ëüí©_7 ýûöÿ»AþŠ<Úÿ6Õ þîßÿO“þ# ]ÿxþÔ|;+Î¯ÿqûÿM­¿¼€?½p›äþÏ{ö¿æO !¿þ{õÿÛºÿ·¢þE7ÿ¼ÿs·þ3ûÏ ÿGèÿý¬h úw°uÿ—üKø@¯þwùïÿÜµÿ[þ¢üé4 ý7ëÍŸúà[ÿþCço6€Fýcè?BÿåO·éÍáú/ OÿÁþ­N -ûß.àýo·èÏúÿsqý›â@æqËßf Iùßj·Â@æqËßf ‰ýß©?™€þ[Ù®ÿy kõo0y%óŸÆU=€äþSËù'	LuíZïþ™ùÃhÝ_þV(è¿’¿l yG­þTÏä/@ÞA«kÃþ	ùCèñîÿü§/N#úùæõÿJÐ#þ 2úòÐ­?æ .ùgÈ»™.ùhÚÿt[ôþ·È»™æïüKP›Äüàu/7í”?o µõõ¿.à<û‹FºvËŸ5€êüú¿`.Ò6£~uÿÕß<ˆûúúGy§ÇÏÍŸ1€À‹2óëßn ‹¯ñŸ>þufþûw@ìõeç~/håÄ¿ž?TÄüÁþ‹¨*ß²ÿµöüoÊóë_u
H{}ÿ4ÀLrþpý1ûç ò×|ýÓ±ÿÍ "“?¡ág‚»ö¿àTPÔþ)˜}=°4×óŠåú£æà}¡o
Äoùñ_ëüú' ôŽÑ?VÜüÑL¿!Ðfå<µGþ‚þK¨Ø@ïúá§uGëÝ¿p èUÿþç9ßûË_>€›ç´Aûúóø×ü+õGÏ¿:€•n w|ù›õŸ=A´ïYàÔ2ÿZ}ý3v
øò&å5·ø˜/œÿîé½ò× ýpÉŸ¸€éR.=»iù·ÀÚæùSa~Ó‘üëõåÏÀërú7@à–«üògàçú ¾ô@à†åßa Ñ¯ôëºaù·@ì°yÿšwýò`y/·Ò«`Xò7Ö~ i¯÷ßÿmõð?ÿ½ü{^n$7ÿ¿¯V.•~ö—›$ aÿSÃüµwÒ‡Ö` o­_á¿¹'€×ÿ—¿—ÈpÉŸz8Uæ/¹G†³Ç ò®%ÿP:€é7{¶ÌŸ{/Œ¬ã n¿ÛWÐ¿ì3¿üû`lÝp÷ÝÞþõ‡þÛO¯êžÛ_’¿âÕ­Ó Níóû¯N
Þt@vþž3„üÀóæùýlwW‡@æÙ¿×a(¯ÿó¶ùýZŸ-„ûo8€§œþ=`x¡þ	ï~OuÈ?ï_÷f²l–õpS¿bËù‡ÿuÎÛºÍ¿v˜å_YÀ¯w©ÿÁ™ÿîbå`RÿnÑü¯èöÒ¸ÿï´úÓ¬õ§‡ÿÞ`!x ü×ÄOÿtÏÝ@~ÿß‰ù/ÿý'Ð ÿBþ·ÈþÈîÿ;5¿þGëÜ@°ÿïý_ ÿÁ0[@]ÿ_¹ý7»Æö_úô|yý'÷?@þý” «4à°éÛÏâî.–ñáUÿßr^å gÿßl&ÖûŸºõŸ`³·—™µþwÿfDÃþ×lòv²(Þÿönß¿û›ÇºXþ‰ù“úó€ô[‹þ»<õ’òë?xÿµoÿñ°’òëÿqµxú,!ÿÊÓÿxhëõ°õÒËZýà 6=Bº[ûÙ?ñ‡§=                                                                                                                                                                        ð¡}:Ûû ¨ˆ÷©òêWMÞjÓÝÕ·‡R_.ØßC}¸Åüpx-ÊÅúÀaÌ£DÃ¥§kt3ô´©¦]“á€ùãéÿaó'åk±!šß ÏŸOÿÝ¿z ›¼•ôÊ¿°z@ºÿZ@ýÇîïÀÇÎ¯ÿãÒl[ô—SŸ'V/¼A~ý÷ªŸ0‚å­òWÏ‡ºüñDb´ÈŸwiç,Jò/Œ Þ²*~æ~rÞmQ–?tç®Ä,)_òî#ù]UùÎë·ž~zÙŒþ«I«þýïÛúüÐ/ÿû6»ÿ.+·ÿçGèo ÝòÞµéŸ¬göße¤#÷/ºooÞa§\´îáo ‡ê[,ùâ5ýà8ýï“e\AÿÃåß ÚVŽ=û0ÇÕ·ÿ,YöÕôÿ ý3¿aWÕß Ž×?ûÈô»Â’À‡î¿8€õƒ/ymcêÚí»ÄÉW×¿—®ùó¾ý»|õ…þ>8|ÿJú÷ö€ýŽ~û#}TÇî@Âáïp¤êØùWûû&p%ýwèüëý=lôþžZåÐùCýç:È±>¦Cçý¨áÔ1Žõ!}ˆþÓ7cë#|pÇÎŸÜÿLüÇÎŸÕŸGÊj«_ÇÉ®+_G©¿ø­bý»:Xþ@_ù{Ú"Îïû½Lþö6xð§•‹¿›þ§þÄxï¢ÿ{~a­ÿÇ}êYïúœüƒStâ“âïÕÞGÂŽñ{NàÏTŸW1ççççNù;,à¦½	4©ßhú­ªoÇè¿¿á –ê·ÀÓÓÓÓiÜüõXÌßl ‘üÕ8çp ïùkÉŸ4€o¯
ë×à5ÿxØ¨ÿßÄú±üé8€§AûOó× žu “þXÍ_1€kþÑ°]ÿ¿éùÃÐœþßŠò`’èþÏó¯¼X€þÞÿm ßÏÖû+êÿ§:ÿØýŸ»÷É_2 ý?Bÿï‹ý×Ð¯ÿMþÁû?÷íÉŸ4€Û—êäþôØ­ÿmþÑû?ïÙÿný0rþf'€Üþ±ÛÚ¶ÿÐÿf'€–ý/¸û;ý?Nÿ»kÿó&ú*úô<ÿ–8_lÞÿŸ{K¯Aÿ>6íÿ²€XýÈzô—¿Ñ	 5ÿpý¥ôøŸ†´[ÿåüÁxøx ùý£õKyÔò·@vÿµü4ï/ÿEÿ@vþÀz>üOcë~(éŸ=€¼C–ªr yýÓòÏÐ­ö›ûU KþÌä±ú3ÝN ¥ùïÐ£ö[ú‘u:”÷Ï@ÞñÞÔÿñã4°Ÿ¯Þþ¯Ã *ò§¿È<Ü÷ú?^Ï?[@æÍôÉŸ~È;ÚÉCÿâ4zþû/¾üTþ¤úùýPöÆ¿××¾€ù…«Þ¼0R??Ú êóëŸp
ˆ¦ ðêªû·û07õ‡í?@ì°š÷z‰…WVýë€§ùõO9¬?Àãšô¿À©M}ýç~"P5€¢üÁçƒTÅÔ6°ôSÁŠ´ë_%Üþ)X^À&ýÿé^_ÿµ„'°Mþ¦ýå/@ýïˆ;@ÿpý±û/ °€çÇî¿Tìü‹ýï>¨ÞÀÖýï¿¿+á Ú<KüŸÍúŸÙ¹X_ÿÈ P0Múß=«_þÊþïJ6Ð½þ}û÷ü‘úò¯ ¶€¬t­ˆŸ”_ÿÊäL Ó¡þìIò Ý®š¥_¬ó/ùëÐagõíåß¦ÿÛZ ù7@|ÓÛúòåË—ä_©¯î ~¦àœ«È¿é b8PÿóKäßk ö—ÿH¸ÜLvÿÿý·mþÕúò—àgÒ 2^ë¿gG+ÿ~. ùÕÜ~¢ß´¿sÿŽ§€Ä×qû¥ž—ü¿î¸ÿZ_Yù»é<€`ÿìƒ,ÌŸýz†”¶€ÂÌ¾Ø›?í» eùËîu@ü›=iß’¿»PÜÿü×ê7Õi õýò—Ý£ë;€¥—µ?û¾ù¬>=´â]@é!-ä÷ÿ>º Ffþ¾3„ÜþÏ;ä÷Ó]f Kg?ÚßÛBÿ„÷ ¿¯6Í_ýÊ¸“Üÿ9X¿Á–òû­N™å_À}þª	<¥ö¯}3‰¸ë}Ê¿2€_S·/ZÎïºnì?>€pþØnêßM òð¿ ÇÛJ\Aÿß©õ§ˆæg?ý'ç€þ6€ßyýò_ ÿqå÷ÿžÿm òX}ÿH~ý/»ÿïŒþ/Wÿý÷ß±—Wöÿ•Ý¿ë[Kp ±	ôîïî=Ä °ÞÿwFÿù	 ÷KHò N™ýeöïý†R¤kÿvë˜~ùïÔ«ÿo‰V¾û[Ñÿm ›¿EjÝÿ¼€]ÞÒŸ‡¢ÿØZ~úÏÒl-¿þËjöí?Sƒþ;9M4zúªÍÓÿx\-žýË#[­¿úì]¼þ™ú£é                                                                                                                                                                 €åÓ§O{»ùôjïÃ`×ü0x~<¿ž_ÿ±óë?x;¿þƒ÷Ï€É|´üŸ*®ê<ò`ÊË­Ô7GP.%¿\E·Äþp`5áRûÀaU•Kîo Gq›¢6<ôXÉíšÜ‡®§ÿù`ðü-°éÛKÛü>Øòí¥u~½õ ¶|‹Ù²Ú+Øð¦}þê¯m÷³yÿ„W²ÙÛKŸþ•Øìí¥Sÿºlöö²KÏûèùë°ÕÛ;€ÏÛ â“€†oÿØ¦õSFÐ´¬§þ;å`9EãÈ¿gþÅÄJÔ/ uN[Ü7§Ñó‡'‘Ñ·j-wo@×;iäü+ˆ¾0’>åÂ	7”ú1ÅùCwm$¤iÖ…“ú¯¿³¢AÿÐ=›ý$žœË&öO8LäÏ¾gÓó`éð+ïÁtëŸõ Zö7€>ý«O Y®èo ×¿` ËG_s&#ÿçžù9üòûc4êŸ»€Øá—ÞÃéÖ?Ü«àjEý`çþ…ù£· ÿÃô_È•©¢¿ì×±V¶Õþp¸þ‘XÙô´þ±Vô´Çÿü	<5‡·Úß Ö¿­ÕüúWzôþ>¬sèü)ý}°Šþc;tÿõÿ"oÂÇû€þáï»À¶ÚÃß³@j8zÿÐ›±Ç? ÷ÏÈx;v8àGtØü±úÁ/*î}Àé ùãõ¾¨,¾£å_Éï'¾Z}?ùÛÎ‘êË¿½#å×{òí@ùç¿T@þþŽSÿ½wà¯äïä@ùÏÖ~›È‡ô±ªþ2é;yŒüt#ÿØÔœüƒStYùÿžms\l%1þß½æÏ›^·O™Ûú=ðg¦õk ]ýÆ˜Ç·€£ço·€…úpðüëøö¦4¿:ÿÚ .ù£ˆæ7€rÏgûÿMÌ¿<€•üP•¿~ ñüÑ|KÀj~¨Ê_=€fýÃÐ¿sþç¾ù'øþ=Þÿ[Yþº<===†îÿ¼MÿïgwWÞ¿ÿ9ÿØ®ÿß÷üùøÓw ¯ùïÿÜ7ÿßIþï¹öíÿ4lÿiþšÔö_ûÀŸž¸ä×¿wÿïËýÏª>ü/îÍ?à ž MÿeúˆþþíÚÿiäþ­×?ÿöõÿý_Pò
ºõ;ÿ}ÿçÞýçþ™Ø¾ÿ4¿þÅ(í?Ý€þìÙ?Pq}úŸ¿Ñ	 ¤ÿRýðôïd«þ9ùCèÑ_þíN YõèÐÿ&ÿ¨ýÛ ³Bþ‚ä´üÍ×?)ÿý ú>üOÛ¢Aþìä²ü[ ¨ÿí äï§z ýÓóç ëxå¿Ów …ùoÐëáŸÿÆ~D•èÔ?y yG«~@¿”çO@Ö±ÊÖi §þý³ŽTýE=P•?m YÇ)ÿ½ŸgõXÏ_Ò?a YG©~0ÿûšžNÕù×?	Ì9BþHÿæ¸é?=sxwõœF7éÿ¶€ª¯.+ËÀ©<ÿK}¸í_
èÜÿfêëÛv
xÞ;ÿüé ñïò¿××ÿçÚ žÖ¿Àb}ýç˜/àyÏüõX:õëîÀóžýÿéW_þà BxÞ-Eÿ§x}ýú‡ð¼Sÿ²Ì¾Í;¯/ÿò ~†P8ÊüÙ¸y†ÇÍ×{ôOî>”LàŸ-ûßµÕ—?>€Å<oœ?u ³öÑúú¯`yÏÛöÿ§(¾üÕˆ, qÿlÑÿ)¿¾üIýãx>DÿpýÅúõÏÀÂ§iH)[×¡¾üíP³€Œ¦Eþ²úòç |yQ³ÒŸÉ¿Ñ ~¶>$\vý¨#ù#õå/@ËW/–pÌòo9€Ø) åäõO¸Aù7@d)¯ Üÿßÿ\¤*¬¾üÇÀ¿ÓþõïûÏ/‘¤Ü~èÐ´ÿùòv '€ù‹×oJþÐd ±®Þüº)?ìÜÿü÷ò7°Ï :ç/¾7F´É ’_2Sð‰_Å1¤²$ÜðRæ®ÿòûa\½þ0¿gþŠ;alñ”~ú:_í§~ç¿W¿½¾?òDOù{è6€¤oÕæ/z“¹µØ?a ¿_o·U~?áÓÝBÿµßº¿Õ‚üOó¯«™
õà.ÿlÏþ~´³þ±Ÿå¿]ÀRþ_orúOÐüíæÝ´~ô°Ð²€@þ_÷Róû­^ûXì¿˜²€ûþ³úwˆæg%ý/HÉ?]€þ3€ß‰X­ÿ> ù©ÿ·ÈL¡þñüïHÊ¿Ð—7–¹òþiùß ÿQå÷ÿ]ß7”yïþgýWò‡°Ç[É²œÏÿêûïð²"íËMúoÿÆ‘'ï@ZÿË öy‹èÖ5ÿõk€êÝŸG¡ÿØôœþcÓpÉùõ¼ÿê öz¨¡ÿàš~ûÇ£ÿàÒò'=ý‡GÔ ÿ.ÇM+)ùcØáij½þò ¶>VzX­¿0€M’©?:ñ                                                                                                                  þÏÞäÄ•-le({Îaüý”îÍnÚÒw¥ÄÌ"¿pÁ)v]œ½V/ö‰ç%ÀO                                              \×óo½BÏú&°¢ûü6°˜ü†°ŽÃü&ð´z~X<¿¬žßVÏo «÷7ÕóÄÅäæß},Õÿ¶ôù8¸bþóe°f~X»¾¬žß Ö®o +&×]Ó@gÏ#è}'¬ëy½ï†UUh¨ÿÒùÓnµç°°*ùSn¸×°¸jý=u`±ü[õ_»¿§®Þ?üm´½pŠ÷?(¨ÿÚýCÞT«K¦Vÿ°„ú_¶hCý/Ú?ç1 úµÒ¢XIýkùãC·ÄÔ¿vý°TêŸð¯²wÄ’¶êŸl ^ÿã¢ú·Ì¿?ýlu ãü{ØïPu ú·ï4€ý—ìN€þíóoà BHû³WÝ>lÄR(×ÿ| û/95€Ý×;|¨"3ÿé‡€½?ÉÑïõNOJþA¶ÿ4ã½:üiAŸ®!ÿ>YH`þý{u#VlþÐ¯ëïÞdèY)ßÿg—ûÿŠîòyýþMF–´þ‡÷é{°Ãø‡Ÿ«Ÿ¼îÑmF–:ýÏœ%¥þN˜°ÿÇÅÜúÞ5äÞ3khÙ?ñˆ§·šp`Ú÷O<áùÍê?Cÿ§Öý Yÿ€¤0à†ÓŽLÃþéÔúþYèo ÝûÇ~·\~ý‡è_ëg3‚ú@ÿþu~CwX~ýèôõÛzùžþ¡¬‚ýß”k÷eýÇè_RHþ÷±rèÙ›?¨þÍƒÍ§žÎ ýëß~¬àÔ2hýûÏ5º{Fö¯ÿð¹¦üñ.”ßALÿó?5åt­üwÔòØÓš9ÿÎWšÔ0VþüwâŒ•_ÿÖÆÊïW·6X~¿ù»±Ñò×þi—ÿ†úõœÿñk½>•É¿6ù'ÿâä_\\ý×wŽGuÁù?â×™À÷{¥ož]qïúU&ðßÆ²Y?dÿ}“VßÆÏ2€õO°[ß †Ï8€÷ü‡8ÊoÃ÷êÿßÔü0xþƒü7` §ùõŸ¦ÿßÿýwùþ0vþ÷üýØ?à@@~˜£ÿüûØ¾qýçÏÿº›ÿfOý Õ×¯-ú¿ô?¡E_¸@ÈèÿµMÿOÿè_=æ ‚û¿ úÖõoÐÿk›þ)j÷ÿçŸþyzZ½ÿ×ºùs¾\u oõõ_¶ÿÏüËàk‰LÜÿw~ý3ÕÿËoo@ÿ&ý¿6îÿå³ÆýWÏß±ÿFüýTêÿžÙþÍ\sµóëŸ5€èþÇù7P£ÿMþuû@lÿÓüŸP¡¿ü[ý¿ÖïR?~ 9ùWîßè :ÿÃ J÷—ÿ]‹€§„þ÷(Û_þ¢¨ñî×?î¼ò7@Rþ˜¤ç×¿þ žûß Rþ„k½ ìTy÷@ÔQå¯±€*ïþw(Ô_þÖÈÉô sLùwUÀSVÿ€ÄRþÖÈÌ>€ˆúÄÿDùOŸJöß@Äéäo½€§üü'ˆ8šüAò¿ükZ¢ÿÃ "Î¤þ¡ÿ½)õÕ m_J ¹¾ü›ùë. 9ÿö³A¢Þ¶üý-àk…¤÷?znpõ#ú×Z@Fþ¼<Ô—ÿ¬ÿÏ< w_ú@ý„þð¥GÿÇøêà›Hž@fþ”ü³_ÿÿþïÿ¯cþ»øÚ#ä >·ÿ¨ÿ?$\ÄŠ(³€ù#ðÏAýŸñõê°€¯ÍóàŸ úú Ä
åÀ?¡õõÀÁÂ&¶À "êËÞ?wMsúÿs˜ÿ¾¾þq8ZÀÙ¢Š&÷«/ì vÿ1xº€¸¢iýÿ9Ìÿ©¾þ	H^@\Ð’ù¾TþB¨°€ˆ×Ý¿ùØw~ùSp´€“Û=ŽúíÛ· ×Û"ÿ8ü}OÇýo5¶¾üY8XÀùMï—ý£ÿñMÊßa É_<+ÿøØ¸íÈþ'·[_þ0ÍpüÒÓ¯ø{ç¯%ñc@ÈM–iA7½W¸jþÄ»aaõðæ¤~À-ìæ÷5¿Bª ù“þ„üñ‡â‡JŸÜHIüèïû}EU@bþˆwÿ¸óðÉ~ÿ ¼¼¼¼ìßxñüžêSÁ^ÿÓxù°}Ëiù·úÿ~‘úUl÷?ÀMþÏÿ1€ôke[lÿÇü[(ÔÿþåÚ×ôÿl ›ý6°“ÿß[Qïþ´µß7ÿí6úßµßš€ü#Iêÿi ‡õ ÿPvúæÿXÀ}ÿ½ú·0úŸçÿ€üÃIéÿk Áùß ÿxRúß ¬ÿ¯È? ¬þù· º\,¢>ý¿@hÿÏ ]®”a_ýyìÿœÿñ ñå£Fÿ»ô¸(JöIíÏøô_\dÿüúODÿµé¿8ý×¦ÿâô_\éþý®„•¾þË,Êöïu$+Ù¿×5!8¿þ×Ü?ðé_Ì&0ÿIÿ.G§„°üÇèplŠ	Ê0€æ¦°€ú»h{Rj9«¿=€†¤?ñ—§=                                                                                                                                                                —÷ü®÷IèšCïÃÑ³¾	\Ýy~X=¿¬žßžVïo«ç7§ÕóÁ…¤æ·KÈÊ´ Y!ÿNã …p‰üŸ„å¿K°®–ÿwå€}pÍú'z_-ãÀâñ`Åâ÷zßËzDïûaMÏÃè}O,éy ½ï‹=¤÷± ç‘ô¾3Öó<”Þ÷Æzž‡ÒûÞXO½†úÏ Vý´›ït',¬nþØ7Òúê)<€Ì·Z÷R¦ÿÎÛ­y¡Õó-×»L†ë¿ñ¦«]%S ÚEÒ¨ÞG€zWI£þQàŠ¯¨¼ëÕ?8¤þõâßjß?,eênˆÊ²Jh©³üØmW} I£!-ÿî ö+Ô€þ-óï. ³ÿÁë8i3dôÿ£xÿÃ›9©©ëü¡ {~\KÿáûG ®þöß8:±þ£ôOûL/ävŽN¬óü%rCG'>¸Õ£“R£ü vO’Ýÿü°$÷/5€£³dä~¸’œ»d)Ùýã}ÞÝ>/)ù}# ó¸7sb:õÏ:ëñG™‚ý›ü Æé-Gž™rý£¾àŸ$à¶£MTÿì€ŒS†Üxüj)Õ?ò;>±‚n=áÔ4ëÿT7ÿ~8V¦ÿI£§ÚùõïÜÿè_æO-ò@ßþµ~6;(¿þýûWyV^XýÛïþéß«ÿc®‡{.Ñß Ž”ÌÿC¡ô)_WÖ?Aéþ¥DÔßÛ'ŸË ýcòëŸaÈüQõo>ÞpôÙŒØ?2ÿÍçÝ>Kåßºœ¦GŸÏxýcóßÿsCÿ8×z÷ÿ|AM>¡áòçöêyöù—?»ÿÝ55>û|†Ë_ä'
Ô5\~¿ý½©áò·þ‰’Å—?j}Îw%æýÎ?†Ìÿƒü-›ÿ'ùk:ÿOòW4~þŸÔ¯dŽüïÄ/mªü”'ÿâ¢ò¿Þ)~–ïŠß6{ëžÀM{h-ä‘£~¹lÔ·€¡ìä?ÀH¬oäXÀßÿý¹ÿ“óÀøùoð÷Ÿûÿ7µ¾L¿n¾ÿë]þ¸þ§ù`øüûý.àè¶úÀèý`#ÿ™üúžÿ¶ÿSùþ0GÿÇýÐÿý“¿Öß Ï¯ÿué¿¶ªý}0¼ú@?ú¯­n *ûúõë×¬Ðöüy¨›ß—€[ôÏY€þWèÿuØþ¿øÏ?O«ûš=€Üþ_ÎÞ@­üÿ¼yZÜ×ì¤õÿ²iû-Ôéÿ#¿þÙHè¿w5úÿ¬¯ÿ×ˆÉ¿±€
ýç_¾Dö?«¿± ùõÿZ¿HþÇ”îÿž_ÿˆÏÿ¸ ùg@Jþ˜¤Ö×k _+öÈ? ùÛõ/=€§ý‹ý¨ü[ª 1è@Ô9å¯ôPþÝ?p ©õõo3€ŒüAˆ8¢ü(´€§ÊýSëËßäÓÀ¼ü§ˆ8›üðT²ÿç$×—¿Ú>&ðø‚/¥~&ù`GRþƒï¥×—?b Å&ÖÿóÓòþÑ'¯”êIþøÚ-æ >×—¿Ï¾t€úQþ÷fw yHÏŸ:€øòŸæÿ=ÒøÒv ›ñÕë_aYùc°_ýðþGøÚ>Ô Ô/2€ÿí zi`'¾úñý. ,kþ Ô/Ú¿ÔB£föW¿ü Š, ¸iÎ öêËŸ7€.šž_ýjý6“¤ß¾¼âYþÝúòÀÛ*,à÷¿½ pþ¼ûbIÿ«´€£¦§ýoÙ;«d}pØÿ•|äf ™éZ.êÕs<€œ/
'õ?¾Iù› sçaËäOºj>ÔÀé+Ô—¾§"òû.E‡¨ð¡[Añå¯¬ã ‚¨_ÛAÿ Möpÿ@þ6öúoàá/¿üTäÃýù›ÙÌ0€_õO&ö¹þ#ù›ÚÈús"·ù&PªüE‘ép ù÷&Ô_þ!ôßÊ¿¹½þÿÞyx¡ücHèÿ8ÏùïËoN@þAìõ?Êÿ°€ûþ;ñ ÿ0’úß. 4ÿí äGZÿÛæ¿€üÙèžó'ù? ÿPÞý·pšÿ} ò&ü³ÿÝþù?= ´¼D‚½¤àßè´¿0ªõÊÿø… †¤ÿÚ^Öß ¦ ÿÚâûæ×ú¯MÿÅé¿¶Jýû]qô_œþ‹‹ê÷åf“?êÛÌAÿÅ•íßë*Hœ?âÙ_L$8ÿiÿ.Ç'[hÿ“ô8:E„åýáæRÿ¨ëóRÚyý7â_Úqü7ê¯N{                                                                                                                                                                ðüîì¹ çs½H×ü&ð´z~xZ=¿<­ÞßžVÏoO«÷7Õó[Àêù`ñü;°eòo$—Éÿ)pÀB¸NýÇ¾!áBõïòM„+Å¿í2.Uþ¶ïé+pâ±zßkzGï»bAÏ#é}g¬çy,½ïŽÕ<¦÷ý±˜çÑô¾Có<šÞwÈZzÄxiþ!¬þƒ¨:þW¿dnõ©¿ÿ–«^,Ÿôª¿÷¶«](Ãõ÷4ôÌ¿ñæk\"ãö÷DÀÞô_\ßþo¾üåqBÿÅÔß ïo íÕß 2ýñ.ôoôÌ¿õÆo^’t“+ûcÓÉ_ê˜ÿ©Î­®j;ÿÙvïùêõÏßBê=±¤£ü8¸ã«Æ×¿iþ¨ì¿¤h"ùæß@VÿÍ[=³üMûÇ %Ô Ôošo ;÷~Rý·xfùÇèŸúOÀÜ3Ëß8Ì@ýüž	<JÿN¿àSþæý ûÌòÏÜ?ÿÌò·Ï÷UÀ>ùõïÐ¿ù¯ø?¹íÓó’Ô¿Ì òO|rãA'¦dÿˆä÷ôÆƒÏL‡þYG¹õ˜SSª‹ÿÇWØÍÇ›BýÃqÌÐ›=÷ò
õOÿ–OàyÅ|u­ ªçßïo ½ žê×¿ÿÇ¿þ­ûWûªìs~hÑ¿ÊÿŸ!´þï7¤¤rùküTÖs™þ°¯dÿ7¥ÒÇ~gáðjJœæ¢J÷/&ªþûÞÆ8ûDFí—_ÿTcæ¬óñf€ÃOeÈþéùõ4bþœþ¾0ÿèüwÿÜè}ú¹˜¿xÿ¶§ŸË€ù³þ·.©ññ§2`þÜþžc¼üÙý=4Âxù“¿ø³yUŽ?•óèÿûºš}:æOúÖiFÌßä—ˆñCåüÿùOêß”¿‰ÊïýÿI@ýç•s<€ÞGó«þ:ÿùë<ÿùk>ÿùë™ ÿêW]ÿõCñÃ|ÿeó…êW“ÿ¦ýþþÎk¸j|ßß¨ÿy¿É¯oÃÙÉ?€ù£°YßæÈ;€¿SúïÖ·€)òß ¥ÿa~˜ ÿÇ Êç7€	ò¿ F˜­Ùü0~þÛ q7­ÿµúÇ
éo é¿´×Þý +ý×öZq ú¯¸j kç×xú¯­n_þk«Üß· §ÿÚ*ç@±‹!šþ‹«ÝßsÀªûú5ã/ë?»¯?¤þmý¯Ñ?u µóŸ ÷öW÷«êz÷Ï½ùå}Í@õþ'È¾ùÕ}ôO[@ßþ	·÷Ï?ÿdŸéJê ÀKöÿç‡‡ºfÿ¤tìŸT_ÿ²HËÿeÛÖ«–ê/È Š. &ýþŠäÿ]_ÿvˆ¿9€ù?êë:€ø„æ¨<€˜óÉ_y Oó‡ ±¾üA(°€ôüŸ¤Ö×?t ™ÿ|ÊÈ>€ˆ3ÉŸ:€œo?•î»€ôúò÷[@Dþíü˜@Ô›|¬/ì ¾Õ?’üðµGþøT_þžøÒv ŸëËŸ<€øÒ²ÿF|ùû.à°qÑlÆ—?{ Y8ë[l ê×@ÆNã–€úc.à<m‰þ;õå÷¿ÿUY@@Úì¨Ÿï?_@HØÌþê—ëÿ{Å°öÛ·o»¯Ñ¯¾ü‰ýË.à(þêWèÿkePµ¿üµPl{Yoû}–Q_þüþ'‚ov·ëMþ¤þê×@™eï¯~ƒ. ôfƒª–Êz("¹€ ¨ò`o ;(ú¶óó=Îš"Pcç¯§~E{hñHþªvú3 õkÛî?È äoa«ØsD_~©u2ù[¹ÿÃé ~×¯6õ»:À]þ*¿¯Ãþù3&ðïOŸþ\þÎúoåŸÀ¿÷î_(Ñý7ð~sò`§ÿQþÓìÅ€ú#Hê´€£ú»¨|‘HÉ¿»€“úwPQýpžÿó š\"1^’ã‚Ì˜c ú/Ý?,¿\¥ÿã ô¿ˆ´þ¡ùõ¿æ@pœþ‹Ómú/.¡¿ü¢ÿâô_\t_þ¹ýW©·ë!R•þÝ®†hQùÃú÷ºRè¿¸˜þ!èt$ÏÞ¿Ï'4Ìs¿™Hhþ“þNNaùÐüÌ””ÿ` Kyçõ÷Ðò”t&þò´                                                                                                                                                               –ðüÓÞŸo½ˆëxÞê|ó‡6piÏzŸ•®ùMàzbûÛÀµ¤ô·€Õû[Àâù-àiõþ°xÿÍØÅ:ý?•öà°Tþ‡ÊgëàjùïŸÍƒËå?þŽ\½þy¸pü þp‰Ðgmƒ^‰¥Hk ËÅ¿úz\¦¾þƒêß Ïï3€Qô©ü†{Ü«êÿø-·¾Ö°wøÛ®|Í|èÕþè­W»X>éYïíW¹P6uÎ¿u‚òÉ¾Þù?¡ð2zÿûC½:NßO¯ÞÿçÊ©mŒþ¿ŽQê¢7DþŸÇ(sAÄ§ÿî	äÞ8GÆé¿û$ñÜ[çÈ0ù÷Ÿ$˜{ûÝÿá¶*ŒCå¯òVòÇ/åàN×ÎúQ#8ºË‡È¯RýÐ)ÞåÕÛèß"ÿáŽîñòë_ ÿÁFïŸû6ÖðG•_ÿBùw°§×.#Ëü1ýßîöúeäoÚ?j -Ò¨ß¶ÿÎ FÍŸÿš¿ä@c«ßº¹€ÇVþ	(qlùGéßåð ~ûþ… ŠœZþqúG Ä¡+¯k%ú·þ?<U×Z÷Ï=nè­ŸšbýÃuÔð›<6QýóqÎ˜›>6…úWÿvlÌíG|u…úG<8×ªÐß ª÷&¿þ]ú×ûõœÏÙïþÐ ¥ÿCChýãþ°§`ÿ­X™§¯¯ÿ ýß*{S1ù} ˆS:9Qõõ¿XÿÈúgý`®þÑùõOt‘ü[ßüÑþgWÔôø3¹F~ýS]¯¿¯ Ç0ö³Ê{Ÿ&æ×¿¡óçÿPAï˜È€ùs¾ú³}Uí¯`#æÏï]®`#æ/òSEò©žÿ?ÿùOÂßÊÎÿFý µßùÿ“6€Ö?V²¬Qû'<÷‡Õ?ö§æoòƒ ÷Éü¢·FÎ_ûGØÀÓ0ä¯kðü~è»¶”ú¯¿í¼üïôã|ÿþýû§?”¿¢Èüïí÷6ð÷‰éoÜ½LýŠ"Þ÷?Õÿ¼€Äþõ??¨ßÝfý‡üÌ;€úð¿ý3ÿí RòïÕßú\€óß ¡ÿA~˜#ÿÇ Jç7€)òß? <•ìo 3ôßûZ@~~˜!ÍþÐþK;ÏŸ<€þÐ™þkÓm½ûÀðùõ¿®šý} ŸþkÓmUûû
Ððô_[Õü¾4<ý×¦ÿÚ*÷@¹k!žþk«œßsÀ§ÿâô_[íþg(t¤ªœ_ÿÅûû! Áuí_ä
xúúõë×Aû ÿÖùÝ?u•óû!àvýÓP¹ÿþ JÜ8wý Èáäo9€’(t8ù[öOZ@ÍüÛ(vã|@¡;\vþ~*v ÊÀãJ./ÿ¯úúG ÷ß‚¥OW ¾þ1ý“¿ TI~}ù#0ØÞ6ùnëë?€áGþ¹ðåË—jõåO@»	|ù¡N}ý3ðµeÿ/5âËŸ7€¯ûg@ý
(²€ã¸_Š`£¾üc,à$î—Øª/¡ä-à´í—ìlÖ—Œl¥ýöíó+$@ý‘°UöÛ·Û|É€ü#/`+ì[þ›dõWìl†½ïŸó@þÁ°Ùõ>zÿíúòPj;Y¿ø€úu•Y@PÕ”þòWWúßû¢û«­É_þX4}}]ñj5€pê/½ õ›ÀËKõÃ¨ß^Pÿ—w5"§ø¨_wê9€ûü¹ø÷§—ÈßÍQÿOù3&ð+þöÔïg¿ÿfþ”Üµ?@îÕo§ÿ^þ¸	|n¿µ õ»Šî4½ô›âwÿlÇñw>dçýp^ß æÏ¿»€ üpþ/ùõ¿@ÿ—ôüp…þŸ ÿÒýÃóë…þ/éý`Xú¯í%u 1ùõ—þkkÑ¿ÛÅqNÿÅ¥@ÿË¨Ý¿ß•BÿÅÕíßïºU±¿‹"\l~ßü½˜Jý»]‘"û{î×åDåêßéBHSº§Ë Yxþ€t¹òç?ëßãð˜ÿd íÏM)aùÐúÄ””w mÏJçõwÐðŒô'>                                                                                                                                                               °†çzŸ‚®ù·ðþ¹®½Àñàš¶ëîÄ·Ë9.mW—ÚßžVïo«÷·€ÕûÀêøX€A,Ùÿh,ÙßžVïoO«÷7§Õû›@Ç)jç·€žÎj”ªk :)R ½o«HÝÐú§o°ßý°¦&õªÀÊõOÞl—ûaQ]âŸ¼åÖ÷ÁÂê•>©wUÊg¿ùâ—ÉŽ®õwPô9Ð;ÀW¸tþSº8&é¿÷sT7Hÿý,bþïG)r[„§?=è¿¸ÑûÛXeC÷oµ²•Û¿ÙÌÖ6hÿf3[ÞˆýÛíŒñ~®·ÝÎxsœ¶qÿ–Cã§“û»Uÿ¶C»®?þø#î/œÝßMªœÔ×?ÌÂÿÒÙÝ]¿Êi}ý#ëÇ¬ {ÿ€üú'å[Brÿ2ç–¿Aþ£ôí’_ÿüüû8¹Ã+GÑ¿QþÄTŽ"»þ{8¸Ï«W‘¿aÿ¨4©"Ëü{¹‘7suú—9¸úmû—@™ƒ‹ß6±þ…N®~ãþ¥PèäêÏÙ¿ÐÁå¤ì 
\ýæý‹ Ð¹½÷Ó?f …Ž-ÿšýãnýèÌ”ë>€œ£FÞ|À±)Ô?t ½ùÀƒ¯®PÿÚßŒžWøÉ×VªÿÓ ùoÞ@ÔÑ—VªÅçá?çç7€úýk}I>4¿þ½ûWøÕŒÁñÏú@‹þo
•¸)ýgé_J\üÓþ0WÿŒüúG3t}ýé¿¶!û'ä×?Íˆù³ŸVÜûü¹J~ýÓ˜_ÿ†.ÙßW€ÃW¿Èõ¿†Y˜¿Fÿæ×0‹ó—ø±².b#æ/ñc…ý/bêÿç?Ñ%¿¿§ †i‘?a %~°Lý û“úùÁ2ùOÕÏŸ*??FÍßå'Ë4nþ¤'ÿkàü)?ûA¤¡óû-ßõ¥æý¥þ	å¯*¡þïö¥7ðýÖÍŸË_U\ýÇø[øûïÜú¿®øÇýÃ$ôÿ\?àA ú­g§~öÇ€íúx˜@æ¥P2Þ öóß€aóçà(¿L’?c 'ý`Šü¯µòÀý_«õ7€òëe9ýÿü-1¿ÌÛÿ½ýîô¿Fþ×óø›ð pÑþ›õ?/@ÿKöß­ÿ¸ ý/Øÿ°þý ‚úÀTýÏòÇ Ã5“Øÿ¼þÝ ô¿Dþ×¨ü±ètáTëÿ1 ý¯Ô?4ÿÇ ô¿PÿðüQèxñè¿¸*ÿÐpuÞýc :^<ßþÛ)¬ÿŠýïoã ÿù _/‰ýo*oÜLrÿfÊ¦àüÇOöy\Àûë?¸àþ¿
ïÞÐÎý¯Òÿ­ðáMm~„ÐpáýOm~„låòÿZÀÃé?¸’ý7È?ºªùCœ~ô_\Íüû(rã”Pµÿù/¡»Šù·ûºmn|}“ú—«å?þ`îŸ>Jõ7Pò¶ùÔ¿ÄÊžLýÆHþ0P‹úmû8Tÿô>À¬¸Àþù¡÷)¦À×+Ô×?c _ç¯¯Ö æœÀG|ù³ðuæúòÀ×iëË?ð ¾}«]_þR¨°€oßŠà¡¾üðµBþÇ|ùò%ç&å/¤Å 6úyS¬¾üC?ì¼ÿ'@þÉ°ññ?£¿úÓ~"x£XÿÒ[Tó”É_úTkÿBýŠ&€øu•ZÀÁ¯ È9žöÕÀîo8üí !f //[ºÿ[ ôŸAÐ ^><¾èð—Àìù7õ´”wÚÿ¦þÆbóÿû.ïØs<€‡üŸ'‘ÿ#¾Œd¿ÿFý­)õ-` qùS°Qß ·Ÿ?rÛñ-`âü¡8Ho s÷?ŸÀi|˜:ÿñ‚êÀÜý_²óë?sþÝç7€Éû¿dæ×òþ/™ý`òþ/yùõþk{É@\~ý¤ÿâr ÿè¿¶Vý{]'’û{÷_{ ò_„þ‹«ß¿ßµ ©Ä º]ªöïvU‹Ïï©?—R­¯"Rþ½®†hqùÃÐçJHS¼ŸË YD~?öqIÁùOÐáðšÿx ÍM1ùÐøÀ–ß|_X@}¿ñû	ô>                                                                                                                                                               ÔõüüÜûtóüSïcÐ5ÿÞ>^l%WtÔö¡½\Ð~ÖÝúFp!{IÏêÛÀ5l÷«oóÛjSßæ¶Q2:¿L,±¶\DÙþ&0â0§Õ`3¹fºÍUp 60€Øeû›@W)-ŠÀ:	mñø¸€à[n “Í±_)®«Œ$¨]H¥˜WÖòú™Ò^Í &Ë_ ’þç/’Iÿyó—É¤ÿ¬ùKu’íþI_xä:ý÷žXÊ*ý´„ë÷ßþÒ2€ÖfèoiÞ¿ñÖÖ3tÿÖk[Ñ¸ý›ÏmM£öo=·e9€ö{[×Yßöý›Ïmm§wwãþ­ç¶¼ó{»aýúú×po7
rTß j	¹¯›ô¿„?ÞDý1úŸÔ×?8þ/Á)äÎ®ä4¿þQõcFpo×rž_ÿ„üaSèß? ¿þyùpzwW"‹üûHê_ðìò7ê¿3€“{¼v‘€üúÉ5€“_ôRîìòÙ¿UõÛõ/7€bG—¿aþtÌü+(¨×¿ç¯ò¿iÿB åÎ.þ ýcPðìê·í_ä ÜÑå¢ä Ê]þÆùKô/wtùéßçÿå$ûþùÈ<n«q-£Lÿàd5þæONM©þ¡È8iüÍ‡œ{u¥ú×þ^lÂº‚O¾´býŸz×x1G_X¹þÕ¾Xÿ¤¿Tï_ãKòÁñÞHÂÙ—T¸ÿ›Ré£¿µtr]é¹°òùK‰­×¿ûég1jÿøú§ý`Ë˜ýSòëŸâ:ùõO±PØpügŸÿë¿Eÿµ˜¿Äÿ]®÷%Ìc¼üEþï‚½¯aãå¯ö íELb¼úEúû@ óëßÐ€ù|Àw€CX¿À€7®¬Ï…oÈüe~³ÀW2¸1ó—ùÍc\ÉØÍ_æG‹¹’¡š?ï	@¿q%#6ÇŸ-]ÉÀù{ýpáZFÎŸüüoÂeÔý©îùô¯+-ÿë½R‡ùþîæå¯+»~©|ÔØ€üue×/±€ÇúÈ}Ó¼m ìõvêç`«~à²Þ.qöóg`/ÿÝgêÿµJþûÏýÞÇÍŸ1€ï`Ôü¯•òÀ$ý_kõ7€)òïöÿóCZ˜·ÿMüí	ä×†ü¯ñ7Òß fèÿÿóô¿bÿƒúð p‘ü¯¡õï ÿåúŸæ¿€þWëÿvú_«ÿŸúÀ4ýó@ÿñUÈ7€Ž×NDÿˆüïÐxú¯-´Tþ˜ô½üåé¿¶Jý@ÿµû{Èè*å×•ûŸ ëÅúôý¯JÿµåOþüÏ¯Jÿ›—pú/.¨Ò×ÿt!ù£úßÝºþÃé1€‡[—xùÃðxãò/¤Ø6n\þñ…ä?ÀömË?ƒ€ü?Ä”ÿEþ„åO"ÿêÔ?ú%€Œ¥JýÇ¾mf >´òµ÷èèëO½Aßþ&°ªXÀâýëNàÛ·Š7N¡T[À·o°ð ÞòÀ¨² ý×€þCk3€
7Ëlÿ`T°¼Â8y¶#*Öïù^çOãöžðð4@.`çŸAÏez{Où=ìÿï¿ÿþÛè|ñòîá;ÏùÞÏÿïÚ§¦pü	ì< ìä¿­oSÖXÀÞ}„Ô·€9óï-àø–¶ê[À”õ·Tß æÌÿùSÁ´ø0kþÐœÅ7€Yó, $¾L›ÿl¡ùõŸ¶ÿÁ‚ëÀÄùw“_ÿ‰û¿èo ÷ÉÏ¯ÿÌý· ÿBý_róë?ý×ö’9 ý'§ÿÚò äŸžþ‹kØ¿×%rDÿÅµêßëú8Ñ¦¯«ãT‹þ½®Õû÷º0ÂTîßë²V³¯k"B|ÿÐtº "Uêßéjˆ™ßÓþ/'®À º\ébòû¡¯+
Ï6€ög§„àü‡ý››bó ñ),,ÿÞ š•:Îãÿ þò´                                                                                                                                                              `ÏÏÏ½@7Ï?õ>]óàý•ÌäbžÏÒ>ïh}Pª8Nºß
.â8æi~˜ÜQÈ°ú&0³ƒŠùM`Z»	#ó›ÀœJ½û›À¤Ê½û›À”J¾û[ÀŒ¶šåô7È€"µFþFÐ[NŠR0^2CÀÜòKÀ´
•0€)•,¡ÿlÊ§»AÔ;cñ:ú^ÿwj}ô=å@úOØ¿h!ý§Ë_y %oœáû:JÙ§|þº({ÛŒß?àgK(l¬þ{Ï-b•þ›?\\÷í--¯‹ ÍßàZïßcqk¸ŸÉ­fÔþ}6· Âí[ôÝ’BÞÁ[§9…Ý×MSä×¿¼ »ºaŠ£üPAØ=ÝªÄq~ý+»§Û”8É¯a÷t‹gùõ¯!ðž®_BþyÐêúGùãÃlýÏóë‘?f	ýË·¿týà1„ÝÛucx÷¯œÿh!÷våú7è¿·€€»»rù›äO@íò7ê¿=€“û¼~ùåßÀù»_Ý ò·ë_h EO¯~®÷/ú–.*"™”=¾ø™.Ù¿ìÛ¸´?Z èéÅïß?r EO/ÿÒýåoÜ? %Ï.ÿý[þo¼Ú­k	‘ù÷¾Ø(õu-§Pÿàäœ5ñÖcžÑ´œRýqÒ´›??÷âŠõ¯ü­Ø¤y…ž|aû×ûnLPüÏo æè«*Ú¿ÂäCÓo¼‰è³¯¨tÿ7…âG¥èo ú_ÿa ]O?Aû'Õ×?Þ˜ù+õ7€Ï†ìŸ˜ÿn ú¹T~ý£-Õß >0™ÿÅˆþAÌ¯Cæ×¿¥ñòú³½¯bÃÕ¯ù Ðø:f0`þBÿ¹.dãÕ¯ø/À—2ºó—ù
 ï †±~Æ /­×ÅŒlÌüE¾ôxmÝ®edƒæOÀýmŒs5Ã5ânb «Õ°ù‹üz™®fPãæ/óëºš!œ¿ï—/"3ÿë›šçÓ¿®ôü¯wJçûO7"Uiùïã—ZÀ¯ø¿ª"õà¾~ôrßüÂJÔÏÀçúw»ù³°“?te.¬üØÏû¹ ücç¯Óÿle.ŒüüÉ8Î÷ÏÁû¹(Jå¯Õÿ~ ÌÖÿÏ[)ý`Šü¯§ñ7'pžß æèÿÿóô¿Jþ× ø°Dÿ£ü÷Ðÿzýëß/ ¤¿LÕÿ<ÿÍ ô¿Hþ×˜ü‘ .›„þAù# º]8±ýóÀ€+õÎ7€žþ‹î‘ÿ} ú¯Ý?d ]¯ž*ùc ú^þòô_[¥þ¿ ÿEúÇæ è|ý«ëÝ¿óå£ÿÚ‚ò'÷{0íé¿¸®ý»^9ÁýÿýñC@ô’¿Rÿn×Ìýwž?ñû?oä_®ÿÝë?Óü1x¸mù'pÞ?x 7-ÿNó‡àóMË?…³üAØ¼eùçp\ÿMBü7òOâ$ÿÃÂoWýyÄÏ þò´€køö­÷	èèÛ7X<¿¬Kÿµé¿8ùó…®f÷[?QßbR{ßü‹ýŽ sÚùîoü·„™ÑÎ·ÿžÀŒ6Ÿð“ô”f´ñ”¯“gýû[‡Ó’áå%ú	€îÆ·‰¼Ü¹YLþÇú0_ýOÈªoÖX@^}˜°~ÀÂëÀŒùOß ¦¬¸€¸ú0gþ»lç«o ³ö¿YÀFÿàú0kþ›då7€Yó¿à±\~ý§íÿ0€ß7¡ÿ"ù ëÝß &î7€_7¡ÿBý çá_ÿùûÿ@j~ýgîÿ1€_· ÿÔûjú/.w úO®qÿNWÉ®¦ý;]#ô_\»þ.c­úwº<N5éßéÚÐ §+#Líþ.‹Puûwº("Ôëßé‚ˆ›ßóþ/&¶Ð º\	iâòôïqd(Û¿Ç'<ÿÙ ÚŸ‚ó õ©)'4¿_ùqYAõ÷ÐðœTPÿøËÓ                                                                                                                                                               ¸¾çŸzƒ®ù`ñü'¸y=c¹¦ííà:ZÔ·Ù†<­o3;«–ßfU,¿	Ì©d˜OÑü&0Ÿ£n)ýM`2ÍûÛÀHrrdÀF"¿¿	t”ßÁ æU¤C‘X@¥2ÀŒJfÐ2å;À<êu¸ý;ëþ~h ãÖoÓAÿqó7é ÿ°ùïBTk£ÿýkÆÑÔü¿CT®£ÿÐýäÑÜþ;«¨zœ
o;ïþuòl¿‹¨$8»ÏÏƒNC!¡ù›þûÌ š	ÍßøèÐJhþÆ_ 1€Vó7þMð©È|O·Ì ;¡wô0ý ¬Ðû¹]…ãüúz?ëQ¡÷s£
'ùõ/.ø~nQá,¿þC ñYô¯)üŽ®^á4¿þ„ßÑú_Qü@Óƒèã_bþNtÿ>ß –?¸~Ü‚ïëº¼û—Íÿ±‚³9Þ×•Cè_#ÐCBÐ];„üÕóï- äî®Â»‹ü©¨ŸBþ6ý7pr—·h!›üqhWCþVýÿ±¿ü]ûwÿõÍò7Ë_ä ô¨ß°>¿úK÷×½{ÿÈ=½øûg À‘ÛÍk%úÇ ÷¼õçµ”Øü;ßjÖ¿ö¼VS¨ð 2[ûö—Sªä/†JS_Ë)×¿~žä}Å=«m-û×ýì,¤þÖ[;ø²Êö?îT+úÁÛˆ:úŠŠ÷S¤~|ûÏo%áì‹©Òÿ]Ë÷ü­7•uø%TÍŸ.9ÿÝ ºcö®Ôß ®ßÿc ýÎ?‘Ëå?ìo ÌŸÙÿ} úÐmæÏíÿ{ }/bæ×¿¡ó—êï@€ñêû ¥óëßÐxõ‹}`ŒkÜ€õ}°¡!óúÀ8—3®1óúà8—3¬1ëz
ÀP4¦Qó§/àö&»¢Ü¿ÄsÀÆº œ?m·0Øgäü%~ÃÌh4šù__+ž/ÿ7È('ÿë­j'ÌËÏ±äüwñK-àû÷?”¿¦´üŸëÀmý»	è_S¡úÙø”?vyo~aÙý°U?noœûù3°—?|¥.ôüUú}&XèâÈÊŸ<€£ü(vuäå?èÿçOIý?à×þÿõ°ýoñý¿·üŸÊP´ÿCü­œæ¿ £æÿ4€­øÐÿ’ýwë?ÀÀEò¿†æ¿_@@˜¬ÿIý»è¹þçùo ÿÕú‡ä÷ pÙþAù= \.dÿ÷è©þ¡ù£ ú]9qýƒó{ X½ÿïèþ1ùõŸFÕþ>¸Lÿ¨ü1 ¯uú¯­ÊÃ¿þó¨Ó?x }/ý§ÿÚô_\PþÔþÁ?@/ú/NÿÅäOü÷ÿÙ º]27ô_ÜyþØ|Ü¶ü(Ýÿö¶åŸÁYþ¤çÿü ÿÎò'÷?ý-0á$Êó?‘Çù£ŸþýAýIåßý¡ÿ³úG¿ÑìÅsØy¿þ§>2­¾“ŸPÿ
Rë×óí[ïÐÑ·o°x~X÷@ýWsÿï¿ûüþipy_þ¹íŸü•¦±ÿõ¿œ/1‹Ý/ ýŸ‹ØûVÏÉ÷¸ˆíïõ~ÿ‹ØøþoÀ·¹lÿÏ{àÊâóÿû[‡ÓRZdþ÷ø&0›—>ýqF}˜*ý»ûçßªoÓÕÿ<ü{ñ-`¾øŸ'p–ÿ°¾Ì˜ÿd1ñ`ÆúØËTß ¦Ì·€Íþ¡õ`Îü·Øè‘ß æÌ³€¼üúOšÿ} ýãòÀ¬ù? )¿þÓöÿ5€¼w˜·ÿÏè¿jþû$æ×ú¯í%m ú_…þkËy øyòÏLÿÅ¥õ¿ùq`ýç–Öÿ)ñ‹ÿò'­ÿ;ùg§ÿâZöït‰jÖ¿Óõq¢QÿNWÇ¹ý;]Aª÷ït]ªÛ¿ÓE!>¿'þ_KtÿÀt¹âUéßåJH—?¤« ]TÿÓt¸ 2Eä÷Cÿ—žÿ¨ëSSPX}¿òåºÂòû•OWvÿí—§=                                                                                                                                                                —öüSïcÐ5¿,ž?` 7¯k2XóSz¸„°’ûõm`nAÏò›À´B†ä7I÷ÍoO«÷·ùÎo³9)–Öß
F‘"g 6ÐW‰™ý- ›B²`=”«` *ZÁ &S¼‚Ì£Z„ó›Ó¿»Îï…ÐÕáƒp›úZ¿U4×´yÓ+;Ïß*‚¬Ýÿ©çÛ^Õ@ù`Žþ³Àðý+g‰Z"ÙRó÷€”–œ¿^h)îÎnÂÖî{*ÒÅÝÑÍ*@+ú/.æn¥¿s/·Š Cö7€’"îdý¯(âN#¿þe¥< ´?Žþ#= ´?ŽþÕDÜËõœç×¿´‘ ô_û@þ) ÚžDÿ¼‰û+¡wtõ
ú—ˆÿKøß
½§õŸ(ÌÂîéêòë“ÿ³¿rW×Ï íü{¸³„Ð¿~þœÞÛ-Bèß¤Ä ~ßßmBÈß$ÿæ Þ÷ª§Ð¿Qÿ(òçÐiQùK øÈß·ä 
œ¹÷âîŸÿ dùÇê$ûÄòÖ?*Iîåï™?{ ¹–Äþá]2Ï+ÿ ýËäžWþQû7ù>L\~ýÛö¯þcØòW¸ä‡‡ÝÔùË?Nÿ7%‚ÄæÞs1'_M•ü?Õ?û‘üþi‡_EÅþ!ö–Q ÿ¯›­yú³¥üðIßü?K7ìo ƒõßô\¬§˜È€ùkö7€æ×¿¡óWío ÷Ì_ñÓ?ý˜¿àWô?3bþªýàÎ€õ‹`ÿêZ_ËØF¬¯;CæÏÀÁåõ¸œX? W×é‚F5fþÜ\]·+SÕü½IýËòû
à©ŠùÔï2€ƒËË»¤ë©ýÞŸ3€ä\_æ5]Nƒüéýpp™×tAú·ÀÁf^ÓÕÊ_¨ß1$ÿ‘Üü¯î_P(üÿHNþ›øŸØÿûo7–•ÿ×EÆb!©ùãï -þÃ2ós$)ÿVýOb=äOY@ÞÖTè?w ŸëßN@þŠJÕÏÀNþÇ ùñÚ¶øC@±+$5ò ò>”»B*ôÿóCtÿ€ÔºZâò¿žÅß™Àqÿ³T½b"ò¿ÄßZÀIÿ›/‰?tÿ× úŸpÖïë-®™ˆü¯aõð=f LÒÿ0ÿÝ ÎûÀlýOêß@ÿ‹äÈ3€€þ0UÿüqèuÕ$ôË¯ÿâýßàÀ¥ú‡æ÷ p±ü¯qù£ z^;•úÿ€þ×é“_ÿiè¿¶:ýàjýãòë?‹Þý;_>uúÿ€þk÷z=„å×ÿªô_\×þ}/ÚýƒŸN7!ùõ¿°~ý{^5-ú‡ý ]ç¯Ó¿ßsç4ê€C~œTë0€N—Ê–“üißÿ}#ÿŽó§÷?ù-@ã(Fÿí4¿:ÎíÖßî¿ÿÂû›•ÛõO¾ðó j_¥þô
/UíþhqXŠÛÉûíÛökt:%mûûö1 ý—ëÿí¦ÿéã?×ùðÿ«¯þk÷¿yü?ýü+õÿÀæ+t<)M°ùâ^‡¤]ÿ»Èò/= ù—À¯Ò‡¸ò v7ÁÉ¿8õÿßÍOKyQõoâÛÀt^^^^6þ88ÿçú0Où¯qš;¾L?láõ-`ºúÛØÍß&¬¿µ€Íü!ñ`ÂúŸ°Ñ?´¾Ì˜ÿqŸúGä7€ëß/ +¿Ì™ÿv÷ý#óë?kÿ—Íþ±ù`ÖüïÐÍüHÌ¯ÿ¼ý ëÝ_ÿ‰ûÿ€þ× ÿÚô_ÛKâ ô_»ÿü¼	ýg¦ÿÚzôï{ÅÜIìÿ”üÕýÇ’Øÿü“kÜ¿ÓU²KÿÕ5ìßé
9Öª§ËãT“þ® õûwº0UîßéªŸßO~\J½þ].‡huúw¹’Äå@‡‹ CTþóþí/€LùÏÐúèžÿh mÏLQ¡ùwÐò°ÔT{ ÍÎÈÄGz                                                                                                                                                                à²žßô>]óÇÀb.—?°çûkGý-†“òS|˜^xÆ½ú&0³Ð†‡õM`ZÏóÛÁœ‚ÂEä7ƒÉ~÷·Ù´Jìo½•Ê< è§d…ŒX@e+À\ÊW°€yÔipr›0ŠšoË Ð3ôÖûAXÿAë·J` ƒæoUÀ †¬ß.@ï·¿¨³üíîÿîXÒ8ý`Äü-ïýÎ°˜‘òûjàÓêýŸÆ:Íõ–È]Ù€wöÙ ,  „{º~h&þŽnÑÀ ZI{÷7€ËHÍß·¿tïïàæìo Å¤ö¯š@ÿvâîbý/g¼þ§ùõïßÿ¹g((æ.Öÿ‚Ò ZŸGÿj’ ŸFÿŠRúWk {Á÷²þ—|77¨ ®?ÞÄý•À»¹A…€üúŸÖÿ)âo…ÝÏúOT?n!wt‹ú—Ìÿ1‚³AÜÓM2è_<ØcÂé]Ý&ƒþµóï-àä¾n“!$¿þ¹ý7ptw7ë ‹ü‘¨Úáþ¦ôoÓ¿È 
œùþæÎî‚&ìûõ/”¿È úä×¿HÿÈ=±ü£õK’{bý;æÏïŸ}dù{öú:`òØ?<Kî‰õ²³†Ë?hÿFß…‘Øþ-~
Wþ¡ûýl[Mþ²Ê÷ûùÐÓ—Ü¿B|~ýÕÈÿC`ˆ½—&„–¤þ?œvØ{ù/ÑÿÔN©bùßj•Ã_Aßü;(¿âùg7Nÿ§jý«^Àìúæ/õ¼Ðüð¨sþßµ?ÿI¥þ0ZÿÏŠöïvs0±þÛØì2¦0^ýrØ¹À–W2¼óê¿wM/et#æ/4€Ýl|1C±~¡ì^`ûË×˜ùK`ÿ{\Ï¨*×ÿë¯¿þJû›ú·Q3ÿ_¿¥üeý›h‘¿Ç .0çš.§IþÄú××&â'é8ºÂœ«ºœZùËôOÀÁf]ÕõTÊ_¨‰ŸøÑÿH¥üÅúxÖ¯üG²û¿¾«Ó?ÿ—ŒÈ /ÿGüÇääÿþýþ¿óòß\cìAV‘ÿ¡þÞ bNóýÆÇŸföOú×Ë(W{ ‰õï'—Ÿ#Iù7ë?|ëSþ›È_Q¡wþÌlåÿX€üuÅ|„Ü¯ŸÑ'ÔC@ò'ÂQþäìæx(x$æßíÿç‡Øþ¨vÅdö¿i¿7ï¹¨}ÙåßÀçúøž7€&—N@þ× úŸpÒÿø³ÀVOlÿýú8ë¿ÿµ v×NdÿÃú÷8í¿ýõà–—NHþ×ðü·ˆéÏýÏóÀõò¿Æä¿€þ×ê–ÿc çý ;ý×Þ?4Ì :^8qýÃó{ X¼ÿïè‰ü¯±ùõ_¼ø ú^=ú¯MÿÅöËÿ{ úOÿµUíñ úÐm}ûw¾xBŸþ£ÿUUíø$`:êØ¿ëuó‹þkÈ¯ÿ•UìòS ôvš?ºÈ@ÇæÞY~ý¯®VÿóßÁóWèßë:Ùs¯ÿþË>nVþiìÕßn|øÒ›¿+ÿ<¶ëŸÿ¾È´¹J9Ë¿ñ·/”íþ{¿–IìÕýöíÛ·¸_ÕöÜ±÷[TfõçN]ýWÍó °÷:]L“þG¯Óç¬´éúïý×îßë°´éXþ¥ ÿÒPÑœ`à"´_ð«K©ÿï‡–G¥ŽíÏúCê›ÀåœôŒoÓx¹µÿjGù·ë[Àdñ°—?¾Ìÿh›ýOâ[Àtõ÷'ð)H|˜¯þñ'±õ`Âü§ˆ¨o 3Ö?ž@\~˜3ÿþô_#ÿÎbóÀ¼ý_Jä×ÚüHèo £Ðiñù?@ÿyé¿¶—ü¤ä×ú¯MÿÅõ@¯«å‘þ‹ëÑ¿×µ²AÿÅ5ïßëBÙÑ¶¯«dŸþ‹KÏÛ¿Ór¢QÿNWÇ¹ý;]a’úG ÏU.!xÿ.WD”zý»\Ñ*õïr-¤ˆË4€WAº¨üçýÛ_ ™"òŸ õÑ)#8ÿá Úž™’ëï áY©ä<þñ—'>Ò                                                                                                                                                                ÀÓÓÓóÞg¡c|¸„ˆˆõM`vá	÷òÛÂÄÂ³å·É„7ïo©ðþoS)ùáßFR6Bü , £âú[@/U"XÀ$ª5Ø»YIÝÛ7g Ãè”À†Ð1€ô×5€ôÖùþ7€®úßý'°€%îüÎ°¦£üïû!±žÃúMïú1N±˜qòòqh1#õæCÑ:Nò7¿ÏÇ:Íõ–È]ØˆwöÉ™,  1ïiheÐ»Ù ôN>ëo …Œz@#ƒÞÃú72êl m$Ý¿î~ýIË_=Ài($þîm@ÿV¢ïÞ&ôofÒþPJäÝÛ¤€þ¥öî™_ÿr¢î_ý¯'ânÒ@ÿ¶"îáBòë_’þ‹¾‹[DÐ?Ó?Dý•Àû¸IýÔ@ØÜ"BP~ýÏëÇM ä^nAÿ‚ù#6p~77©–_ÿðüc8½£kU¸¿-ý«æ?˜Àñ]]«B`oýËõß[@
‰ùõÏÉ¿3€RóëŸ×¿Ð ²¬Ÿü…Ð-¿þUúÇÉ=òÑÍÊ_µ‘äùðVõ¯™?ö_ú_¬dŸùðvåïÒ?b Ùg>º]ù;õ_@ö™Ã§¦Ãþí¾/ÿ˜ýËÿÎö_’ÔþE?Ðþ_”Üþñ¿!bû…GWþ¡û'?;üøNo^ÿaú¿	l°õJ§å/¤^þ@Ÿ[……”ÿýÓß•å/ {þŒïê…þ9ß>Ž{ýJçŸZÿüµðp¡•®aZôÏùç\l~x0@þ77©¢øªí.d6cä¿3€”üp£Cþÿ÷¦Ì’ÞýàFûwþùódï"^Îäzåo3€Ýk,xAs«ÿ¯¿þú+¡™ì_cÆ]Kýú?D÷/2€ýkÌ¸¦k©™ÿ½þí BûXÀÑ5¦_ÕÅ´Éÿ1€ðþÙ8ºÄôËº˜jùú? è&Êô*zYÓ*ÿýG€Ð)’_ÿµòï÷£e•ò—ê_ä>ôßW)¹þ~àCþ%ò¿þróGÅò§-àè³Îr=¹ùÇX@ÁþùOù—ÿ@Nþ»øûˆ9Î÷ßnþ,·ÿÍ5Æeåêo ©þÃòò\dÌY–Q0ÿÝ'Ñîëß- 3?Çâ·ëgàsþ›È?”ÝüéØÌÿ± ù§¨_¾Ô Ê]#iù_Kç@Á‹$±ÿÎ þ¼Ùÿ÷äŸ!ÿëIü	|Ï@ý+' ÿëyü­|Ï@£«'²ÿNýOêðë!èœÿ5°þÃ ¾g åõ¯.ªÿqþû„ ÍÿT’Ôü¯ùopÖÿö;Bo”½ÿŸUû3xÿüpÙþaùo ÿ%ò¿Æåÿ€þãëÚß æéžßÀDô_[hÿ˜üïÐxú¯­jÿˆ/s¥þ¡ }¯ýWØ?2¿þ³Ðqú¯MÿÅ…äOíô$`ºÒqú/®Wÿ®Í»óüú_Z½þ?Jgùõ¿ºãü5úw»T¶æOïö[@ÅQþþ/ü¸]ýg±Ÿÿ$ñá¯"Ûõ7ûßý½£—Ê?•ÏñÏó~Û—©?»Ýüß¾í½ÆÝß—ÿšý¿}û=€³Çõ'ög~®Ýÿð .Úÿãã¿þKåÿ”×ãÿué¿¶þÿ/,¡—s2Jÿ.Ç¤– îò_Vàwù¯Ê£ûâÔ_\rþ©s,šI©ÿ;¾¬è¡¾	Lãå]Ùú0Uüô	ìÅ·€Éâ§,à0¾ÌV?jçí`ºú¡Œo ÓÕZ@D~˜­þé¢êÀ”ù& ÿù÷›ß fÍ¿9€øüúOÛÿ¥H˜5ÿÆ ô_ªÿKüúÏ›_ÿÅû¿èo cèÕ¿×õrOÿµ½ä@ÿ™é¿¶üþ¾þ75ýW×¾¯+e“þ«kÛ¿×U²/=¿g\C«þ.3múwº8¤õ÷ÜïëHÉÑ¿Ë5£fÿ.D¤Øü¡èp)$©Ñ¿Ãe,*À š_ ™bòŸõo}vŠÎ8€¶g¦¨ øoÄ_ø«Ÿ'å                                                                                                                                  øÿìÝGVÛ‚†Ñ\ÔT·Yš…ú‚zÌ"µðiÂo"ön½' ˆ<ß’ä½                             ðåÇ·Þ·BÏúfp:Kõ­à4¶ò›Áá…ä·ã
îo—³÷·€ËÙ`g€œ¼¿tT¥L¢VƒèX@<^ÙÓ!€Œ£Ïù[À º¾Œ çá@}ÏÞ:ë}òÐÕ o ýqîÐÉ0Çn =Œtê#ÝËIŒuäcÝÍ	üíÄG»Ÿc.ÿ·tXCžõæMY@Ic´42è1o÷·€bF=bhcÔÞëßûþŽbØã5€&†=\ý›ölwûp“ó÷dõoaÜ“õ	 ‰aVÿ&†=ÙýþCÜæôÒ¶úáä×¿„”“mpüú·´-èßJüÙê(±‡Û¢@H~($òp[Ð¿¥¨ÓmR@ÿ¦bŽ·E‚°üú~ÀMèŸå¿Oáo|Â-æ×»~Ô¸EƒÐüúïçŸ@Ø×ip}½àú–?t!‡\%ALqýSò‡Í`÷”ë$HÏ¯\þìt¥ò7Î¿¾€.ôoßml]VÿZùË ÷ž·/ª­þ¥{Ï;×Ô¿RþRÈ½éKÊ_«¡dßõöõoÝ¿õ°kûŠòWë_d n[ÿÑú7þ¸­Êß¥_{£”üúWí_á;p7ßnë—åïÑ¿ì×ßÒÞTþ®ýS??¼Bb@ù»÷OxŠÉD&”€þ¯bÎ?0@Ä¬íœP½þ1‚û‡ý”©üÁ†È_î‹Gò½Úï#•îû ô?·ò—€ü³ö/2€”Éœ^—ü¿Þ@Àë×òl:æ¿@ö_ö_½Ñç²©ôÌ7€‰ˆÌo zæÿUî‰üö_µÞ#šZëü!ýãŸÊ3!¿¼©œÿ÷‡Èþqy5ý—5©½€ÀþÁ\‰þËZåÿ@pÿœóÓ?X«üŸï_b[2ùJ­úký¯°	ý«k–ÿáO AW)“ßçÿu•ò¯÷_@ðuô¯«Rþ­þqJä×]üåú§/`óAæ=º#)’ÿåÝÕ¯ËŸ:€í™s?Ç’_ÿ#þí
öOÀæƒÌº£ÉË]ÿzéõŸßÜüRfþÔ'9=‰‚õ—>$ÄÿðýË™ùocÔB¹ú·
ˆv“ÿz¹ý¯bÎý±›ÿ¥`þ«dæÿ^@Æí±_?g ù“Pê!’’ÿ¥hþïÈ?Gþä<—@ÁGIJþâý£PðQ’”¿|ÿð|$æ¯Ð?t $Åûÿß›¤þA¨ñX‰Îÿ²ÞþKtÿýT}Ìäô¿‹¿2íþ;_¨ÿ°	ÌÿRaý“ŸŽýWë?. | ¯”Ÿ¡ÿfþ»ÄõgÐü/áùo°Óß ¦ë¿›?j -9ýòßÀ'€CõÊ¯ÿQû‡å¿€þGÈŸÞß Ô?4¿O 3ÑÿÜjôÿ€þ‡é‘_ÿ‰ôìßñaS±è :>l>ènúŸ\…üúODÿ“ëÖ¿ãcæŠþç¿Fÿ~˜[õúüýíæ¯Ð¿×ceþ'·“?¹ÿÞ³@0ŠÍü‹ý¿ß6¾ÛÇFˆüýoÞtãeúÏc5ÿcÿ»·Üx¡ü3YŠ¿ý~án_$ÿüVúÿùógéîÞXýé­æ@ã;§ê‡Pÿï	´¼iZô_|•~wJ«üûÊ¯ÿ‘­å_{æ7HUúŸ[HÿëWj}Ô’ÿê•ßCôÿ~­¶7Gu¡¸—ÿ ‚o—ÿüÞ~ròŸ[zþ¿o*Ü-¥åÿ{­Ê}1®›ú&0_ŠÖ·€¹âç,`¹¾Ì?uëõ-`²úÑØno ³ÕY@@{˜®~àBãÀtõC&“ß æË¿3¸ü0cþ	Äæ7€9ó¯, >¿þ“æ_@B˜4ÿÒ ô?SÿEúÀaú'å×Úþ÷Ð^úŸÛ¿Ð^úŸ\þþü?³Ný;=Zîév=úwz¨,ÑÿìZ÷ïô0YÕ´§ÇÈ††ý;=B¶µêßéá±+±Ü ú<4‚$å÷ÍßR·—‡D”èüÁèð`HP©‡GBš¸ü!hþÈ“w ï"‚ëo å-SV`ýõ4»Szÿì´                                                                                                                                                               €+?ô¾'zÖ7ƒ³Ø¬oG”ßŽ*"¿	ÃMÅÈþ0µ…ŽÑ0I­D4€SXo˜0 ˜Ìv@˜HR€|)°€ì¶³€)$Ÿÿî&ÀÚÊ8ýý·J\€	4“wöûo²xUE·“7€ô<xè¯ó¹@_ýÝ :ãÔ —QÝ ºèÌ ½¡NÜ ZìÀ ­áŽÛ Î}ÚëwdÅxÔÐÌ½ÕßJô QOx»÷Û;ŠaÏw§ÿ<†q× Z÷h÷úq—“ø`õo`àsÝí?ÊÎlêþ£ÜéÄ>UýøTõo`îþ£ÜêÄÆ=Uý[÷XCúq§3öXƒòp£sö\õo#õ`kŸ}XÈ•v°Õ?0¿þÙRN¶þéëßJÂÙÖ?þÐüúç‹>Üúçœß ý÷!ìµc·úñGä×½~ðâŽ·Êñ__.&¿þ›õ'u¾Î?ª¸þqùC&qÀåÏ?£¾þAù÷'|ÄåÏ?+¿þùwWvÈÎ_ÿvù·6pÎ5Îë]ê_£ÿÚN»Qÿˆ»Ê~ÿ'Ì_r Ù7½{IýË÷/7€ì›Þ½¢üåó—@þmï]PÿýÓþX½äå¿÷)Ò?r En|ûjúWé¿þ¥€Êù×>Æn'åÝVdþ­/VëŸò†ú7ï_éÛ/“ÞTþý+|í-ñ­å¯Ô?ç£?ýíõïÕ?ïð¿_-«Ÿü=û§þ„àzµØ‚ò«Ó?å;¾Âò‡\JþpµòGÌQþ#÷ßÍèÃ?Â‰ú×»÷‰MØ?èÇåÓ/ÿ¯_u ÿý}Hë¿ÕRþ8]óW@À[Ôøl6­¾ùo(0€Ý×¯óˆæ5Rÿü¿ì¾z­‡4­Îùïð*} ±ù óÛÿƒüþýûwLÿWIØ}ÕŠ£žVåü¿¿DõOø^‚ýW¬úYmV­ò/ ¬Üç€ ×ÒAÍú·ùcûçþ˜gH~ýÛå_Àöô¯¯^þµþË_ÿYV.¿þËªÕÈÿøGÀ«è_Y­üýßx™Bùõ_S§þvÿ(EòûãÿšJùËõ/ód_ú¯)•ÿååååúÿ—ÊŸ1€G™qK‡Ràd^¾|ÿZ©üé(ü «\ý›dÔ¾ûÿÙùõß–ù‰y ˆ¼Þó—«_Ìîÿ0€øJHý»?\’ëßN 7¿ýoU?k wù¯™ÿ~ é·È^þ—‚ùS°pqùÛÔÏÀRÿ¯dæ¿@êý”¿pÿø¬]_ý&ù_Êæ@Á‡IBþâýãPða’’?u Ï%Pòa2JÿÐ”|¤æ/ÿ@Ø 
>D6TÊÒß“<÷Ã³ÿÕ?¨Æþ7ÿ(¨ýÀùË~x±?çëo cÐÿÜºõ7€£÷÷	àùõ?2ýÏ­c€þçVµ¿ß †§ÿ¹å÷ÿ¿w‹/ÓÿxýÿoÕãÕõ^TÿõöËÐÿPýwò?@þá•Ìÿ0 ýÇÜ? ÿý ôŸþ'×©ûÊ¢’ùõŸP½þ?DÉý_rweù§ÿ±ÿÍôŸÚ~þûþ÷Wˆì_ÿ!#¶ÿÂ%]þYìäßú]þê5îMþylÕOí¿<€J€Lù¯û¯¼õò‹äŸËbüåþ^Ý½ÆãªþaýïÐænéÔñ7õ§÷ûýW?0¿Å?ýÝæßøÀìvÿô¯ÿ¡énùýàÀBò¿½V«bÀþ•üç&ÿ¹éròŸ[jþ¿¯ŠßSø{¥÷½Ð³¾	Ìãß·’õM`¶úX®osÅO]Àz}˜¬~ü 6ã[Àlõ£°ßÞ ¦«º€Àø0]ýDÔ7€éêïN .¿L˜k±ù`Êü«Ðÿ$ù—Ÿß fíÿ¯P˜´ÿÂ ô?Q~ýOÞÿq úÏªc˜µÿÃ ôŸV¿þ}/·ô?¹ÐbúŸ\Ÿþ,ô?¹ý;=R–µîßéa²Jÿ³KÎïÛ¿¢Uÿ.Ž -úwy`Jêï›ÿ$!xÿ‡XÑùCÐü‘¨Fÿæ‚1õCÐöî)!<¿Ÿú?ª øo´?9íOO{                                                                                                                                                               €{?îõ¾!:Æ7„óØŒoZßŽ(²¾œ¹»Afz¸œ½½Ìi¹¡œÄj?˜LÒáoÅ³€‰$þf¹ô˜@[Ég¿]-g &ÐNúÉï¼YÞ , œsßy«ÌX@™Ç¾ý&›W6€T>õË@oÕO}ï’ÐS‹Cß¿žô2Ê™@¹t0ÒëßÜXn ­uÞ~hl´Ó6€¦†;ëõþPÞx'½Ñß Jñœ •1Oy«¿4èoöï~wÇ1êùn÷àaØÓÝé?Â-ÀÀGk |°{ýG¹Ï©|¬»ý‡¹Óy|ªú×7ð©îçæVç5ð¡êßÀäýG¹×i|¦ú×÷cöþ£Üì¤>Ó°ücÜë´>TýøTûp«ó÷TCó÷¿Ó©{¬Áý»ßéÔF=Öðüúçõ\#úÀ‚ÿþû/ìÇ<Ø˜üúßûïËþëy²Qù`­~Ð†8ÙÛw™_ÿüûH<Û‚çÛ[ÿˆúûH9Ü‚Ÿ[_ÿÝü;H8ÝrŸŸ_ÿ þˆ>ßr¿ò¯ÞµþÅò¯N ò„Ë|ÔÜôÏÏ¿6˜<ùÀ˜ú—ìŸ4€ïS.yð-õ/Ú?m ¿gßqhJù‹æOüS@ù“½žþ…û@ê^¿}Øåä/Ýå¯‚õó']AÿÒù¿{î‰×¿xÿÕ¯V¬Ÿú_)#Tª½Ÿ¼N¾ŽümûWùK¿’üíû—þÖÐœKÉß£¹ŸÌýø•¿Sÿ‡³/•=ê‚òwìÿ&å¸Cêë?GÿaùCÊælýëÞÿ„¦ì¿›QþP#å/öuääÝœO¿þ¿Þ$öß.)ÿðýßëß/ Ì |ø‡ëžÿf ý7bî¿E•OhSê“ÿ¦éÏ »¯_ëAM©þ_eÿ¸÷êÖŒ†ëŸùu€ØüúW¯ÿû]xÿŒgòÚ{Õº»žPõüõo°ß?íö_Oÿ{uó_Õ¿@PÿØßB^§ô§¶hõÁ=€Àþ%~Î÷&¿þjæ_ë¿ö÷ÿGeû|GP¯þCþÅ?ì\£`~ý—ÔË¿Ñÿk û)—_ÿEµêoö_@Øeô¯«Rýþ
å×Eµs)“?wÛ³ÀÃœ^­c)•?k ßÑU‰3yùôýK¥òç`íAê+ó@¾ê// ûöòóûòo=7õoäùÓÕ¯åç×¿QýÌ|Õ¿@þ9·ÉzþœÜæ¿Z@n~ÿüß¬~Î žËàáÚò·ÊÿR.ÿ÷róù{õ÷OÀÒÕåo”?y Ï¥°|yùå/Ü?v ëï@ý&ùK÷@ÁGÉ ýÃPð1’š¿|ÿÀ¿–{„ŒÙßÓ»M¿Bÿ«ÿ¨ýü OþÚý?éÞEµü›ý—@úŸ[½þpêßþõŸþçÖ­¿¾¿O ãÓÿÜô?7ýÏMÿsÓÿÜô?·šùõŸ€þç¦ÿ¹õê_îEÿs«—_ÿ)té_ìîÉV+ÀÏ 1‚öýÝ8eTÊ¯ÿ,*õßy ÆQ%ÿö“€0’ù—PâºT[ÿÏŸ?{¯"ÿT¢>öÿ¼Ú{%ùê-ÿþ Öž”“ô¿@‹û¢‘Àü¯Ä?¢ðþ   LèçÏÞw@??ßô¾úö7€sçíÿ÷Uå[bÌü½ÖâÖ¨ÿM}˜È¿+/êÿXß¦‹¿¶€ËÞÿJ}˜®þÚë[Àtõ#°ß ¦«±€€ø0_ý°„Æ7€ùê, &¿LWoqù`ÆüˆÍo Sæ_€þçÈ¿2€øü0gþå¤ô7€9û/@ÿõ_€þ'Ê_ª¿LÚÿq úÏJÿsÓÿÜþ€þÓÒÿäºõïóp¹§ÿÉér]ú÷y¨,Òÿì²úû÷ÿhÚ¿Ë#d[»þ]»õïòØ‘”?r Áj÷ïðˆŸßÏ~LlþÀ4~dˆË2€¦·O¾ˆú»hw×ÿ•ög'ýéI                                                                                                                                                               °âÇµÞ7C§ð+zß#=ë[ÁQÅÔ7Ã‰Îo‡’ÔßÎÞßÎÞß.g€	\Î> h,çä—ß*¯¿	´”wð+o“= h¤Ò¹ÀjûVVF½Sßj ¨xè6€ÎªzÐUõ?IÿØ›0€êžyø5 ‹Ê'qI8rÿä[Ñ¿¦êsAh®þqÇ\Ð í´õok´Ãö	 ©áŽz½¿”7ÞAoô7€Â†<fheÌ3ÞêßýæŽdÐÞìßÿöŽbØãÝî?ÂÁ¸g»ÓŒ›œÝ¼ùÇ¸ËÙ{°»ý¹Ï©|¬ûýG¹Ó‰|ªú×÷cîþ£Üê´&Ï?Ê½NkàCê?È½Îjä3Õ¿¾Ï4,ÿ 7;«ÏTÿÆ=ÓÐüCÜì´Æ=ÓðþÜì¬Æ=ÓˆüÝïu^Çèßýfç5ì™êßÄ¨‡•ß ný÷iÿUG=Týóë‡L`cý‘Ùß Vòï. ÷±®¼7ýKåß[@ÏsÝxwúË¿=Ž»ùî `þ­	ô:Ùýw³‡Zwy˜üëè3€è÷¥~ÿå	ì ÆáÆ¿'ýKäd)ïFÿ2ý—Ðv iïDþBù{ ñ]è_¬Ê ª<dÄå[­óý;þ! õÚòWîßf ÉÖ¿`þ´äßdúeå¯ß¿úWÙ2.ª‹þuÿ˜•sMùËöOú'¡¬Ìº¦üíú¿*~Ò™ùäoÛÿUÁ“Îýð•¿CÿWù½‘>øºò÷êŸi/~nÿú`ö¨Ÿ÷¥¿aãõËŸñßªÿ&2\þb?Á­ÿøýýúõ«Rù‡ïÿZÿq¡ý¿í§è#8€þùïÜ3¥þ£÷ÿÎ_a ûoRgÓó!ò Ö°ûúÕ>©M§Sþ­þùŸv^½ê›L£ü¿ÿŽèŸù×€Èü§î<€ŒwñûSDÿôì½fíÏl“iWÿfûý¿¸ûzÅ?·Í­iþïõÿƒÀþ«”~|Ó«Z?³üs:è«jýûüËØº@‹ü§î¿3€K¥þk_ÿ{T2¿þ*Öìõ¢Àü…°ù`/§V¯þfÿåÿ[T,¿þK*Êfÿpú×UíHÊäÏÀÆÕÿM­)“?w_WÑU‘ÃxywýKEêçàû"úWôÿa…ÈïË?mêç/àùÃõ¯é?Qþ¬|Ö¿›@v~ÿü×¬~Nÿ›ü×ÈÎ¯«ú¸ÏŸ5€û‹Ëß*ò û/ 7¿þíò¯öÿù!¢â ®.£ú+ý?ã¯N`1Ò –ïXþFù_öâ//à¹Ô ÖîYþ6ù_ê/,à¹Ì 6îZýýWê?à¹À Z=þ“{	ï¿^?a žØ¿©§Wñù_Bóß-  ¿g÷i\qáý÷òß`½ÿõ?ˆß¶þÂ ‚ûïçOÀýêžÃI=môéÝŸ¦ùïÜ?$ÿõ 6ú@Çüuû@ÿú¿„öÌïÀèù#û_"ûûp’þk/øº´þê¿öI~á¥!ý [þìþ‹ïÆ'€Amçï¿úŽô?Ã_ÿ6Þ‘¿ i3lÿíw¥ÿ€6óÇ}ù7ò=ë?„­üýãé?†üúŸÁj}ýÏ®b~ý' ÿÉén}ú—»2UË¯ÿô?¹Zùƒ~€þjõßÿ!@†P)ÿî3ˆ:ùõŸFþ+(qÃV#ÿö“À0–èúþüù³ó*òO%:ü 
Ý)µ„~âÿÔÿ~ n1„õ¿Y@‹Û¢‘Àüo´? ðü  L+äçÀ8¬¥Ÿ¶‡ÓX}þ¾·E#ËOùc g¡ÿ¹Ååÿû¦ùM2@ÿ¿7ºÜ,éþýû·øëùoë›ÀLþ]{xib}˜0þâöò¯Å·€ëï/ <¾ÌXgqõ-`ÂúXêVß &¬ÿ¸€‡üÁõ-`Æú÷ÈÊo Ö¿[ÀmÿÈü0cý›d}øÀ¤ùïž_ÿ9ó ³¿LÚÿs yŸþ`Öüý“òë?iÿ…ú@úŸÛ¿¬|^EÿSöÿºŠþgìÿMÿYérúŸ\ÇôyÀÜÒÿäô?¹Nýû<Xév™ý}Àô²òûþŸ#hÙ¿ÇãcOrßÿ{‰ù#û·\„Jë5€æ‰)ù#ú·~8Ä‹Î<€¶ƒd‘ùÃÐò+¦þ+ñ(4þ+íÏNú³“                                                                                                                                                                Øo½o…¦¹Wõ¾Gúµ7£Š¨oSùïSÉü&0[ýÍ	¤ä·€éò—îoså¯Ðß†–?«¿4qòAù3û[@S‘'_ëÿÐE•ƒÏïo MT:ø­¨0ŽZç¾Ô Î×?àU ­jÇvQè«Þ©_Sÿs÷ß™@[aMÅC»¤tQñÈ#/©ÿ¹ûo, ÄÝ°¤æ‰G_Qÿæjxü ±ªÇpIhªîa'\rµ¿TPû¨õZõ“Ž¿æz(­þ1ío eµ8äè«nõ7€‚pÑþPL³ó¼îv(¤ááÆ]x§¿1ìÑîåã.g7îÁî÷ã>§6ð±ê_ßÀÇ;ØÀ§ª}³çä^§5î™æâ^§õcþþCÜì¬Æ=Òàü#Üì´ŽÐ„»Ô¸G‘¿ÿÍNëýûßí¬†=Ò¨ü½ov^éßûn§5ì‘Fö7€Ø'cz×óD7ß™þÉÂžŒí]Ç#Ý~w±ýàSà“q~èv¤{ïOÿ"ÏÅº·€ngºûþô/“?çIëÝhÀû»ÿuHÌŸó¤¼•n4í½éŸÜ?ùY¹ëÜhâ;Ó?9ÿú: õ]éŸÕe;¨öS@ú7Ï¿¼€½”>Ûä÷¢~ÿ¥´@úûÐ¿@þÞÈxúéßu 9××¿LÿžÈ¹ºüeò§ü)°Ðmf]\ÿŠý›@þ1ú' ÄMæ]Yÿºý«ÿKþÁû×ý†ÀÌ+Ë_¿Å	É­·ž_ÿ’ý:ÿþrëÉß®ÿ»‚Ç»/¿û;€òý‹Ù¬Ÿý¥¿ê·?‡aûïÔÏýÊý0‡QûïæÏû‡ßa
ƒöÈŸóMÃ:çÿõ¦Rùïÿ^iAýw:Ê`Œüë¿YRþ‰ûÀþÛTyP“$ò V°÷õ×TúåßéŸù)`çÕ+?´‰4ÊÿûÍzþ…þ9
ŒËæ4¬»€€þÉØyÕŸÜ¦Ñ ÿwý\rü4«ùrZ?øoÔ?á‚»¯Sá1N¬rý‡þ_Ë÷”žAÑÿFãüËŸ .eœÿÄ¨Z«ÿÆ×oé_UÍú›ý?°‘‚ùõPõD6ò¿
ˆÿª\~ýÕ<þ¡ô¯ªâaÉŸ?€¯é¿¬ÚI”¨Ÿ?€¯ëè_ÙËËËËÝ/eÇS$Â³ÿ]…‹—È¯“úÙxþpó‹úÏS?k Ÿõï'Ÿ¿îßvNì¡þÖ ~~
È³€üüú7Ëÿ²Ý~}ÏEpwqùÕ_À]ýÅ<ä¿^@nþ¥”?sy	ì¿iÏ°t»òÇzú™ÿv kõð\n ‹÷+Rü•lÔ¿é¿•ÿv Ï¥°öˆäOÍ¿0€°þÛõo°Ò?òO›Jþ´úx	ê¿›ÿzÏùØ}\ê'æŠÉÿ‘ÿ{ Ï™hu8§Ì;€— þaù¿Ò?ã?AVþŠýã°0Vsæüñý–ë7€WÂ·Í=€—þáù?ÕŸqû_bûÀøùŸê}øëöþ?÷ú@ïüúûÐ]@þ þ‘ù÷?ô;’S¶¿4¡ÿ¹uúí_ÿAúð×R}ûû`oûùõ?²RýÓþþ¯w»ùõ?´ÝüÅÿõÿ*¿þýíæ¯ÐÿëÒú÷·—?ð›ÿâ¿ÿCÿ1ìäí¼€«Kë?‚ÍúÁßüûýß¯ôÄzüˆŸýyµ”y­~ø·€ÒSLÿ8úOAÿ“«”?ägÀAü!?Êêäßý!pFQ§ÿÎ³€0„úþüù³ýúO$%Â ŠÝ/ÅE}êé¿ñ4€Œ)ø÷ý þwÈ¿=FÖÿz-îŠfÂò Ó[ü—~Îbí{=8…Çïõ²†3	ûÆ?*ô;?9&ýONþs‹éÿ÷M‡›¤žÀüoõ¹W’ý{³ô’€üwñM`Æö_î_¼“1¾	Li[ù7ê›Àœõ&°’/¾LZÿa‹ýƒò[À”õï°?´¾Lÿn9ù`Îú×¸ï•ßfÍÿ8€´ü0gýïäö7€Ió/õOÈ¯ÿ¤ùopIîo “æÿ@v€þ§ö¯g˜´ÿÛ ô?€¾ý`öþ—Ñÿ|ýßðqýg¥ÿ¹å}ø¼ŠþÓÊèÿMÿyérúûàÌô?¹ìüúO®Kÿ.”eyý}Ðüô?»ôü	hÿðØÕ®ûÇFˆÄü~ ä8Òúû°IÈÞ¿íC!Ml~?ÿ}8qõCÐêÎ)&´ýñÏNú³S                                                                                                                                                             €sûïUï› ƒÿ¶õ¾=:…·“ÖŽ]À[íê¯õ¿+o‡íÿ_hw8xÿÀö&0–Bùãê›À8JôO¨oÃÈþèOÌo£ÈËŸÑßºx8öœúYù µµ“OŒŸÝß ZÚ:ù”öùù Ý“m¿tQUØÁGÅ_é¿ùBýû?ùðøW5€1D|PüåË¾oh*áà÷Ú/_6æÝ@+•Î=æ’p†þ	7¡uµŽ=öŠÐG¥S¿ þ=Ô:õ„@µÎ<åŠÐ\µ#Oº¢þÕûˆKº¢O Õ;ï´K@SO»p(¯êQë?ºº]º¿”Uû”‹÷7€’êqÊµ·ò[@9-ÎWÿaµ9Ýòý ˆVg}ý½üPB»£-ßß ²µ<Ø¸wß rµ=Ö˜÷”_ÿL5ü=„å7€<Í5ô]„æ×?G‡C|Áý C3záùõO×çLÞID~H×éHwßMT~ý“u:Ñ½÷—ß Rõ:Ñ½w¥ÝNtûÝÅæ×öþ·ï0º¿ÜØýIüO½tç]êŸ!ì¹ìý\0ð(ð©X>ô:ÐÝ÷©šàçâùÐéD÷ß¥¤ˆy6¦±û/|‘@ÿ=QOÆö¦Ï‰¦¾Gý7Å>_·#M~Öc?ÚŸiÆ{Ó?-ÿÆÚ ã}éŸœm›ýëxÜ;Ò?§ÿòZ çÝèŸ×?éi¹ËÞgÖûÐ?3ÿèß·çä½ýóûw@æååÏÏŸò§Àb÷Y+¿þ™ýÛ| óâúé?€Bw™yqùkö¯¼¹×Ö¿jÿÚ?{qù+÷¯ûL Ùíä¯ÞñŒËÜav<þ¥òo~OP¥³ÍŽ'›þ?¢!¿žüÍú—·‘?û_~«ßüï¿™?ó?êßýfÎŸ÷-î|ÝûÿúÔ?ã+<”’y »ý“ŸªÂC™Rçþßù°ß?ñ¹€Ê?’Y“¿Â äß7ÈgÿôßÖcî¿I½G6qò'þ0á¹ úå´šåÿý.¶ÐôÆ½áâ¿œTÛú·êŸ:€¸ü§@“üWõ¯Ö?ìGúƒßhõa_Î©íÿÆ Öß>h ¡Oµþ /§T?vÿÐ'õyõ}9§Úõò/ÿ	`óžHµÇ:¡Êõûï\£lÿšv>uëoöÿZÀîEJæ×ÿVåÓØÊ®`þÕÅ_ÎªîQé_b Ÿ—Òÿ^Ýs(P¿Ä ¾®¤ÿ’ŠgP"þ ¾.$ÿ¤Êä×¿®—.]$¿þâg/àùÃí¯éïë?Mêoàç‡½ü÷(‘ß×“<===Åå_ÀgüÕ	\×¿[@üú'µÿ^q ·ñ—ð\x ÷××?¹þê ó?`¡þãòg.àá^åO¯¿<€•úwýWêßà¹è –“üéõ—ðÒ½þÝžK`ñQÉŸ“ÿa /!ý·ó_à¹Ø V—ü9ùŸ‚ó`/ÿÕ VúÇþEpó‘ÉŸ‘ÿv /!ý÷óà¹À öœüéùŸ‚ó¿„çÿÀjÿÛ¯f´ÿ ~bþØþaù?ØyÍŽçÌù¯P2ü ^)ß>­þ?wú/€~ý_úGäß@Ç9•§AûÀtý£ò¿@ÿÁó?æOìo ùðOèïÀ±úÇæ×ÿÔ¿ýïö7€q~û¯Öß'€®BóëLû×BúŸ[©OÿUú@}úŸ[Xþ ¯þ'}ýOÿ¾ô?¹ üE¿ùë&¿þ…åëýýþüß_Pþâý¿.¬o!ùÃ¾÷;öû?_éß]@þÐþqßÿýJÿþvëïàæãòûÀ!ìÕè¿òœËñCˆÚ¶ë‡þèoý'Q'Ð2‚:ý~
œ1¤åÿógûåòÏ#¥þ«ÍW‘"±Ÿûú/ ØíR\ÜïüRPèNé/$ÿÝ ÚÜmõÿž@ƒ; –å¯ôs+ÿÒÇ9,ý[¯5œGà?üsP¡ßùÁ1énúŸœüç¦ÿÉÉvùÿÞètŸdø÷aée;ùoãÛÀ´í¿Ü¿ÂFþÅø&0qüÅ	¬äß¨o×˜ÀbÿÝú0oý»	<æªo×¿Y@r~˜6þõ îúÇä7€ië/ '¿Lœÿn ‰ý`ÖúKýãóÀ´ù?÷áo óæ@æ‡¿þóæ/Óß NÞß &Íõ€·ÿ¥ÿÉúÈêo ³÷¿Šþ³êÜß :ÓÿÜrú_’þíOÿ¡äôÿ¦ÿ¬ô?9ýO®gÿN™kúû€™åç×j½úwy°,Èíï;€f§ÿÙåä÷ GÐ´û‡Ç¾ÔüÑhýÀ”˜?r mQ’òÇôoúhHŸ?| âê¿Rÿh"â¿ÿì´?;é‘                                                                                                                                                           àÓ«zß½ÊÂ3ÛÀá”io—³Ç7€³×7€“×7€“×_éÿãAóÇK“üÿ…Ä7‚îZå_oÇï¿[ßº©Ÿ?¨¾ôS¯pzè¬BþØøÐWÿúÐW¹ü©õ ‡«sïûÁo íÝŸ|~ý¼üÐÒâÉgÅÏÎo í¬ž|búÅ‹~_× Æ²}ò	é÷/ê‹ã8ùÈö›ý;ïÙ Z<ùˆø¡ýw'Pôq²(æèã‡çß¸h#úä÷Ú‡ý–pÐ@•“¾žôRãà®§ëx'Ÿr98wÿKùÛ 'úÁ'^Î †Ê?L˜+j)ÿHý †Jõkô7€yêWø€”V÷¤+ô7€‚jrþPLýNºþv~(¤ÉñÖèo %´9Ü„÷°›ß 
hu´Ñï" ¿dkw°‘ï#(¿þ™ZlÔ;	Ëo yÚkø{	­¯žÆ§ú~Âó@Žæ‡öŽbòëŸ®Ã™¼¯¨ú0{ÿ”Ó¿„.GºùããëŸ®Ï‰&56€
ô?·Nªÿ~¥¿|ÛÿAÜ/½ŽSÿjÂ~ûC¯óÔ¿’Ðgb·ÿÎ‹`KøSq|­Èëè¿&êÉXFì¿öª¾0DÌS1}êsž‰ïÒ òo/ Ëy&¿Cý“úG>)SõMwú'å{N¶êGšþ¾ôOí¿º€­4ú°ðw¤rþÕl Í7¿—æ[=Tÿð§e­y¬9ïCþ¬ü# ë=èŸÙ¿ÿ ôïÚ¿÷ ò.¯þíþwuýsó§ àf^]ÿZýÛmæÕå¯×¿ÉW‚õïß?~ ä×?¿õç Ê½ºüuûgÚ–›Î‡íþ1?Ÿ?TÿË¹Eåú† ‚7™ÛNþUåòßžsÉ{Ì­·‘_ÿ’ý?ºð=fÖ“¿]ÿ4¿~ýúU¯Ÿüúçÿõ)¥@Aù‡îÿ•u yýåß4PþµlöÏxØg:ôÏ€üÛFÊŸö	 ñ‰@«<œùôÍÖ?} !oRïÁM¡]þßÊ÷&ÐÇ9©ÖõoÖ?à'ºãÞjñ¡_N©Mþëú×ËòýQo´üÈ/gÔ#tÿ §t“µ~9£úõ7úß`ë
!}õÇ}9¡úõû/¸d èY€¶öå„ª×ßÈ=€K‘þaÑÿ[íú›Ÿÿ¿°{²ù“žòæ êŸÄFþpEóë­ö9é_f ×ªÿ9o*µ¡@ý2ø¼”þ÷*Ÿ@~ýø¾”þ3Ò/¯j\¸P~ýã=}	‰ÿ.ãÝ=¸ûå2ùõOŽ¿·€«ú[øùe;ÿÃŠä÷õŸœú¸«¿2€ïøk¸Î_fwï@ÿŒúkx¬¿0€»ø‹¸Ë_` ÷ïAþœúËx	è¿TÿaùïŸ_ÿÌüXÎ3€µúwXêŸõ)`áÉŸ—ÿ)4ÿKXþë<—ÀòCÓ?+ÿÝ Vë_õßÎ5€åþwÌ«ýŸ<:¡Íú·ý_úïåÿÀJÿ”¯l<<ù›ößÏÿ5€çÀä>ý¨üù¯ð²ß?$ÿç žƒñß„y¥~Fþ§°ü/ùw°x§)åÉÎ_¥ÿÏèO ôîÿ²ß?8ÿû ÖûÀ0ù+ö÷	`¢þ/ûý#òû0K~ý«`ÿKl˜ªéýÏýé_ÿþ†îo ïï@oúŸ[D~ý¨ì‡éþpìþo×Õ¿£²ŸþõŸþ'œ?¨ü×ÿõï+8ÈWÿõ?{ÿ¨¼¿…þ]…æúæ¯øïÿð÷ÿÎ‚ó‡õüþ¿Wúwš?ä{¿õŸP`þÀþ¡ø~ý;Ëö£Øûeýûª¿9€›W[¬|ó’›_”¿¿ ü!?ùýf¥þý°ÿUXþ÷„¿kù±ÙþMXþ;þüù³ù
úÏ#-Â JÞ4ÅÕÿì;€r÷Kq»õFöß|@fsóÇÿü·¨}{Ôu÷÷¿ ü¯Ä?„õ¯ÿpË_æå,Ö¾Ðÿú‚~wE+KÿÖçSÂy„þÃ/¥ÿ¹éròŸœü'§ÿÙÉvêŸÜ^þ¿_ºÜÙþ}Y|ñFÿïö60{ûõ¬äŒoÓÇ_ÁRþõú60}ý»	<æß«o³×¿YÀ]ÿ ú&0yý«¤æ7€™ã? >¿L]ÿk ©þ0yþë¤å·€™ë_õ¿$÷7€yó çÃß fÎ_¤¿L›ÿó7€‹è²üeúÀ´ýoÿ- µ¿ô¦ÿ¹uîo én½û@_úŸ›þ'§ÿ¹•Èï€ëÛ¿Óƒæ›þ'W ¿˜Y~~ÿ85ýÏ.·Ú z<R–åå÷- óÓÿì2ò' õ£#@r~?t‰ùãú7}DDJÉïG€%ºþ+õ%*þ+õONü³“Ý                                                                                                                                                         6ü·¦÷Ñ-½œ°´Qny˜V¹ôp9{{8wz˜BÕøúŸ¼¾œ¼¾þ'Ï¯ÿ¹ó/õÿq¯Ã£§Oÿ‡öFp¢üëõMàýwò[@KÍóï×·€†Zçìo ­Œ™ß š3¿4Ôª~L~è¡fþ¸øÐQáúñå “¯s/V?9¾4w{ð%>ôóò@K'Ÿ×>»¾4´vôiå—/yseÊæÑÇ·_öZÐØþÙGµ_þšú7vøÁñcòï, ìãdQÌáï·ß¸bì@Å?þzÐOù³O¹žþãõO<ü´ËÀpù›ö7€ñúÿ¡¿tËß´¿O £Õ¤¿ôÊ_¸êo Ð%~ñ?ÿ%÷7€õ‹ÿý?½¿´¯Ÿ~äiW¬u7$ÕÏ9ðý Úñ7ÞGÞmeÞošœqüÕ÷ó@	Ž7ò]„Ô7€|íÎ6êæ7€L-O6üÝ××?OÛƒ|Gõ Oãcx_qñõÏÒüT7ßatzÈÓáPë_C3Õ]ŽTÿaô9QD§óÔ½ÎSÿ1ô:NýëÙÿA¼oÝŽÓ êù9Ü+úKàObÑÿHÂØþ!¯£ÿ²ˆgâ³Ô-À¸çbùÐë4£ß¥þ{"ŸŒg°þ)o£Hþít:Ï¤wf iù7Ðç<ÓÞ•þ©ý£Ÿ•«î‘&¾ý“ó§ Å÷ ¥¾þqýW°9€*Çš|}ýsú2€ô«ëŸ“”è?Xÿ¶È¸¶þyýGø[@ÎµõÏìß 9—ÞºÉ3÷Ï¿þ… V«ÿ˜ý}!0ëâúÏÞ?ëâòç÷@ÉÍ»ºþUûÇ=;CŠ¼«oæ×?¿ÿâ	—¼Ï¼ëË_»ÞoÏ»òÂùð_U*æ_Ïâ®û>ô¯þáÿªÞ™æ•“¿Mÿ¯“Ž½‹_¯®›ØNÿVý“¼Õß^@V<ù×”} YùäºÿUþÕÔë9¹±ò×ø ÿ–Þùóûç<	|4—±ò§üñ,ðuÒTZöÿý©tÿòïh_ÿf aù“ð6Õ?Å­Gþ«êŸðàÿrB]ò¯à’>€È'_~ð—ÓiRÿ!ÿJÿKNÿû$ä7€Jç±Þ?äËÁøž@ÐëU|Àóh‘ýÓÿuÿKþÖùåtê×ßìÿ¹€Ýk”Î©ý gQ½þCÿ´‹Î¯ÿ§§P ±´›ý,œA~ýRø¼˜þWZ@füWúwõô©Û”Ë¯jü®(–ßŸÿÒãï/àåKúû|~wÿË¥òëŸSk ßñ·ðóËVý…	Ê¯VýõÜæ_Àwûµ	\ç/¶€Û«ÈŸ—y ÷õðPÿqwù~(_ÿÌú‹XÈ7€Åú÷xè_àSÀÃ½êŸ™ÿ)¨þMÿµúwXèŸû)àñÁÉŸ™ÿ),ÿKXþ«,åÏü›ÀÒÃÓ?/ÿÝ Öò`;ÿ÷ žÃ¾€åÇ'fþ§°ü/ùã¶€ÕG(^þ§°ü/¡ù¿ð<€°oõY#©þ/»ýCòà9b Y?.Nþ
ý&ô—øê§ç
Ëÿ‘ÿ} Ï)`Ðþ—èþ0Eþ§
þ>Œ w˜!ÿSPþØþ>¯ÿÏrýàèý_ ÿùŸ‚ò'õ÷Àaú_
÷7€ƒú×¿3ýÏmÚþÿó¦Ñ)×àýŸ7ë[@¶¸üÍÿü÷¼—ßòýðoÕÿ&¿ä(þáŸÐÿ’Ùß ¦íIéŸß 2Ää¶¿$ÓÿÜbò‡|óOü¿ÿæÿþo zöÿxý;ŠÉß¼ÿò-ë_RDþ€ýˆ@b(*<È~=ö_ûõ½ŸÕ¿‘ðü?ùyßùæÍõ@¹Ã8£ÐúA?ù}ùþí£ú¯ß±þEç}æ‡Ç·_|YtÿPX`ý'~YÈÿçÕý‹¯ß&6¿,.¬þâ n^¼ðáÿçºÿ×+\¿Qtþ›$<Z–ì¶·•é·ÿåþ;Ø¿[ùûY‰ÐíÑùÑí_ñ®ðð
wo©þaû/¿|á­µ?XÿûÈÛãàpýo*ï|nàˆý¿Bï|jà°XÔûF©Cþ“SÿäÔ?;õQÿôÔ?;õONþ““ÿÈþ}[{•õü¯U¾Qj¶ß\Ábþ›ö6púË+xè¿ß
ŽRÿ~wù·ëÛÀê¯ÿ ¤¾	LmÁù-`öúKˆÉo“×ì™ß æÎÿ0€èþ0sýûþ	ù`æüwHêo ç/Ñß æÍ_¤¿L›ÿf ©ù ;ýOí_çþÐ—þçÖ½¿ ¿O ³*“_ÿiuïo ]érúŸ[‘þþ 0¯ù}pbúŸ\þéèó¹–Ÿß¿ O-¿¿o™[n~ß6»ÌþIhÿ(Y—•ß÷€@N~?réùýØA$æ@ÃD´„úQhõ8ÈYÿ•ú''þÙiò                                                                                                                                                        à¿k½o†æÉõ¾=º¥·‚Óu6‚£)ÔÞÎžÞÎ^Þ .goo—³Ç7€“Ç×ÿìùàÜõõ?y~ýG£ÿ©‘ÿÇ›ÆÞý,êu§Ô/ÿr|hkÈüÐL§ü;õ •Qó[@#Ãæ7€6Úçío M´®œß Úh[?"¿´Ò.T}h¨~ýØöÐË(ñ §â@W'Ÿß>³¾´öxöéé®g £[;ü”ôK×3€±mž~dû½ü¯f íìŸ~Dü¨æ7€„ž~Hûøïò0€ÞÊž~ü‡´ôUöô£óo¼IÎ£"Pá¿„þpŽþ	o”þ°¨Ø«øõ “ƒ÷7€nùÇèo ½òÒß ºÄ¯ðÀÔ[I~„¤ÇO?öâý yûœC¿bÅ›!­~Î‘G^±òÝÐ¶~ì ZÜqõsO;øªÁ7d ´;ê°GÔ7€lMÏyÿÚqñõÏÕø·¯ß 25?ß¤ÄúWÒáp`]Vÿaô9UýÑëLõB·ÕýTÿt<Oè¯çiê_Çîa]éz˜ú—ôc˜ßú¦þ…ÿ î§Î‡¹ú® AÌObê|–;ïSÿQOÄð©ÿYî¼7ýCÅ=Ç‡Ó BD?Ë»9Sÿäü;˜æ4õOîŸ4€áÔ Róo/`š#Õ?½â“ru¨ú'çßZÀ4Çê@NÿÔ\Æ¡Nÿù VÿÄ\†¡V~ýOÞ?m MÊ&ýkõŸâi–vòs£ÃöOÀÂ+ÿï­ØûMÌ¥Åþáß
|?z É½ôÏÍŸò/ù£l/¿þyý—8¤~DÿŒbòWîðŸûøßÌþ9Íô¯Ýÿñˆ/aù[ôßË¯~ÿûC¾qéü1ÑôoÐÿö”^Z<xµÝüú—è¿ý×³Íú¿^õë9­¢ù7mä«¿½€¬nú·ùðß¶ù±¿7€œpòÑÿfß¿ø+§P:ýW5Í¿ìWÐ 2ÚÉ?rÿ_™ý÷ëÉ¿®{þüþ{ýäßÐ6ÿïw…ûçýèåÜæÿ¨·€ý3þ0gÏŸùÝßiõoP¤ÿ¼üµXŸü«ý×/°WòGêÛ”ÿmn&>÷7èŸðßX8€ËÙ´É¿Þ?ìËñÿA§ÀW®õx§Ñ¤þVÿ«\²ûÇX~ô—³iQý¯BêWzÚßºz
-êß í
mò@SÈÎ_ã9õÓæòâ¿*_ÿðôíÒEáüú‹‰ßoòŸ´ÿ¶ûøÝP2¿þ9õwðò)ýÝ>¿¹ÿÕrù}þÏË¿>€¯øøùm£þÒŠå×?«þê nó/àªýÚ®òýpsýóò?…ÔÀcýÇÜä/¸€Û«ÈŸUq /{ý—óß-àyo EþcÏúgæ
ÊÿRÿv ý‹,àáúçåÀbþ«lå¿^ÀsÈ "°ðåÏÌÿ”ÿ%0ÿ× –ò/ fKQÿÌüOAù_BóÇ ó?ñ!Áþ/;ýÖèŸò­aWäÏÊÿ”?¢ÿÏ­þÏž„TþœüOAù_Âóà9r äoÓ?0ÿû žàc5®|øüß(õáßþ ¢óìßþ U?üã>ýïô7€Ã÷÷	`šüO!ùËö7€ûÇä×ÿäýøŸ/­êröü=ú?ïÕ·€ÖýËþöŸÒÿ¶¾	ä¨ðá_»ÿB~8{8fÿçÐüpöþ :ÿÀýàý7òëß½ÿ¥kˆ›¿tÿKÁÏÿOÿs‹Í_¥Ì ô/+2ÿþ7ÿôìo ‡ïï@aqù÷_¸_ý‹Ê¿ÿ£?Ký÷^Óß— 
‹ËŸÐÿú­W^Óß— ‹Êÿ“¿·o­ÿx¢ò¯`§ðŸ?‹/þ|£ˆüþ¨¸¨ü;Oü²øáÿçÕÒË“ú¯ ä™œKDýÅ\úG`ývõ/.¼þã ®^ò3±ÿÂ ¶îVþò‚ë¿Y¬¿ö|Wý_þ*&ÿò R8_ÂÚz|ÂÇ•þoXyï7¯¿8€Ð»¦šÇü;ÿ[~:È°w&ÿ!ú/?)põ'è¿ùõ¿¼þ_È¾qêõÿþræös;°ü'ÀÏ½—q?cõ¾aÊRÿìîãŠvzŸœüg§>À±üû–x…¿o
ßã'àïj7J“øQ3¸o‡©¿;‚µöVpœúëØ¯oG¨¿2€Àü&0}ýÅDä·€Éë/ .¿Lžÿ~ ±ù`îúùý-`êü·HÉo Sç/Ðß &Î_¢¿Ì›¿H8Dÿäü0m~ý {8@Ÿ fÕ¿¿ô¤ÿ¹énúŸ\‘üYý`þþ>L«{ÿ^œw%òë?±ý3ÐçAóMÿ“ËÏï[ ¦¦ÿÙåæ÷=€“ËÍï{€§—Ù?e !Û²òû!#H®?€†Š‰ù#Ðìá >þõ&<ý;õÏN|¤                                                                                                                                                      €\ÿ½ë}ôé~£÷=Ñ!ºÍrÉ öV0·ÈÈ6p eÛ›ÀÉË›Àê¦·€ËÙÛÀåìõàÜñàröüúŸº¾œ=¿þ£ÿÜô?µ>ùõ…üçÖ?ÿÝã„:çŒoMuÍ¿VßÚ4¿42j}h¤OýüÐÄ¸ù ‰öõCó@£Ö·€VF­o ­Zß Ú1¾4V«}z}è¦Xû¼üÐYfúÜúÐÃÂá'¥¿½–ÌaãðãÒ?^Ì Æ·wúñú‡¿M„Hú•«-_Ø Qöø#ªÀÊ\Sè®ðéG5€s÷7€ÎŠ~dNý»ú1r¨­ÆÙìouU9ø¨Kîä7€Šj{ÉüPKÅc½b@}¨£î¡]2¬¾”WÿÄ÷¯^ß ŠjsÞ;Wªo å4;í­ËÆÖ7€2šžõê…êë_@ë£Nêl •t8gýÇÑå”`ŽXÿ1ô;`ýÐóxõï®óÙ@gÝUÿž†8Ný»æ0õïb°ÃÔ?Kðá}ò, IÔb~÷(õõsØŸÆ>KùƒøF?JýÅ?Ã›ñÏÒ BÄ>Ë—	Ó Òûç=!Çeú'çßÀ$gj Éýw0É™êŸœ?ï¹.ƒ0€ôþ›˜åPõÏèŸ1€Ë ôÏÈ¿5€INUÿ¬þé¸Bÿ¬þÉ¸BÿZý£¿
ô¿w*>¸À›<qÿÀü©Ÿ vÒ·›€þÕú‡>ÙÏZü&Ð¿^ÿ gfÛ¬_} ûùõ¯0€ðü• Õþ—üüú?áŸkäOl¥åþÛÿ­RùSkä×?³ÿÆë§|þÈ\ò7è}Î·¿\ôsJ0ýÛô_Q¤þCÄ¢ùõïÔÿí~½Û¼HF2ý×4É¿Ñÿrs9ÍäïÛm ÷õ+õ÷áß»ÿÂ ¾_ö+h Õä_Õ(ÿ«µ?ñýÊèÖMþú¯ù4€Œrò¯ëŸ?³ÿ~<ù7´ÍÿûÝ%áór>ùGéÿQÿ~ Y¿ÿï”SÃþïü·(Ð=¢ü;ºä_ï¿þö	!÷ã¾Uáßç&Ò*ÿzÿël¼}HÌøÿÌÃ\N¦QýõOÿ×Ø¼À
Nàr2mêßàþEõ«ô_|ü—“iSÿªêªä_xø—siSÿMFüWmòŸ­ÿò –_õéÓ¥‡
ùõt_íûM |þÅñ_Îg÷áß×ï³€&ùÏØÇRý©?|^Nÿôú;xùPøfŠæ×?§þÆ >ãoàçÏŸ?×_úüáþ×æ×?/ÿÚ ®ó/.àçüÅp}%ý³ê/÷¿«ÿØÿ¾þÒ®ò—]ÀÍuäÏË¿4€‡üwX¬¿€ÛüH^ÀíUôÏÌÿ’ÿ%(ÿÍ žwPæ?õ¢^þ§ü×ØÈ=€çD/àñ
òçå¿ÀËNÿÍüWx@ÜÞ^ÿÌüO!ù_óà9t ¹ÿùöÙé¿›ÿk ÏáÈ{~ýóòÇôÈÿ9€ç˜|nàþÿï×Oü/ßßSJÿ—ýNþBýËäoÞÿ{ U®~ðüåûÿÜè_g ï¨sé£ç
Èÿ•ÿ} ÏMÀhýÛ~ 5ÿS@þ—¸ü›ý7ð?_ZÒõîŸôÀw}8Bÿ¸Ü×·€FùŸò×ï¿”ßFé›»ÿsx~˜³ÿÏ¸þëù- AJþžý7óÀÙû@¤ÒŸþ{÷7€cõŽÌo qJú×.Çëo =û_ú÷7€	ù÷¿¦þ}LÖßo ¥Åç¾¿DÐÿÜâóï~óOÍþ~(Mÿ“‹ÍŸô£?{/	ÍïK@ÅEçïýÆ+/Ó¿›Øü»?ù»•í¥ÁýPáŒ-6ÿNÿ•üþ,¿üãWCóû7Àò"ó¯à²ÕÿÏ›¥—G÷÷M ÅEæß|âŸŸiýƒŸBÿ
"óo=ï[lÿ¬½oýË‹«?€üÁýï°ñ¾å¯ ªþ›‡øÃÿÊ¿õ×ÃÀü¾¼Ž¨øËVûo½ÊõKâ¿‘D?³û“Îþ!	"ÿ¹ûû9àñ$}úOî»€Ü{§€€´%ûM ç
”R¶h~ÆVý	«þ…UÿÀ„€ƒû÷¥÷Ð¯}úþ^«p4«¿›øFp€ú;XŒoÇ¨¿³íö&pŒükªoó×_@p~˜½þÒ bò[Àäõ™ß æ®ß?:¿Ìÿn )ý`æüÿ²óÀÌùKô7€yóéo Óæ¿@r8yèJÿSû×¿¿tT(¿þ“¡¿ô£ÿÉén…úûÀ¤
å×VúŸ\™þ¾4«2ùõŸ–þ'W"¿œX‘þ¾dbòë?³ýÐü¡²(;¿oŸ\n~ý§—•ßAz}?x‰õ_Éññ_©vâ#>                                                                                                                                                       äùïJï{¡O÷;½o.ÙáÖF¥·	¥¶éÕ
oÃ«ŸÞ†Õ,¾œ=¾œ<¾\Îžß Î]_ÿ“ç×ÿÜù ?ùO­k~ý»ÓÿÜä?7ùÏMþs“ÿÜÆÈÿãV·Ó8¡ÞõïÒÛ@ccÖ·€f­o­tŠ¿[ß¶¾4Ò:~h}h¥eü˜úÐJ«ø±ù- •&ñãë[@3•Ó'ç7€fê•ÏÉoMUIŸ—ß †‘Ø>3¿t²rô±í?/e 3Ù>ü¨øùý ±Â‡Ÿ›ß Ú*}øùý ò‡¿Ö ÆQáð÷³À(ªœý~TC£ßOÐß ê«tòEò@uÕ¾L¨ªæ¹Éo 5U=öÍ«ç7€z*Ÿz™üPKõ#_»j\}¨£ÁÊo ´9ï…«&ä7€âZöãEõ@ËÃ¾½fR~(¬ßQ'ö7€’:ž³þýõ<fýûëyÊ©ý ÓÕIv=bý»¸9Êž'¬÷'Ùñ| ½Çƒìyºú7¶t]ÏÖ šZ<ÇÎ'«š¨Ãz·rÝÖ ¢Eþæ»åsâ\õ‘ðƒ¸¯–Orc5€`ñ?†ÿnðS5€0)ÏÃðfôS5€iOÄñjüC5€]ÉOÅ2CHïŒø‰Ôüžé2ý“ûï`Ž#Õ?5ÿÞ æ8ÓÀþcÜì`ý3Ÿñ2ý3úo`Ž#Õ?§Î .cÐ?#ÿæ ŽôïÕ{xwyÚü¡OÓ¼q…ð#}èÞnúWëø#?ÛñkO@ÿ¼þ‰ˆª_súçåOüK`dýzÐ¿fÿK¹ü• fÿ”¤å¯2 ùëö_Nžøü5 íþ?
”š¿Â ôoÐÿÕÃAêªþ
÷O,%fþÔþe?àScùð¹èµÒsé?nÿ××úõaóR½äïÕ?è}>óo £˜þ#öÿ|•ïü[ÈI&·þË¸~…_©ýƒ£ùð_Ñ ÿÃ^Ö?§šü]ûïø4€Œnò¯š&ÆNJþuóÿþýûwÙþûñäßÐ4ÿký…döß	(ÿ–ù·ú¯¿uRÄýøçÎŸýÝÿ%ú'~ùg§dHúë7*ùH'Ò¬þê§ÿÄ/ÿrw
—³iVÿs Ë/Ú­_©ÿã!\N¦YýlMòö ë›¤~þï×ýqWQÿéÊð~Õáw_]Pýëö½P#òsHJý.h’ÿ|ý÷þ´\î|^Qÿ=«õ÷ðòòòRúfJç×?£þÖ ^¾¤¿ïçççç‡_¬ž_ÿðüO»õÓðüéþóëŸ—e 7ùð•¿üç€«+éŸU±ÿ]ý•þ??íæ/¼€›ëèŸ—ÿ) ÿÂ ¾â¯Žàyg …þkoúçåÀË~ÿ‡úxÞ@‘ÿÖ—ü™ùŸò¿ä¿_ÀsÀ âðpý[÷_«7€ç äÿW~äÏËÿÿ%,ÿÍ žCðøc¡1ùõÏÌÿÿ%0ÿõžÃ°((þ+ù³ò?ä	Îÿ=€ÜþovÒ¿‘?¯ÿSDÿýü…Bþ¬üOûù‹õ¯=€*—ŸP¥þ!ù¿ßÿ¾D?`ñ“ó?íçëÿs£ÿs@üÔPëÃÿ%*Ê'€‡ú&ÐüÃ¿Ð§ÿ„O ËõM`¬Oÿ?kõßÈoGëÿ™ß êæ¯×ÿR¨¿Ñ?<Ü'€ýüÐ¢ÿËÀýà°ýƒò@„´üúÅ!û@¿þ—²ýŸ“ú@(ýÏ--ÿðý PéýçrÔþ¦ô§ÿºý}(NÿsKÉ_ì›¾óëßKJÿ„ïþØ{AX,.%tÿë·]yQP~ýË+Ùÿóåùï_×ß—€‹KÈ¿û³_[ùï^Ùß¿—ÿ’ÿÏŸ?–^þùFú÷Ÿç™–ú¿æÿ@pÿ¥»Õ¿¸øüÛÏü²ÐÿÏnÿàŸ—¿¸øüø~ÉÏõþïXùÓAXþ ”;šsˆÏ?€«¬ú_úø_ÀÚ;–¿¼èú¯ë¯üå/¤ÿíÖß¯þD×³ð„oËý_°ü·o½ÿ•ü5Ä×_r—é)÷_c—üUäÆ‹[ ÿÆ Roœ"õ_@æí“)¤m‰þž`PiKä_^@úÅ($$m‘üÈºe¥-Ôÿz¹¢ ²…ê3  ´ò—² ppÿ>õ¾:ÆÏ˜ÀßÅo‘FñÓ&p[ß&Ï7Åø60uýàlÅ7éëoO`?¾	L_u¡õ`òúËˆÈos×_@\~˜;ÿÃ bó[ÀÔõKô7€‰óß %¿Ìœ¿D˜7‘þ0mþ2ý`ÖüÿŠä7€³÷7€Žô?·úÀüý}˜Óý ýÏMÿs+•_ÿI•êï€sÒÿä
å×V…úû'€YérEòç ÃcæJ‘ü¾`^Eúû ‰Èï›@§–Ÿß7Ï-;¿™\^ýWòÏ.§¾Ÿ=†äú~
üPbÛ¿Sõù¢=             ðÿìÝIvG¢†QøÔ«¹Ìiišk	šÙäþ7ò{4ÙDDF‹¸wd³ùýA„N                                                                                                                                         @œ§%­Š&ÙW´>Vâ­‡‹)ocÙI—–Þ:w,«	Œ¬^{8ÍßN³×7€ÉëÀäõ`òúÐXëúú7Õ:¾þMµnÿªõ9˜ØSZŸ„‰=õ õI˜×SZŸ…y=õ õI˜ØSZŸƒ™=u õ9˜Yëöê·Õº¾üÉ?9õ''þä·ÿñåêÞþ—Z•¿Î½¤Õ™MƒôûñM žêñë[@-ÓÇå7J*•OÈouÔ(Ÿ–ß ê(Ÿ>1¿TR<~r¨#¸iZüäüÐ¡ØöÇúÀ#8Ðß &ïo µå?ñ‡ú@U%Î¼þ£(tê`ÅÎü±þPEÁ3°¿TPôÄ@ï
Ÿ÷£°€¢ÊŸuèX“n ýªrÎ WµÎ¸t©É	7€n´9ÝÐ‰V'[ÿ>ŒÔß òkvª íN´þ=hxž -O²þhyŽ ½¦gØ šk|~õo¬ýé5€–z8¹ÐL/§Ö â$üÞ¢nÎ¬DHù3ÜE=W”øwØú:«$õiÞ]œ¿îNªHŽW}ŸSØuè™Xzï5€Ó”Š>Oéƒ?|€m?ùÐÿÕ?±Ž§b;u@ÿÄü!áŒêŸÚ CœQýó}&ÖSôOï¿3€1N¨þéý·wBÿ^WòZê¤ú ‚Â×üò§ .~É	è_¬ÿÞ|EÕ/µ ýôO@bþ"¿`ÿ­çzKÉ_`úêÿƒÀÓ¡üÙ éþ®OdrþÜÐÿPþÄÇ„ÉŸw ò/Ñ_ÿ‚ýåÏ: ý—è¯ý—ß>ã5•¿Ûþïoûë×ýûÜ_br+ýûìÿþ†¿>\¿×Ýå¨%ý¿Þî3ÿçmÀë».\Ü‘^ú7è¿>€«·úÎ1€{‡‚ÉßKÿû·Jë•Ì§ÿ¢Âùo°ü&¿ÂúŠ&£þŸØxƒôþÁÙä_V!ÿ¾ýËÉ¿¦rþß¿ÿÎÛ? Þ^ý‰óöÏX¡ÿå 6Þ;1àný™ógxøo†þßØzïèŠûå§ÏüáÿQVò`ó”qš[ÅúG•ÍßÙ•­e˜úeú^v—W¸ŠQêÀÇ÷|¥‹¯¾ÔàH«äŸ®ÿò ¶ã7Z@üV¿ÉjäŸp ;·€ËñGÀòuŸ³ÿæàõüCàóõß´U{ /orOùüú‡ç?ïÔ?¸€çççûfÍ¯ÿ‘ú«ø®` Ïî^‘1¿þÇòŸ÷ó§à3þ\^’þ‡ò/à%wÿ¼_®.GÿcùÏûù_ç_@ò®/EÿcùÏûùÓð¼;€,ÿØ£þÇòŸòçèÿ\èŸú“ÿXþs@þ,ýWp1…íÕ×üþ+Bâ/õO9Ö‰óŸòçé;€WÛíßÈ(ÿõ –óçø q ûôþ]ˆù8êÊ.”¡ÿsXüèÈßá§ÿRÿçðúq?Ç§ÞþÁ7 kõ£¿Päæ?cÿçØüP8óþ{ù-à‘ú?'ä7€:ýæÿßÿâûå7€rùÓûÿoI¡þÐWÿÅö)ío }ô_¿0€ýþÁù ‹þÿk×ß Â$çèÿ¿–ý HöOÿÌý¯ vÛß Bè?·îo Ró7éï`ÜþË/Õ¿µÜý/Þd9óê+ôo!1TÿûšØßw€#ö_ú°5ú@ˆ´üGû¼öòùÝ ôÞ?8¿þ½HÊð·?Ûùß_õ‚þ~˜_Rþøþ^Ý¼þêõ©ÿîŸ~ßôË¹€û‡€ü1Èsv&”ï™þÒï`éhõÏ.%ÿÞ3¿ÜôÿÐ?ìY äÏ/%ÿöý/¥ÿþÓ ½Ò?¿”ü›Oüw÷Ýßmÿ•ïöóû+€ê¿ZŽ¿øÞ¥Oÿ¥owó‡ øšó.¡þºÅŸý_~÷·ûãMò—­þîÿŽö÷g edª_¾ÿÎ R/•Ï¼Œ€ºÇúo ùBÉ$$î¡ü[8p¡äô¹}(ÿúŽ](YûÜ¥þìÔG| €Êþ}wè2þy—í˜¨ÚþÓ‘öß²%Uê'-à®¾Œ[?v+ñM`ÜúØ¬oçXÁ~|»þÖëÀÐõWžß†®¿<€¨ü0rý¥Dæ·€‘ëß÷Ïo ç¿@J7–þ0lþsä7€aógêo ƒæ¿@r˜¼¿Œ™?[hFÿ¹õÑß ZÑnÙòëo Ã÷w0"ý'§ÿÜôŸ\®ü~0&ý'—­¿_Œ)W~ý•)¿Ç ŒJÿÙeÉïA`ãÊ’ßƒ@–#¿¿Ùñúþ
hp‡óÇ Î#Ô¡ø¯ä_rüwêOO}>ˆÏõ
Z                                                                                                                                                       áiOë¤Mw#xHqÝM oq½’Û›@‡âŠmo}ÉÓÓ†Ô*¾Ì^ß &¯o M=õ õI˜×SZŸ†Y=u¢õy˜SëêßZŸ‰)=õ£õ©˜ÒS?ZŸŠ=u¤õ¹˜ÐSOZŸŒ	=u¤õ¹˜ÑS?ZŸŠ)=u£õ™˜ÓS/ZŸˆI=u¢õy˜ÖSZŸ…y=õ õI˜Yëöê·&þääž]Ëò?>,¼èæÅ”Ó¢üMéuõNÃ¼êvÊoUÔMSßê¨Ø>¾¿T™ø@üèüPCügwZü¤þPÁ±Ûô¢ù- ŠÂáõ7€G‘Øß &ïo AÿÉÀJõäþPOÉÓž> ¨£ìY?Ðß *(~Ö gNºô«Ê97€^Õ:åÐ¥šgÜ úSý„@OZœnèG“³­/lèD«sm }hv¦ íÎ³þhzš ¹¶'Ù Zk}Š ­N°4ÔÇù5€Vz9»ÐDG§ÖèéÄÆ`òäú“½¾Îª„É÷çºTñ¶»;¥°+ã_ìÿ»ûÃm ð™:‚txBõßúT-ûú<¡ú'äO@·çSÿ„üqèû|êŸÔ?x ½ŸOýÓú&ÎSôOÊ6€N§þiýC0ÂéÔ?µÿþ NçßËr_¹°ƒ”¿Ô özWÜ€þÉý“¿ÜôOïŸx 5™ÈŸÞ?ô'3¥~‘è_¾ÿ›«3™š?ÿä?Ð?õ×òç^€þò'àXþê8M§lÿ£ùó@ÿ#ýŸšôÏ9 ù+÷Ï_ÿÉû×Ài>O%0XÿÓ„úè¿õ¯¬þöÿ|ã_¿~ýZx§œWVþ¾ú_¼ékýÏ\½ßíe‰¥'ýïÞò3ÿÇ ¾ßóæíå’ÿ^ÉüËXz»ïüŸXv¬˜þµû‡~1Oë™Lþúý/°ñVýE“Iáü_øü¿ß¿gìÑm;ÿ´ýKÿþ÷Úï7÷/O»ù(·SÞü}ô¿»ÿ¿,5Þ^ý‰ó—xüÏ‘þ›ïžRp·ýÜù3=þ7ÐJýWûõýk_ò¯¨˜ÿ(ù¦~¡þ—ßÓu­g”úeðuÙ]^ábêŸ¿=Vÿ^_CBüV¨ß ÏÂ]ü‡Àò	8Í&­~‹ÔÈ?á ¶o Wë>€¥ë>iÿçÞª?ô—€ÏÔËvþÍ¼¼É~DÅó@pý¼×?º€çççûæÌ¯ÿ±üç½úGðüîþùòë,ÿy?ÿËÁüpqAòÊ¿8€ëü©øÎ¿4€#¸¼ýå?ïçÏÐq ©¸ºýå?ïçÏÑÿ¹Ô¿ø¬ÿ±üµú¯àcK/¨ïÛÿìý_ª÷_P_ÿ£ùÏûùóôOÀ«ôïä?”¿^ÿ€üõ.êÃÈ(ÿy?þÝý8ò÷Ù?b õ#& ÿüçýüÙú?ÇÕž€ú#÷ßÌ{o€ÈüUû?Ç×·€Šý³æ»éoÛ?,¿Ë_·ÿsb~˜½¿”ïÿR¾ÿsr“ýÓ¿`ÿ˜üPúÓ¿÷þ@ÿ¹=r¿ÿÕ ôÏî¡ûÀ.ýçv ÿKõþ¾ ä×Ï§þ°Kÿ¹é?·äü-ú»_?ý3ÿHÿ²ýsÿú7è`úg—š?ëƒ¿ßèÿÈýÿ¼;Ößï€óKÌù·Ÿù#p÷&úç—˜?±Ì ÞDÿìóÇ=õGJÿÅ·‘?»ÄüQÏüÔ?äY@ôÏ/-Ô3å¿^ÀÊ[È_@Rþ¨'~Ë¿õ<€Ÿô/ -ÿçB>B`þ òV¿ùK¥~Ø Zâˆ©2€Ö8¬â¿’ròONýÙÉ?„Ÿ?–ºhõû÷óÍåÿe½xñ‡èÿQýjL5€«!0ùÞ¿ïÖ^½[þŸ+…’’íw&°åº¾Œ[?a‹ñM`ØúqØ¨o£ÖÁN}¸þîâ[Ààù7šßF®¿6€ˆú0rý•Äõ·€që/ 6¿Œ[a ñù`ÜúyúÀ¨õ3õ7€Qóß ­¿Œš?SxŒþ©ù`ÐüÙúÀäý`Äü¹¾þ@;úÏ­—þÐ†þsÓnÝô7€62öw0 Œùõ‘þsÓrÙòû	Ð˜ôŸ\®ü~<¨\ù ò5æŠþ³Ë“ßƒ ‡•¥¾G,K~2²ãõýØØ×%ÿÐÖ¥þHKÿI}Þ¨ÏÂ
Z-è                                                                                                                                                      ÉÓ§ÖB«òZM²›@ßŽÔÙëm}K/”PÞ:“Xé@zèFb§ãñ- i¡2Å·€ÆRRålo -=u¢õy˜ÓS?ZŸŠ=u¤õ¹˜Oëâ7ZŸŽÙ<u¦õù˜ËSwZŸ‘©<õ§õ)™ÉS‡ZŸ“™<õ§õ)™ÉSZŸ’©<õ§õ)™ÊSwZŸ‘¹<õ¦õ	™ÌSgZŸÙ<õ¥õé˜ÏSGZŸ‹)=u£õ™˜UýÆêw¥Vöõ[ý*s¥^ô(?Þä¸‚ìhžþ:ô[¯*‹’#¯ÿ#Hî+ÌôÏðCŸúaõ- ‚¤ø…ç7€òê¶ÌoåULŸÒß Š«U>­¿”W-~J¨¢Fû´þðHúÀäý`òþ0yxÐ½²gÜ ºVþ”'Àj¨qÆ W•Î¸ô©Þ	7€Õ=ßÐ›Ú§Û ºÒàl@GšœkèE£S­'ZièC»ól hzš ¹Æ'Ù kŠ ¥NÎ°´ÑÏéµ€z:·Á0lº:±á°€<:;«h~¬aàþÍöþj«·3j û2þÑæ¡ûwp¼äü›íþÎ§þ;²þÕ~§SÿmYŸ°£ÇÓi [ò>eK—gSÿYŸ³§Ï“©|þ´tz2åOèŸø\¬]žLýãóFÎS7ôOé¿€nÏ¥üIýcw2ÿ¾‘|-bLÿÐþ°þF·Ýkl@ÿ¤üÉ_Âj×›€ü‰ýþ> º~©	èŸÚÿ©zþ?¹ÿSõú% íþ‡òg_€þÉýŸšä¯=€Ó|žJàïÎ Õþò×Ài>Oå%ÞÈKÿ©û‡çÀßý@ÿûï¼GÆ«+gýCÞ)×uÕ¿Ÿþ·oûëÝÒ»2’¿yÿÅ7ýÈÿ>€›÷¼yÓC±ô¿U·ÿÚ›þºÀÅû^¿á±\ò×ì~Kþÿk ïï~û†ÇŠùê¯`þ…›ñß¯Bûß;–LþÊý/púÎ¿0€ÄþqÕä_R4ÿ«‹ñßý7/+=Üf|ýËå¿ð™óÀÖ¤¦Û‹?qþNú`óRòí·Ÿ:ùÇÿ]X­ÿ9€÷ÿQÈifõò¿àÈ»Ë_@Åü‡É_À0õË÷ïéºVYÿüæqú^v‡s¯$8þùZƒC-–¿Ó¼:‚êßÄo´€
ùàþ$,Åo2€ùçë7€SPýá°rí'ÀÖÀüƒ`áºÏÚÿó4Ü½t³þØ÷>.oïžÏÔÎú¿¼ÉLyó/ÝûÉÌZc ïõ.àùÕý‹ç×?<ÿy7ÿ¼å_\Àá	|]ü‡òŸwë§÷ÿÌ¿8€cø¾ýå?ïçOÀóÎ ’'pyúÊ¿8€<ý/ò¯`ù1áùõ?˜ÿ¼Ÿ?Gÿ¬ªïÛ¿üý_Šô.ô/‘ë,×ýß­¥#ÿ±üçýüyúïà¯áFþ¬ýòg¸ÿ¿;€Ëöq#ÐÿPþú/Æž€úó—ìÿ]?lò—ýô/Û/Ð€ø‰ùKö@@þ¨»ƒÕ?,¿TêŸ5ÿ}ÿçÔüP(ÿ8ýàñúÇä×¿|ÿ—ÒýŸô7€ù‹ö?åío “÷7€Çê›_ÿÉûÀèý¯ ~Ýß ©¿€üôŸ[þü]õ7€úÏMÿÉeï*×ß€®úgþõŸþ-È_¿¿çW±ÿŸ?6e7¿þùU{ð÷Ÿw[Ç¢•úäßÀn¿. 5Üß~þIÀÂ[èŸ]rþSRþšýSNÇ|’ûßàt´ÿõß@ÿüRóß`óc„åß}(/¡Æÿöÿ\Àê«å/ Æ†Õß§©õ[¿„aòû+àB©8€ÖÇ8¢1êçzÿ•üÃøùáûr\ªúƒå¿”å‚å¶ád¹tÊåÏÓe¹.›,Šö¿›@Æ&‹Âùé]Pÿ¾µ8FŽù÷ÓÒ+wó_Ä7‚ã¯m`³þB|7þòVó¯Ö7ëßo`1ÿv|;ÿõîóÔ·€¡ëß-àŸß F®¿pW ²¾Œ]y Qù`äú9ú[À¸õ—ß †¿4€„þ0nþ,ý-`ÔúwýÓòÀ¨ùoÚß ÍŸ«¿Œ™?[2¾þ0y¿¿€Éòçìo Mè?·~ú@úO.c~ý'ïïÀxúéo Mè?·Œù}‘þ“Ë—ßï ‡¤ÿä²å÷ 1eË¯ÿ 2å÷(ÐQeÊŸ<€z×”eyò' Ö•dCŽúþlhÇë¿’`Gã¿‘lGÚRŸ½´>8êŸË´>                                                                                                                                                       ÜÓ¥ÖC»ö6Ð³]ë›@oÊ”Yo)Òf§½	ô"c›°æÐ\qRÊ@kyêhoåÈs¸½4r<OžöÐÂñ>ë@eÇûä­¯MåÎ¯59
åmwñ”“£PÎî÷—N9y
å«¾té“)Q®æK—MAyåj¾tÙ”)RžâK—LQ™*åI¾tÉ•«RžæLQ¹2å‰~¹”•­SžìwKYù:e*s©–¯ÔÚë–¢Êß\ù¯/éÀ.uEY–+ÿÊ§zä‡Î|å+ÿñå"‰Õ.ÿ÷¬¾îÇ?r~,–´¬¿þJ…9¯êß·€Š×ßo¥õü©o 54iÕß 
«ß>*¿W½~\(¯jüÈüPG­øñýàÁÄö7€Ç¢ÿä`nÑýà±ÀÜâû[ÀC1€ÙY@Çjœì”X@ÕÎµô¨æ¹6€îT>ÕÐ—ú'Zÿž´8ÑÐFçÙ :Ñê,@Zždh¯õ)6€¦ú9ÃÐBOç×êëêäú:PÛû÷p¤¢³“<€öÛ¿‹Ã^oç3¦<¸îN§þUÿn«»Óé`WÎ¿Ûìîdê¿#ïŸm÷w2õß”÷ïö;<—úoÉü¼=žKý×å~â–.O¥þõž¹§ÇS©dþèòLêÛ?y}žHý£û'ßôxåÎ_ë™ÕÿþTô£èß¿ô þ¾Wîƒéß¿àÚ—€ü)ýà¾ìzú¢Ð?¥ÿ±ì§®¸ ùòZ@rþ"Ð?­ÿS‹ú% Zÿ§6ù³@þŠý3ä¯<€Ótž
àï bÿ§Fù3@ÿZýså¯xpšÏS±dë_íà4¡¶ýÃÞ#çõÕ¿yÿèw:eäæ¿RÿÈø¿^­¼ã)#ù[~þoÖ_]À)Ÿþû¿¾ô÷ïß[ý-¼ïõ›ª%»þïñß¬çÿuÿÞWoy,ØV~ý3÷¿ÿ$þÑÙ±bòß+—ÿªÿUþ»$ö‹¶YÖü%û/à´?¸r¶íö3÷/ûàKýïîÿ­H
·ß~æü… ra#ÿ÷ ¶/"6^Pú¹ó Ø—­üŸØ¹ˆ„ÁÍåS+ÿ× \BJ[ùwÔÊŸüS_ÿ2F©_h ß—ÞÛµ­$¢þùB‹C-˜¿ÏÁWVÿ²}³”Êßí-^Iõ›, B~¸;	Ëñ` +Wÿ4Í°žô,^ùû_ž„Sxý÷ÊçŸ²ÿŠíúcß	ü¸8ýäßìÿòêÐÇ~~~^xqÎü{w~fv>Ðÿ-þÁ¼æ/µ€ÏK’ÿHþÕ|çOÀGþåœÀ×Åè(ÿy?ÿrÿŸ7¶ò/àÕáüúËÞÏ¿0€Ûø‹xÀŠÐúúÌÈÿRÿ~Gú¿Èïîÿ±üç€ü/aõoð|| K¸y½þ‡òG÷ßÊ=€ç<xµœþü‡òŸò¿ç¿@tÿ¿®„^Wý+ößË9€ç˜\·üGòŸò'ö¿X‰8ù«õßÏŸr°™?`ê—Í×ÿgdÿ½úáH>aóæëÿóXÿçÔü÷iÞ?ê 0¿Têÿ²Ñ?0Ì@p~(’ þðxýcò@…þ/9úÿ\íÿ|¨¿dÏß¶d~£ÿ×¥éÿPýOÍûÀàý¯ ÿXý#þ[ ¿4í2€‹KÓ°þËù#ÿ³ù ý ~ÿ½¹R_ÿIú¯Ò¿¾Gïo Óß@~úO®£þ~ ¨õþ§rýý ¿ùwýyïÏŸ?¶ŽEÿ2÷ß®¿½€½ü~0pÿÏü1¸{ýóKÏ¿ý·kù·¾ìä÷€Òóïþéÿý»u ÿÍ NGû_-`ñõòç—ž?à™>öÿÀÊëõÏ/9ÿåö>HXþWõ#ûï,^¥çxâÇÀú{ô/à@þêä/`œüþ
´ŒQê‡÷o}œƒ)–á±^ÇÈ_H‰ÏýG}&‘¿”ì7ü»ûM#ÿ ö÷Fþ¹ûo ÃÅÓyÿd¹tò(×e™.›<Âòÿó)öâÅïÝnþ¯öÉ# ±¯Ü¼r»ÿ}}9þÂÖó¯Å7¡ãßm`9ÿv}<ÿåòï×·€Áë/ ®¾Œ]ÿ{©ù-`ìú×HÉo C×ÿúœßF®ÿó€„þ0lü…Äç7€ëgéoÃÖÏÔß ­7€Äþ0jþLý-`ÐüÙúÀùóõ7€ÉûÀ€ùõ^7ý`òþ0z7 ãÉ™ßÀxôŸ›þsËÚß€ñäÌ¯ÿxôŸ\Îþ~8žœùõPÎþ~8 ŒùõQ¾ü2¤|ù=lL¹ò@ÅkË\ù=|T™òû;ae©ïÁ–£þ+ù‡•¡þ+õGv(ýùÙ]AëÃ£õ¹Aë£                                                                                                                                                      €ðôªõAÐ®ý·Ö‡CÃø&Ð¡rUë›@GŠfYÏo=([e»¾´V¸Ê~~h§t• úÐHñ,¡ù ¾òYÂë@mÅ³DÅ7€º
g‰no Î’_ÿJJwIÎo ïr ¿þÅ•ï¢Ç*„Ñ¿_UÂÈß«JeôŸ»ê‡*rÉÑ¿ÊO³^Wúèþaó]Oºêös]IVµÊ_ãÍtÝßc {Ð²¿w eþõŸëâÙÕ4ÿòÇÏxéìj›ÿþ2_8{Zç¿8ˆå×ýøñ£Ä‡äSóúË~Üª÷¡gÓSý»ìPAõ·Ò[@a­ã‡Ô7€’FÈo %5üºšß ŠjT?¦¿”Õ ~T~ýk¨Ø>¶¿<ýçÕß þss09ýç¦ÿä`v0¹¨› 3x@ñ0ÇbÓ3€ÙÀì`zÀe]h¤Ÿ³kôtn ¾žN­»Õý©WûÆëßÏá>€#öïç€‡××ÙîßÏ!nÔþýóØú:•ý;:ê‘uv&õõ/·ú:‘n vÔþËÍÊôßÖâw«ÒK‹?Ý¯Lÿuž¼¡*ýû{öŽªô_ÑìÉ{*Ó?ªÿ¬8Íf­ÿ¤8Mf5íü]ü#èÙ¿Î þ¾Rò#éÙÿ©výÂ?²é,Ô/:ýcû?5¨_núÇæ?º€ž›ù-@þøþéØ
ºW¿ÐôïŸ:€Í !ý,@ÿ„þiØì–?ÿ äOéŸ2€ž=à4§bØÏÙf ú'õ@XÌ¿Fÿ¨”5ûûôoØ?þ=²@þÄþqHëX¾¿Oÿfý7Þú×›•÷Ó¼þ+¿ZËÿ>€²¿”¿UÿøKøÌÿ1€ûw¾|ãC±äouû‘ÿn ¿n°þC½¶êëŸ5ÿ}Áß1ý×~ox¤ØvýIó×é“?¨ÿ’äh;íõÏÿj §býdI?qþ‚¿ º¾ýÎÑ?:\`û™óþð×nä¿ÀöÅÅÄO?wþ² ù¶•ÿk ;—0.»ü¥ öm£~¨´¸òoª”ÿc‡.@þ*ÕÏ@þF©_h ­¯S{1õÏŸ¯wk¯%´þWûv(–¿ÏÛ»JBêßÄo´€òù ´þ#`ñúŸæ“Tü¬\ûÓ„Rê>€¥«>kÿ¯ópóÂÍúGûÿ|ùNÅóÏÚÉNþôü¼µøVÏÏÏ/Õ¿—úÛý_^Å_žÀó‡û(š_ÿðüçúKX©7€Ïü‹·‡7ðy1úÉÞ­;€õú7øÎ¿2€OGêë,ÿÚ .ó_`;ÿå žƒ°,,¿þÇòŸò¿„ç¿ÀóÑ¼ÚÍïî_ü«ý÷ó KÿWñõ¯ñéÿ5€ü_xÎ6€W‹í_É$ÿ9(ÿKLþ•þ!øëZÐ5ÕÿHþý¦ô¿I1ùä?å‰ÊŸ0€Õúôþ›õ÷ éü/qù?Ú7ÿÞÔ¢ÿszþ Û€ã'nºüýcòÇ|ÌøÝ Gûçøô¸Îo ò7ï‘ß fïo åû¿”ìÿ|,¿äÎ_¶ÿþ€þS÷Ío ƒ÷>Úß ZõÏñ ý{ïÿ’§ÿ©XÈÚÿÞ?f —¦ÿœýOû@«þ‘ÿÐÿÑúÇ=þOÿ‡ëõø_ý¯ÿþ ®.­H¨ÝÿúMî3¯¾Tÿìa¯¿/ è?·ìý7>ÖŸ?þl‹þƒõ_}ð÷Zýíìõ÷ÀŽä_ýÛŸü¸{½þ½÷?íïW€È¿ñ§ÿIýwŸBþÎú_àt´ÿîÓ éŸß‘ü—Øþ(aù¿°öjýó;’ÿk »%°ÿù8’?Âñúþ Œ:ýó¿€aêë_FÁü+¿îM&…òïÿÞ?šüE”¹íxàG4ù)ð•¿DÿãOÃšÜ÷úŠô@Žc§×þ»ÈqèäP¨ÿæ 2\<™Ê¿±€<—N&ûùÿ¹sÙêwãßo7¯Ùî?~âwÕ~iëùã'ÜÐYýë,çßŠoã×¿XÀBþÝú0|ýï¤å·€Ñëß ²¾Œ^ÿf ñù`ìúW8¥ô·€¡ë_Ü	LÌo #×¿ÿP|7þ]ÿ„ü0nü»¤õ7€aëçéoÃæÏÔß Æ¬Ÿ­¿Œ™?[˜¼¿Œ˜?c0– @Cõ7€ôŸ[Oý ¾œùÝ Œ§«þPþsËÛß€ádÍ¯ÿpôŸ\Îü~8 ýç–3¿_(g~ý”³¿GŒ(_~R¶ü:¨Lõ Ö5eQ®üþdTyê§ ÂdOŽú¯äUŽú¯ÔØÁöŸÔÇÓÁ±1‚ÖF=Ú                                                                                                                                                       dõô©õÐ®½Ìè>¿	ô£t’åúÐ…òIÖó[@c5’læ·€vê$ÙËomT*ß ª«W$¨¿ÔT3H`~¨¦ný»œ£zèª~® úZ¿zèª~¦ ú›_ÿ¹óWþå£Ñ[ÿÊßo’-¿þ£eÿSÕFwýO5?ÙòWýP¶Å‚Æý+þº‘ûŸª} –´Î¿}y?šçß8„Üˆ.û×y°)Ë:È¿tE>
zÈ{¥>z¨OKýæÿq­úÇŸDoùo²›@qýäßho QßÊ$¿”Òº~`~(¦iýàüú—Ó®~D(ªEûWúÏ-¼¿<"ýç¦ÿäôŸ›þ“ÓrúÏNÿÙÅö7†GžßÂƒŠÌog7ÿÆ×ÂæWþWñ@VênnƒG·}Ç€·wß€9ïZÀìýM`öü&ðèöû›Àìù`öþ0y˜¼¿<$ý'§ÿÜÜ ì(ÿ|ÿ}ujEÿ-åÿ~÷­~Ãè¿¡üpåï~ §ù”ÿþ‹ü½à4
ÏàñßqpšM§pé¢¿_EôÏ»€ëþ]pšÍS…t’?æEN³ç/7€ûWÿýíT–þáýË,`³~ñ	èÓ?ïÝÀå›þÛú…' LÿòÏè¶˜¿äôê_xkùËM@þÈþO­ú—Y€þ±ýÓ°ßq»‰èß?i Aÿ®> ýú' 0ãßµ JÿèW¬= ý“úG &bÕþnþkôXo ò'ö@JÃ:ðéß¦Ú{eï¿™_ÿLýW
þ~µðæ¿ÞUøa°üúÖ_ZÀGþ·¬, J~ý‹õ¿Ì7€_WØ»óÞj§þœù«ô¿Îÿ{-ÿç 6~vÞk¯þ¤ù+õ¿Ì3€…þk?<NL¶›^ÿ¬ùO;ùCú_ÌÅâ£…¥Ÿ8™ŸÿlÝúÜþ¯ˆÌÞ~âüe~þ{ë½Õÿr Û—‘.ªýÌùýþïæk÷Vþ»ûÿkóÅ¦Ÿ;±ßÿ_}íÞÊÿ=€KL	+ÿžBùolåÿXÀîeÈ_B•ü_8tò—P£~ò—0JýBý[_©öâêŸÏçóõotUzšÿ|¥Å‘–Ëßá­]=!õ¯ã·Z@¡ü~½«&¥~“”Ïo ¡õÇÀò•?Í(¥~†üüûÅóO:€‹Óp
­ ÿÏáïY<ÿ¤ý—mçOÀmüµ	<??/½{Öüú¨ŸÔ¹þýž?,]FÉüú‡çßìÿò&¸þÍ >ó/àè¾.Eÿ#ùÏ{õo°™ÿj Ï»X—_ÿCùÏù/°“ÿbù#ð- ¿þ‡òŸCò¿Dä_îŸ:€€ô[þ#ùÏ!ù¿ÿk ¹ú¿Z¯¯ÿ±üç ü/ù?ðœs ä?’¿DÿŸKýð×µ€÷Ð?ÿ—Åþ?Ëö¿IºùËúGöÿ¹Ôÿ9­þþôOÏøéÿ—?þ`³~Ô œµÇÑºäÀ^ý¨_:ÿKdþ¸þ!ù·oäï¬ÿâ åßÿ"pü¼M—ÿ˜?Oÿçcùƒ¾d°þù wþöý£ò@…þ/Ùú‡@ÿ©ûGæ7€¼ùÇëo #÷>Þß ¨B~ýsö?‡åOúùo¡þ°Mÿ¹õÐÿT²¿dì7€Õü±¿ÿ×ÿÑúÇ=þk±ÿÍ ôÄþ_—¥ÿcõzüw¹þÐªÿí –^xqY…¾þë_¹ÿÅ«;_¾âòeú?\ÿÐÇ¢Ùûo|¬?þü9ÐßÀîú¯<øwµþöô¿ÿnþìä×¿„cýWþô7­ÿî_ËŸß±ü7ýOÇú_`áÕúp¬ÿå 6?LPÿ½§Ò¿€Cù¿°÷aBò-`íµúçw0° ü;ä/ Rÿ×¾ý(™ùÀéä/ xþ|¿„b7þ»¿ö¦	…¾ôüÞ?šüE”È¿>€#G*ùë—éŸá9@X”»~¡þGŸˆùÚ¿)‘?d9ŽŠäß@†@&Eòo Ëå“Í^þ®_¬úù÷ÊÍ+7ò_·úÆ_ÁJþ•øq·ÚwYÿzý7ãG~) Çú—¸ÍPßÆ¯;€Èü0zý¯$æ7€Áë_ %¿^ÿþÛÁÈü0výãý`äú·ˆÏo#ÇÏÒß †Ÿ§¿[?S´~®þ0hþëèo cæÏÖß †ÌŸ¯¿Œžÿ`˜¼¿4 ÿÔæ¿ù€Œ¦¯þP›þsËš_ÿÉûÀpôŸ[Öü¾þsËš_ÿñdíïw ãÉ™_ÿeÌï—À#Ê˜ß£@F”1¿G(_~S¶ü>¨LõÓPåZ².S~	8¬,õ_É?ªñßÈ?®£í?¨OÀ
Z Å‰ÏýZ                                                                                                                                                        ŒìéBëc¡a|˜ÎB~èA•Ëõ- µJ=Öó›@;õrl÷7€*æØÉoÕÕ­±ßß*ª#$¿TÒ FØ‡4€òK´éo ½ÔÏÜBÿÑê·éo ½Ô×òüúÏßÀ¹óëÿHôŸZB~?| íûûÀ`ùôÏüùÔAþ€ƒÈþé©¿‡€4ÓEþÃ(ñùÐGÿSíÇ‡>òW}À!zÉ¿|$å>ºé,E?úÉy8å?ïúÊO}ýçÿñ©Ù<´.óÿXS÷0¦ÐYþÕôPJGù÷ê@å7€"z¨–ß Êh^?¸¿”Ñ¸~p~ý‹i?¦¿<$ýç¦ÿäôŸ›€ÉÉ?9ý'§ÿì¢óÛÃ£‰Èï&áAEæ·€G´wÛï^Á¶¾ðÀ¼önxh»÷xh÷™.¿Lžß¦°Ùß&Ïo. ¿LÞß æÎo Ë æ¦[ÿýÐy(¿åôï$£è¿­ÜßðÝåïy §9•ü+Î…þm¾Àš’Ä½”¿ãœ&TôÏø;ê²€Ó|Ê>‹Çrÿn¿<Í§ìó¸tÖß/‚ŸÇçéAû{$H`ÿ²¸{³¿ßŠÓ?°¦„äÿˆ_eú‡æÏ´€Øü¥' xÿ,ˆÏ_túÇôÏ¿€SHþ‚Ð?®®{‚kwûWû—Y€¯ÿÑýË>µãFÿÐ?¡ÿS«þù Jÿø„÷«: Ÿþ‰ýãÕ¯æ ôOí3€È~õ°™_ÿ<HèWi òWèŸ–¯Fÿíüú7êÿë×¯Å÷Ë=€üúgÀr¼ßîÞü×‡ÅwÍÙ¯þ”ù|þ/ÆûÌ7€ÏüïX[@…úúúôÿû²þÝ ~Ý`qßož+ þ¤ù+ô¿Éÿ{-ÿç 6~œ,(ý¼ùóÿ¼ÿêB"£§Ÿ8ùþ·ùƒú_^Ð×bºEµ×?_þÛþ§äþ·‚ËE·Ÿ8þßÿÜßtoõ¿Àö‡ÔKI?uþàþá—¸Óÿæ­ƒó'·•Köü—xÿÿ­üØ»XõKÈ^ÿÕõ·­ú¯Âòëš[ü·6ë“¿ˆâõs‘¿ˆQò—@ëëÔAê—èßúu!¸þù[›#-—¿¿±WTÿ"~³ÊßéÍ]=»ùoã·Z@éü\ø,_÷ÓœêÀÏqïU8ÿ´Xû"¸Q?½ÿÏ[ï›¹ÿöžÉÜ_ýÍü‰¸«9œùË>÷Ýèvê'õ_®¿€ç7k—r2k~ýÃóŸ3Ö¿À{þ,‰­¯ÿ±ü›ý_Þ…ç¿ÀWþ¸|
Í¯ÿ¡üçýüWØÉ1€çƒx·›ß—ÿCùÏù/°›ÿk —ù`a×¯ÕÿHþsHþ¯äÿ@ÆþoÛ¿ÒÿHþsPþ¨þ?úgÀùä?å‰É¿Ø?| ]Û}{ýËç‰Éÿ>€¤þ7íƒ6 —ý°Roú§ç?‡åìŸt°Q{òçÎ¿Üÿç±þÏGêàÈY{¹?ý‹÷ßÏ6€c§mºü¥úÇ~É°€ƒ§íaìÿ²Ø?&ä@`þ€o)òé_´p}8ÍÞß ræ¾ùOê8€¨üú?Zÿ¸üµÿ¹yÿØü0pÿçý _þæýòë_¶ÿRþ¤Ÿÿ”êo ùúŸËô¿$ý[©R~ý3ö?‡÷?ï;€åºÐ[ÿ÷×Dæ×òþû_ ‚nîõï¤Ôã?_éßÿó‘þË/.Þß êöÿzÝræ›W|¿TÿÇíûnK¯(ôýŸþ›ö_yðï›»üþüùsóÊË‹Òÿ±úß<ãÏký‹Üß.èÿ ýO»ý¿on/k§¿ –p,ÿÊŸ~.ôÿs×ÿÞv~ý{ì¿ø—ÿ‰ýwžDÿŽöÿÀÝ+âûï<þÍ¿îúþHþW«õ= ¤Œòý/pñºøCÕ¿„BùW~Î÷ýš„C•¿„2ùo~Ôÿò”CÕ¿€2ùw˜r¨ò—P$‘þþ¨Œù#žþ3†üEÈ¿Ó?õHå/#wý¤¨ü…d®ÿª@þÐ:îIåÿ*ý°>ðiåkÿ.{ýWò$þdùä³“ÿŸÁ—)Oþ½tÿêõü—í#G ~ñ—G°œ1~ÄÔïµþÝîòo¶¸Ð¾ÛúW¸ÎP?êÞ ]Ö_¾7œß†¯¿8€ðü0zý…Då7€ÁëßõÌoc×¿@|8þmÿ„ü0püÛ$õ·€ëgéo £ÆÏÔß†Íÿo–ü0hýlý`ÌüÙúÀù3}ý·€VôŸÚ¿õ7€Éû@u9óïo C÷w0œÎú@eúÏ-k~ý'ïo ÃÉš_ÿÉûû`8Yóë?y?NÖüú'g~¿PÎü2 Œù=lHùò@½+Ìµ|ù=|L¹êûCQåÊïO‡•§¾?X†øoÔ×ÑöŸÔG}Äga­                                                                                                                                                        †÷ôªõAÐ®ý—ÖGCËú&Ð‹J)ò[@kõZ,ç7vª¶XÏo-TN±™ß*«_b¯¿TÓ"Ä~~¨£M‡þP\³aØ J
lÐ²¿´¯_¤BËíW_ÿÉó·ìo íóë?wþ–w õoŸß7 ¤‹üúOÞßO ‡É¯ÿ#é$¿_ÍÞÿÔìÏ,>£‡ É_DGù=¬žò{èìý=¼¶Îò/Qù9±îú_S•7³óS‘ü“Ór£äÿñ­í<˜>óÿØVõX]ùwê[@^ÕÉo 9˜ß ²ê§~h~È«“úú7”?wˆàþPJÔ'~îúÏMÿÉé?9ý'§ÿäôŸ^\~“xPAùÝ(<¸ðüð¨V»[0µí;<¸½{†<´Ýû†LØß æÎo ³÷·€ÉóÀìý-`öþ0{˜¼¿õßÿöÞß Jùï·žû@éú' õ[-À@7ùÛ,@ÿ~ò÷zpšX‘?â\íßé½€Ó¬Êüïzþfß	è¿ ÔrwØßo‚”úSþÿŽ6€Ó”Š=™C—ý=àF¹§óÐî't‰Ìÿ÷ßŸ*Ð?,†„÷ÿûÂ©,ýƒû]@RþÒÐ?¢ÿÁ	ö¿Í_rùõÏ¾¤Ïþ¢Ð?¡ÿÜõ[é_d[ùõ/2;þÕ ÿþ…žäs£îlæ×ÿÑ°_ÿ\ýcÓUÀN~ýóôOhWe òï¿?€´v°—_ÿý“Óî¿[_ÿù÷ÓýzSz õçÌŸ¹ÿZºßïÖòï- B}ý‹ô¿¬¿0€¯üïøQpt©°ø³æÏûóŸårßùoðë¶ÿÊ>^,4ýÄù+ô¿Ì3€_X»‰{¿˜ôògÊ¿Øÿ÷zÿ_ËýW¾‡[~êü™ÿaïýOÿ°þ——õùÿñ’ÒO?ó¯ÿâò¯Ýþ/KŽ+ÿ†¬ùíšYÆú‹?üÛÊ¿tÿüeäÌ3€·—lå¿ÿþüedÍ9€Ï—lÔ¿ýùß&õ‹ÈZÿÕuý­Ÿý¾«_¨Ô5{H™ë—#cÔ/2€Ö×¨ƒÔÏß¿õõéDDþó»ÇÀ×Åö¸õšÂê´o9"ù;½±«i¿þuüf(›ß Âë~°rÍO“Š¯t ??Ä¾_ÑüÓö¿>AõÓðóVÜ»gÌ_ì™¯†´p¶ê'ö¿«Ÿ|+pûÿòOÝÿÞ9{ÿÅú‹xŽ¾ìèüú©Ÿ2€Õü7x~—tØáùõ?–»ÿËËËKxý«|äO]À›ýú{ßöÌí|¬ÿký›ìä¿ÀsŽ¼Ù¨¯ÿÑüçýü—ø:€‹ü‡ðj1¾þ‡óŸò¿Dä/Õüåó  ÿç žà¯oªÿ‘üç üQý.ôNhÿeûÍõ?’?ªÿÏòýïâï.@þý_úæÀsÊ –ëï,@ÿâù+õ_Ï¿µ ùÓó—ëŸ0€ÍüH;]'sþ—¨ü‰7 ;ù7 áOÿý÷óïÞ¤Ÿ°Ócÿçãùƒ~@xþs`þ”þq7 aù ]ÿŸ%û‡æ7€¬ùÏù³ôÎ‘_ÿì‘ß ræ/Ú?ô@T}·ÿs–üÐ¦ÿ©LÿøüúçëË_®B~xàþK/Ó¿Xþ¥”ë?€•²ú§› ¿´èùûßþ«aõ¯Õÿ~ kùkô÷`òþ…ä×¿“þ+/ÿ¼¤½þ{™õOQ«ÿåû,¿¢X¨zðñòõü×¯ûz¡þÑÿóåùÿüùóçî•_”ðå_þú¿ÖÿZÀÒ-Cì·ÿúçp´ÿòß~é?Š£ù¯ðõÂ»/ÿŸùß°xÏ`;¿þöÿÀÅËRú_àþÃè_Äñþo¸yÁÏÐÛÿëoÖë' Ã)zh9òß¹ÎupûêÛwÍ÷Ø/ýƒTêÿ1€»×F©þEäÏ¿ýŒŸë¯Ù#	ùó¯þôéu«5úuÞ¼iØ#¹óÇ?ü'”üEä­5€È–¿ˆÌùÃ}Áò—‘7àR.WþB²ÖU¢~ø RzbYëÊÖý‹üådŽÿ!cüWò'g~ùÑNýÞ…^šúù÷CÊûþs+äÔï/~ÂîÚ‡@ý.ã‡¯`½}Ú2]!rÔßÛÀnü¨ûôX}aõ-`ôúË¯o Ãç¿@T~;þÂ bûÀÐõoûGç·€‘ãß %¿?K6~žþ0lýë$÷7€Qëgêo£æÏÕß ÆÌŸ­¿™?_1ÆþP_Îü‡ûÀÐŸþÇû@eúÏ­·þPWÖün †Ó]¨*o~ý‡“·¿/ £é®¿Ô•5¿€áäÍ¯ÿpòö÷3àádÍïw@ãÉ™ß/”3¿G(g~PÆü:¤|ù=|L¹êûCQeªÿJþ1å©ÿJýAe©ÿJþaMÿIýé‰ø, õ!                                                                                                                                                        îééé©õ1Ð®ý—ÖCËú&Ðƒšîó›@Cµ;,ç7&êgXÏouµ©°ÙßjiÕ`/¿ÔÐ.A@(«i€ þð°ç?ðã@Ó³ß¾¿4<÷úOž¿ƒþÐ0¿þS××òüúÏ¿ý ôŸ¼¹#˜OGùÛÿj>Oö/y³é*Øá”=‚¹Dç/}ö›À\ºëï1 Uu—ßƒÀºÎ_#€úÕô˜õ¸*}ì™ôÚ¿ÁCÏ§Ôo~æþô§ùç&ÿÜÆÌÿãUëƒxóçOò–ùöR?^hYäÊ_ ÉbèËÀqyò—Hò#L®7«Üùs	Ì¯ÿA9oû[ô7€c×/óéÞß 9¿Ô]2ý+9ÔþU™úWr$ý»21ô¯äXü«RYKÿ:ÖU¦CR{ˆu<AW÷ú»IHÒqþ[aù-àQûß/`íMr0å_ý4ß¹[ÀÃô_´{¿Ùß ‚=d~ýÃ=d7vÿåü0{ö˜ý Øcö7€`ãößÈo Ü lö·€PÚß 
÷ÿï«S¿ý Ü þ{éÔˆ4êU¿Ývû@‰{€÷õ[M@ÿýWòÀ?\Íßå&‡ôÈý7ò·º#h ´Ù¿Õwú¯Ûíõ €íüà4³´OÐß và¹VWÿ9ò¯XÈ%ýÎß8èâ’þcç¿rópKÿGèrÓ°"ºÿßoNÍúO:€øü%¾ÿÿûÒ©I~ý³öúàUþ’Ð¿Zÿ˜_ Üõ/4­üúgî¿:€SHþØÌ¯îþËXx»•þ¹°_ÿìýï'°üF«ý³.`'ÿœýòG?t£|Åìå×?Oÿ¤lå þÉÝJ`7¿þyów5€ýúúgè¨[¹þ!õ'ÍŸµB·_oVÞ?Oÿ úúçÏÿî÷»µú»(Þ~Þüû¯†ûÈ?€ïüÛøz‡¨\áí'ÎŸñx]	÷Uÿ~ ý7f´4CøÉógü^÷óÿ^Ï1€µ»‘»éºOŸ?ß?ððé3€Õþ‹?GH¯+ÿ†\ùWúoäßìÿu‰_ÿ'¹ò‡ÜüGö¿"¹ò¯<†g#ýO“ËUå§?½÷?Í.[þÛ¼¿l#ÿÊ÷+ä/#[ý›|¼h£þÒÏÿ6È_D¾ú—ø~ÑFý‹\¶ú9ýç?Ÿÿ•¯~’ÀúpšØþó5€¦õcÊßÙµ¬Þÿø?ð[K‰ü}^ÓùCúŸúR2wW¶¨ËþÿÂóùÂ©‘’ù§@@ÿÕø-P2ÿLý_ðý?{ùïê~ðqQ½¹«(2~ŽüL}ÇLõõ¿|Ëx ?¯å8ø¤ü9þaûÇrÖë'à&~¾	„Žàûí÷îó°Y?¥ÿbý|xœ_ÿƒùÏùòßàùØ¡ï××ÿhþèlä¿Àó»Ã×`«¾þGëo÷yžÿr ù3àÃò¯zô?˜ÿ¼Sÿz ;ù/ðœ} ‹ä?˜ÿ¼›ÿb »ù¿ð?i ½ÛCýËç‰Èÿ9€çôüumûõ?–ÿ¿jÿ›ú»¿|ÿ—ˆüxNÀRþÍè(ÿ9$½þ+ù· üKý¦÷>œ?p ±§iöüaŸþqýÓo ¶òo,@þÜý_r÷ÎÑw I§êeþô‰ÊŸÜ/ÈÏhßÿçBÿç,ý oþÀ›ÿ”þ§"ý`òþ3ÅþÏ™ú@ñþwùõÐü}õ7€GêŸ2 w&ïï›ÀºýÏAùËö¿kj Õò·ï¿UÿjýÏõú/`¥ªþsô_«ê`ŠþëUõ¯Ôÿ~ ËùcÿÒ#«þöÿîêö„þïoŸÜ#¬þÕú`3óú“$ôo»S_ÿºýß_ºZÿîuÇú‡(sæCÍþþüùsÿÊÏËÑ¿‰ÃýüZÉÿ±€Å›ýÇì¿ôÇ_Ÿþâúß}ý{í¿ð·¿ý_°|ß@ÿŽç¿ê‡›ü?/ó¯÷¿Àý‡¿ãþ×nóoÞþ/=ÌÞ/ôÏ¨uÿÐgÓ¿Œòù/°ð¡*åóß$Þ~í*ý)ßÿ*ñÎ:ÖÉ_FÖüû' ú\L)g~ý”1ÿî€íql“¿Œù7~ù¿òêˆ‹–¿”lõ÷ïà§ç@ÜAÏ._þëÄ;¯Ž}"xù‹ÉVÿÕ^ÛÄüáH:êÙeŠ_–ú%õÝþüéŸBßRýóÏ•€wP¿#ÿ^8?têwX?aËõC& ~‡ñ£F°Ñ>ð+ö]ÖXÁnûàûtZcõ`ðúË¯oƒ×_@\~ºþý bó[ÀÈñïß ÆmŸ§¿?Sµþõ Ró[À°õsõ7€Aóçêo cæÏÖß†ÌŸ±¿˜?g˜¼¿Œœ_ÿÑt×ß Fîï`0ýõ7€š2ç×4™ûÀ`2ç×0úO.o~ßŒFÿÉåÍïw ÃÉ›_ÿádÍï—ÀãÉšÿè ª^sÞdÍïa`Ê™ßã€”3ÿ‘TººÜÉWß‚Œ)[ýä¿ŠlËTÿ•úcÊÿüÃ:ÜþƒúÓíÑ                                                                                                                                                         Üÿýßÿµ>šù¿w­ƒ¦ùðô¥Î‘Q5ÿÿ…Ö·¶²ø¿°ÜÖ7&òë¿˜ßê*rþö7:Jý þ›ùM ¸’ç>G~(©ð©?xëoEU8óiwþ ‚>N|`xÐóÞËqLæi´þÐâ¤ë?y~ýçÎßOh‘¿Ÿþ¥dqùËŸönd½å×¿çü5Îz72ý§Öa~¿œ½ÿ©—ãxx±ù«÷NãÑõšûÈêÅƒ‹Í_õÌ÷p®ëþËÇWùZïùï²Å<®!úSŠüsÓnòÏ-oþê{½ô¸2æÿŒŸu«—•ÿCM©PþLQV/­ÈÖfT(ž(«—VàcMªçü—ºùÁ Yžúú*KüR·È+x—ß ’å©_æÞŸþåå©Ý$ßÑÞü@²<õWS¶x™›ýí!F¦úumôw‹gÄüëß øškÈü+ßnºS`ÌþKw8Ý+L1hþW‹wü`šþ×–òë¿ï¡ûÀäý`×cä×?Õc÷7€9°–ß öé?·Çîo »»¿LÞß Êà¿oNí@³þÿ½vê¯¿ì8Ðÿ¦~³	@‹€¥ú ýþkù`Šþëù`üþOGò÷w' ÅñÿéPþFßèŸ-ÿÑþ0vþ§ƒù{ûI@›Ã¶þÃõ7€ˆöúÏV;w †ÎÿpŸÿS >¿þsç³ÿFþ‰û§äòç?ú/*?¥ÿßŸÊ\K¿¨Ùÿ”ž¿Ø6óÏÛ?%ÿ±ßÿöó˜Àv~ý3÷|øÇBÿ¼ØÉ¯îþqÿZìŸq{ùõÏ’ÿ6Zøþ²ØÍ¯†þGªý]r ûùõ?Üÿ`¶r¨/ÿáþÇ³ê’_ÿÌù“²•@PýÉòÿç?ÿ)Þ?(Û¯7[—r¬Xü	ó/ Tþ‹l¿_­Ö¿^@¾þ¡í'Í_«ÿ[üÅ|çß¾	ø|Eh²ˆð3æÿìÿ1€Rùÿ¾É?€•þ+ßIìµ‹®>{þÔþ§˜þ¿×û_æ¿ÀÅåï+ÿrÿ÷dÉ¿ÖÿwjÿÏËüúõûè¿r¡ŸþÑý¯ÈŸ=ÿû ²ä_éÿ»÷þ§ùé¿~©ñŸþô?Íè@ÿ­‹Ý»ó¿ýí_“þ§Óìý_¥þ~ÿû÷ˆÊ_` §9%öß½Ü…oÙ·~ø³ùýÿùËôÏöï<.þö½þÊÏ×Ésý°Ø@ðeßÄßQ?ó Þ/1å:N×ÿÔ‚ù{ºš•ûôýÌß×í¥ÿ©3åò÷w]«õ~ŽŸó»SKÙòß_ëÓ¬ýCžâï£}ÈSá:Ÿ¦íŠŠßz ŸåŸ¶ÿý ÞDÕïeŸ²äŸ»ÿ×)¹}óåúÇðóÝ)«¨üGžÕüQû/Y­ŸÚÿç­SVõgî÷À¤úi¸«_`¯öêë<ÿ9Sý"x³^êþ· KÌ=€Õüå°nâüwN«Û+ÿõ ž_ÊÒÿpþÍþ///1ù/ð–?q}Ú{Ã©û,à`þþ/obò/ôNŽ²¹ûï8ëÿžÿr »ù¿ðœÚÿ6ÿöä?šÿ¼—ÿhÿç£ù·& ÿÑüç½üßÈÿ5€ç´¬ä@Ä‡zpùòWì¿š}ò×ê”ÿs ÏIøëØ âÎÐC;ëÿÒ¤ÿfþýÄž£vÎßÿgzÿç<ý×¿ÿFÎü‘ýÜ ìõßýy>ý;êo ™óŸògèÿœ«¿´êÿ³þ5_ý ‹þ/9ú»˜µ¿€qòõ©×ß}ÀíŸé— úgîî¯ÿŸ’¡ÿKóþ‰¿ >ÿÂ êö_î©oýcþÖ5©þÖi QÝ Ôê7€åüúoEÕÿáûoVÕ¿YÿåŸÿ­ÿÍo¶þ…æ×¿~ÿµú÷¯ú|ñNÿ­°;ùõ¯Ùÿý…ëùo_y¤ÿ[Û½úú—íððŸ÷—ýùógá•û‡(vòAæþ§ÕþÞÜ½öëbb¿üëßIÿSDþ÷Ôí_êÌ=†ýïÿøï¾ÿgþ·,ß7Ð¿‰ý?ðõ?“úoþ°þ¥äÈígbÿÏ,^¨þC÷_ýúú<@ò—R:žþÉ8pf&‘·ÿ]þÏÀ_ßþmÿthü¥þô¿ï›Ô?m ±çbJ9óë? Œùú@Üi˜W¾üAÏöœÖ?~ á'`vÙòÅMË=€ð&[þïD½É"ùËÉTÿºî7Y$9™ê¿ÚO›Ø?| ñÍâÒ.i?lRþà¤55ÿÕ·Ä@ýGõÏ?ÿ½úçŸK{o,_þ}—©~ÈÔï-þ,ÔßŸ€øÖO˜ÀZüèCWƒ\õã6°Y?ä® ýÅ\Án{ºþæãÀÐõ×QßFŽ¿<€Èü0nü¥Dç·€aÛ/ %¿?SµþMÿÔü0hý›¤÷·€Aógëo CæÏ×ß FÌÿo¶ü0bþœý`ìþ0˜Ìù÷7€Áòë?°û@EúÏ-w~ŒþsË_ÿÉûû`,¹óë?y?Kîüú&s~¿Mæü‡P÷Ú“:€ÕË“0yó{Øx²æ?4€jW™K9ë@kË½œù“PãŠ²&[ýWò(WüWò)Kü7êêxûêOOüé‰ÏâZ                                                                                                                                                     èÿ^µ>ÚµÿÒúhhYßf¯o§Ùó[Àìù`öþ0w~ý'ïo sç×òþðàû?]©|ÌÓËxò“ú_×·ªòžú”þKùm Šì'>¡ÿj~(«ÈiÏ›ßŠ)tÎó÷7€üÊóØþûù ·¢§<û§¿dVø”Gå;Èç©øÉ_ápH8ßùpìxŽñùsÿðè;bó?á!ñõï5µÞÙá<´ˆüõNxg‡óÀºÌ¯ùkžïÞŽçA=Ü¿âá<ªnûûPùëžñ¾Žæ1uœ÷à*Í#ŠË_ÿŒ÷t,èÿÙ»—ô¦µ„£ª@ ´‹Iœ>C Wæ?‘zr÷EÒ¾KÚÚkuþ¿NEöûÙI;ü8zÿåSÜáTÎ§ƒþž<xþ™óÜë<Î¦—þ×gºßYœL?ùßOwçS8—ÎúS™üc“h½ßü¿}û¶÷)t­ëüßÞì}"ý:|ý•¼ïù [ƒüUc¬ä½Èo ¹~ë_é•ß 2»¾þ­»þÊ×ÿ›üçèù—-À âu›©¿»„$Ýæ¿ïÿ”Û×„DÝæŸÀŒ½Oòè:î5€½Ïñè:Î·€½OñèºîÉ Æî¿4€½OëàN“ß@–ó÷7€5úîüý`þcà€¬ ¿¬Ðlµú½0¬¿4ÀeüÝ&` ;õ¿¯_²€ìpúïÒ¾~ö 
úÀýóç- ¨ Tïÿ£ Î Ê@íü?JòWî_v~.C(êÈŸ1€Õþ°yþEùk÷7€Îúïpà7Á5óoÞ¿ø; w ë¯öÈ_÷GÀÒÇ2Nfôü;ô/¾»¨VŸþeÏæ-½ûAdüÝúÏgÌþ@È‹¿Ç÷òÒéÿæñññ±¬þæ?ÿ—[Ëÿm¸ü·H¬¿ùãåô¿Î5€ÛöŸ–ÿÛˆùKòýþg:Zþ1û?¶ë_û×ÿó2ÿc»üÕŸþÓ6ÿ ýëöÿþâíæÅ=ÈÅq6ÈÿmÌüUû„[X@Ôù]¥ÚÂùGíÿ˜›ÿG«pßë@þúýÛu«>€ˆüßFÍ_­ÿuµ ¦þ8ù[õ¿Í_”­fù×û? þÍ?²Û?Ïîÿ{¥þQñÇÎ_§ÿ}þ«n¿~­Ô,àâ¿%¥Šl?Týjý§øþ¿^­åŸÀë1ßÿg\µèêcæ¯ÔŠïÿ–ÿ~ ÿú—U?¦ÿÓ Jó/öÿ¨è€ü}õŸzè?§Bÿ¹ÃFÜü­æß£ÿ4 òþ³‡¸ùö¯?€i@3ùŸPš¡ÿZþÝûO#*í¿xàÐ7ÿÿ¶ÿàí¨ëëlÊú¯xýgÿÙÇRûWÀË£.Ú™”ô_?ò\þ÷Ì~Djþšx9^ü¥›FïqìûúOâ?IÍ_o /GK¾„§í¿ÓûMÍ_k /ÇÚèBöÐðtó×ÀË‘¶¼˜ßLGÓ*ÿ/êþý§Cª_ÿëþ³˜¬¬~w·yÿ»«dæƒÞL‡‘™_ÿûþ‡CÞãlÏRóÛv áºŽÄ¤½Ä¯£ovÐ¦þ!ð,&ÿÂ·»Ó ÒûÏ×?î ^­Ôwûï¿Xÿðx5û›Þqû/<$'î þûaÚ‰þQù×ëgõ¿ˆßfŸ>}ú~/ý#ú?Tï_¿ê>]Z}ÏqûÏ¿,§~ò æëWÀUýÀôõ¨Þ1ÿý þü©‘mÃæŸÿ yù*å¿ÀŸ'5ò//`àþó&'ÿbÿ¿ORúÿ÷.â –ò/.`ÜüýÊú?ç¿À“ûÿ©“aãæŸÿp9ùVó'õÿoËþáLciÚÿ-ÿÕ þ›ÑÿOµþó_†Í?ÿ'€Óó÷Óu Ó€ªäXÏÿ7!ÿå þ¤ Ø?â1ÁÁTÈßSˆT/yÿ?û@”‡ý#ò_ QØ ÿeþ4ïï`‡üôw°±^ûÀöùBù·ìïg€íû?Tíÿß¹þ°©®ûç>HfþØþÿÝªÖ/‚8r8pÿ»è?tÿ¿ö_ê©ÿý—“êßCÿÙÿÝ-ª/ Ûåàõ¿.tžrû¯FÕÿØý¯Þþ-¬fä×Íýo> VÿO‘ùõß·ÿÝ§ö¿?Ëå´Áúò·í=€•Æ¿ß¿ñý 7ÿX®´)Î?Ûÿ.ÿï·oý8Šþ½öŸ{úçmÿ×üwø8ˆþÝöÿÀìÿ2€¹ïr¾üë_®Bÿ»W.Ýý¯õ_}¨üÍÔÈ+ºÿý«Àç¨;õûÿ7·ÿ"ùÛizó¿íû±'©;-ó¿^êßú ïËý_0ó±'©;uó¯üîgæ=bÏQþ†ªæè¿Õ b=¼šù×~÷7ó.Ñç(CóÇ|{Ÿ‘?} 	‡¦^ý¨º9ýrdH;TDÜœþIH;cÖ|¨ˆ´ùS|ÊlüÏ¾äô@›SÀ6í_dýpõÏê/Bï&ÿ‰ãGm@ýÃù÷ßëÕO@ýãø÷BµúÁ	¨¼ú™XÊŸz'!¨U?}+õ¾(»Ô‹Ÿ4‚@üð 8fý˜DÄ·€Žã¯. 6¾tqIõ- ßøóHÎo ¶Ÿ@F~è¶~­þÐeüûdæ·€^óWëo =Ö¿é_ßºÌ_³¿Þß ºË_·¿ô–¿rØ’þc;`è+½ŸÿõßZýüî z¢ÿàªç÷ +úMÿÁUÏï!À®ÔÏ¯Wê÷÷; ®TÏï—À}©žß“@úR;á ¶¼è<©ß³ ;S¹¾§w§rþülri¹Wµ¾×õ¨býÌ4¾€Ô«ÿDýUŠÿLþN•§%þðÔG{´                                                                                                                                                  €¾\Øû\Ø¯½Œf®¾Œb¹¾L£ç·€Ñó[Àèù`ðü0x~½¿Œ_ÿÁûÀùè?´¤üúŸŽþc«ÒÿÇ“O|tÏ×yù_Úÿã4*œq*^é…ýoÏÄš«{õŸ­oU¿¾Ûä·€&\ÝÍú@mm®îVù- ®VWvvþp¨¦áu›_ÿí„¯êæØöœH½ªÿ¸ùI‘vM·}(÷¬
NŠ¤üEWuz}ý–¿Ý¯JN¬è¤HÈ_zU§Ö×ÿXù+\Õ)ñõ?_ÿ'qé£Ï­ÎI+>ÿWõÏé\¿ÝcÒôÑ:â9™§ëú€§4fþ½®ìãÑyôÐ¿þ3’è)ÿÒiîw>§ÑIÿ¹Ýól†Ì¿ó5~¤s9‹Žò_žíÞ'r=Ýü©Oþ±É?6ýÇ&ÿÐúÎÿíÕÞçÑ¯Sä7€lçÈo¹:ÎÝß ²œ&ÿE‹ˆ×oþÛþo½Ý'¤è7ÿ}ÿ{ŸãáuÜß *è8¿ŒÞ?f {ŸâÁõÝ?f{Ÿá±užÿ•ŒÝu{ŸÚ±¤¿Þe {ŸÙ¡Ðß Fèï Qÿ^ààý¿~ý:íBÿ½û½”|&Å± GµþWõÓPl¥¿´îW?uåÙôßíÀlý¤¬Å‹­h ;õ_ÊŸ0€¨þ¡–°KÿåüñHé¿\Sÿíû¯Õ@b8Yè´ ÿÖw žñøXÔÿGIþVý Îã»ìü›ôßààÛÈõPØ?œó/ î òÏ-àÇqúWúÐÀrþûôÛ?ï8ÓØù³òoÔ?m y‡™ïÿ˜“«þ)È<È4xþëlÒ?í¤Ëó{5ÀZþÇŒü[öÑ,¿þéù‹~þÏ¿ ™õ_Íÿ˜ž§þ/RÜsŒÑÿ±fþj¿þ	‰­È¯ÿkÿ„ü%¿ÿ›¶¦(þßŸ½þÕÿø0"ÐÿGIÿ—ú8L} ²ÿ’þù×îv¸ÌòoÑÿ2ÿû ®&0íEÿˆüÉý×òô? ù#ûÜüoòi òÝ_þ6ý×ó¦¿üÑýlßÿŸg1ï™—Jýèü‰ýù¿Ç×[@N1õÐÿ×‹Õüˆ.>rþŠ_þ§Èþ¯õçðOIÿ›‚‰ÝÇ¬_±ÿÙÿWlÿà ²
Ë­ÖÝÿíq#òÿZÏ¿}ÿi@•úO‘ý%ôßz Óˆêô¿?nÄÍ¿¸Ý|¶Ÿ¿dwþs}óüòŸö#`­üëê|*ôŸ?p°ÿý‡$ç¯8€—ÃE\®“)î¿xäµýgøÏé_k /‹½h£ô`ýØ÷ùß°ðý«,àõH‰oôþG¿‰’“¿Â ^“u	ÏÝe MÎ&'ñ^²Ù…<Aÿf§“•ÿI“üúÏ]-Ï(§þ³’úÃö>ýÿæŠ™Ž­nþ£_ÚMú\7S'2òë¿Ò¿O)õ7ÿ>ç4ýÞLÇ—_ÿ¬þïñ=kõGî|ùwlýÃ/`þ©ýgêw< ýÓúÏ×ïw ú§ä_¬¸|º°úŽãöÿù§„úÇÀeýÀôíÿÐKÿûú+7ZÿPýã`!ÿÒÆíñ÷Sò?=ÿüôè“ÿ øT>€iuó??ÿì†ÍÛÿáLýï ÿzÿ‡sõÝL‰éÿPØÿïß¿EçøçOåþ«˜ÆîŸv ŸœáŸ?Iˆé?ûƒàˆõ#ú?¡ÿŸÊý×JÍ›ÿÃRþ’üI@\xSóæÿ°˜ÿoa~w Í¬ö8Jw Í4ìÿw‡þªZþ•þKû»h§Uÿ¿»ô7€dýŽÔß·€Õ¹ù¥Á£@£ªðÃß‘úgþ`dòßà2ö þ´@æ£ïþp†þòûç<„.ûÏÕÿ\ý—°ÔTÿ­óïÑ¹ªþý÷~XÎÌ¯ÿý—Ë†óë¿ª4ÿý#"ëŸIÿÁ=lóøïïß¿/¿Uÿs÷ª¿º ù÷Rš?æù?oùcpÿ&ýÝŠÏÀÌ[ôoª8ðéÿQýW^¢ÿÁûDö_$KÍóëlmúÿ÷ãÿ-Ì_2€¼Ï7–6ùÿ;;€¼3Ô¿©÷þWýÃ?ÿÈßT“üÿMxü/Dþ¶jç¿ï_Hþ¦jç¯Þ?k UOàäêæ¿úö¿ùÛª›¿ùÛ:výäì}¶:týÄì}®}:rý”ì}¢;lügòŸÖÿ^­¿—ú§Ž±õÏ^¿`Û3¯þýP­~æ2/5âgN`¡~úJ.uê'O`¥~ð{Añ?iúÁpÐú1ˆˆoýÆ__@l|è7þÊ’ò[@§íšß:??€ŒüÐgü¹þYù- Ïú3Èío=Ö¿ëŸŸß zÌ_³¿ô—¿jè.ÿí Êú@wùëö7€MUÏ_Üß úÊ¯ÇŽØß ¶£ÿÐþ=dØJƒüî z¢ÿØZô÷@?Zä×¿#ú­A~÷¤A~¿êH‹üúw¤EOéHýúžÖ—úùKúov±yS=Á 6ºÈ\©\? [\XfÔ­ÿDþ¾Ô­Ÿ5€¦— šõ½¸Oµâ?S¿O5Ú¿RxâO|îG°÷	                                                                                                                                                 œÌ—k{Ÿûµ7‚‘,Å7¬×7“‹Èo£ç·€ÁëÀ4z;¿žß Ïo §¢ÿÐ2òÀ‰è?´¬üúÞß ÎBÿ¡eæ×ÿ$ôïØ?~¥ÿ…çDØJ×w¥üW§cmÕ¼²«ô¿?!h¦êuý¥Fÿ…üP_õkºi~¨¬þÝº¿ÔÓâznß ªis=—æö7€:]Í¥ùÃý †f×ra~ý7ÑðZ.ËqfP,âJÞf Y§VvÙ‰Ê¿É£ÀyçVpfÄæ/º–³ëëŠþ1È?»²3^\þâk9¯¾þÉ_ãZNnu‚Nldö’Ö>æ+Ø bóïx5õ¼Náøùýxì›‹ßK“˜ß+ú˜guô¯û¬4zË?{¦{ŸÒ	ôÓÿî\÷>Sè(ÿÕÙî}&'ÑÓÍŸúä›þC“lòMÿ±uÿÛ³½Ï¢kýç·€Aû¿ç¿Y€U$è7ÿUÿoÁUp²þWù_cÏý7Öt›ÿ>öœ½ÏñðôÛÉû@@¿ùÝœ£I&è½y)ý;î_§•œ£“û€Êg|2ºÿ7€­f-ýÛõOÀ×7‘ï_)×ZØªÿ{ü„	l0€¬¢bÿ›ú‘¨ÌÀÎýïë £˜þy*õŸÍ5€JÑÜìy°?f ÑÝM`¿þ‹ùKUÿeû¯Ô@vˆòøîlý ¥þüÊû¯çoù e Ó®ëÏ- ¸ ÿ–w Ì7€Òþ_Ôß ‚ùoð£p úWûpýPÓhæóß, °8ÿ–ß ¸Híÿ£ïþi‡š†²˜ÿr ‡è_ë! Ð¡¦‘¬ä¿ÀPý‡€þC÷_Íÿ>€}÷O=Ò4ŽÃô9Ùjù½ .ÿë ~¤æ Ò3b«þÁÄn¥üú7é¿ö‰ªä_|hbÊœÉŒ™ÿy Ù7ÿï/žÿÿù¯‹.©ÿ&ý_ó‡}¾"*óëÙÿGfÿ÷ü¯(xòç»‰Âùõ¯Ðÿû]ÿÙ¤ð6ý§A<6ì™ÿ} ·H>ã
ÜüÓúÿÈêÿ}¡©-úO£¨Û%ÿ ßýK þ‡˜üYý¿7ì_8 ùÓnþY?ý7í_ôM úÜýÏíÿÏ“à{$S¿Uÿ©¼ÿsý˜dw“§þoûõb-x‘ñÖïì¯_·ÿ×ÿµþ\ÿËü©÷ wSÊš¿fÿ)ªÿ{ý¹üSc ¹¦Õësàˆü¿Öó'~¨þ®ýo¼pïŸpóßt —G=ò2?jÿû#§ßüÓûWÀûW/Ò	Åä÷Ÿ;rúÍ?£¥¼,|©Î¦JÿùC¯~ï?÷Ã_Vÿ
x?TÜå:•òþËÇž{àg-^ÿÒ¼&é²Õy ¡Ãß?ê·ÿIVþJ¯
Ï¹xc÷¯6¹ý+¼,h£KØgÿÍ¾4ææRRén:½Èþ[ý`”ŸÿIv~ýCý·R’ÿYÍüúoÞ¿Ž´úúŸ,ÿ‹èúúŸ²ÿ›Pü‚Ÿoû7@ÿ°û>ÂÃ‹©_úçömßùôÏë]ÿˆøôfýÝôÏè_ÿ`xÁ¸ù#ÿúWlýà®þÊî@jý£`¾þÒôOë¿–ÿXÉ?» ýú¯×?Ä Öûß/`Üü±þ7!ÿÃáóÇ`CZþpýàSLƒHêÿp–þÁLÃHè—ïÄä`F|ÿ‡3õ_À4èþÑùw@dÿûŸ‡Ì¿6€Üü}Ü~+0Œúù;éo /ê÷ïã€þñý
ûÿý{Àþð"Üÿ¡¬ÿß'ìo ö?â 6;¥cõ(ëÿ·Bÿ?âß×@ªÊ7ÿùþ%øó'a ú§ª|ó˜Íÿ·,¿4ÔEÿèèŸl¥ÿCYÿ÷üÐ¿¹š7ÿÚý_óG ¡¿¼9Mÿ”úú¨w÷¿[ÿ´ôú_«vó˜ÏŸ=€?1Èh¯ÿµ:?üïÑ?3¾þ×zíŸŸ_ÿk·õ{è_P_ÿ ²üô/Ê¯ˆþc+ì5€ýËòëR˜?ªÿïgËç ÿ)ú¯Ö_[€þû)Ì9€Pþà fÞ"k¥ýCÏÿˆé¿üý[+Ízþßï¸,ÑÿðýWýÞ³ú§PÓüûÞþÓ?Ý€Úæüú¿LþÖô[Óü1?ÿ¯“¿µ¦ù#ÿ['smó—Ò¿¹×ÏÀŽçÛ¡#ç÷ÄÏ9Æ v>ß·~ú ö>Ý.·~ê ö>ÙnÕ¯ÿóJÁÔßFÝ[þuþ¢äþéGv×ÿÖ¦~"ò_ÔM@þ³õ¿_´€–„9ÿ^š}ôú™¨w¡Èˆ¿¼Åü‹õ3Põ‚‘Y~õ“¾¬|Á(ª¿òµ !~p/#¨x‰¨?´€¸úà ñ×_ßú¿8€´üÐkü…$ç·€>ÛÏ÷ÏÉo]ÆŸ@fè±þ}ÿÜüÐcýûô7€ó×ìo ýå¯Úß ºË_·¿ô–¿rè,íþ0xè*¿þýjÑß úÑ"¿þýÐlMúû	 Mòëßý×"¿‡ ûÑ$¿þýhÒßï€úÑ"¿'ô£I~ý;Ò ¿gö¤~ý¢lt©y× ¿§w¥zýì´¿¬Ì©]ßëÀzS¹þùûR·¾‚w¨bügêw¨RûWêN|Äçv{Ÿ                                                                                                                                                œÞ—{Ÿ{•¿²÷9±_{#Äj|8¹ˆú0žßFÏo£ç7€Áó[Àèù`ðü0x~ýïo cç7€sÐhùùõ;¿œ€þC+Ê¯÷ôZY~ý{§ÿÐ¾ÔíÿãÂN—h å×ó—ªý/ëÛ@Su®æÖùM :×rqýëþóù- ¶‚+¹BñÅþ‹ù- ªÜ«¸zûøüPMîUÜ¢~B¨#÷
nž_ÿ-ä^Ãíóû@¹Ü+øù Xîõ»A~ý7yo‘?¦¿”É½~«äwÐ\öõNX^_ÿÞúG½St}ý[Ë¿~#–å÷`Oýãß3ò#õß?ÿâœ10’3,ºø£‹Éû @èse´9ÇôM¥þ—Mã>_búˆ“Œ<Ùùƒ¿Üó,[îs«×ÓÜûÄz×Iÿìç¦Pžÿ×òQÏ«oÝäŸ9×½Ïçú¹ù?;â9u­¯üÔ¦ÿØäš›ÿØä›þc“l]÷ÿ6û_l6]ê·ÿlç×ÿh±zÏ•ù²¾Òÿ½óM}ýGé¿hïsìÀŽùË‚Åô7€÷/,¦ßý‹‹ÀØý}pÆþiÅô?Û×ÿäbp¤þ_ßßµV0ý›öÿ‘U?bÛô7€Íú_×/ R0ýÑÿ>` î ÎÔ.ÿ6ÐÿþóõÛ}¸x§@~xòø˜ÝÿGAþ¼;€õb·ï§Àã»Vý—óçÝ,6¶6€Åøó¨Ñ%æÀ\´¼öƒ÷¿Í¿€£ö¿Î–èÌä¿@yÿÕü¹_ êšÆ4›ÿf Å_ Öó—Üèß$ÿõJûí¡ÿXÎ9€}û»Ø%ÿÅ 
û=D$æÿÀúÇhÌcä vî_e 1šÆò8Pÿ¸MCyŒ@Yÿâüúï•´þCà1z {÷¯0€ÈÃLãxŒîÿ£ñ×ÿð¹ê¿WÿÇsô=Ê4ŒÇæý¿ÿþýùÿ)Î_§üPFÐºÿSý¨ÄœlüúoÙÿ5x Q'lUþœþYýßó‡y¶©BMcòÓ?:ÿcaþïÙOý¾Wj5©þ›õÿ~ß?ý¥?WâC-¾Ÿü[õ¿Êÿ1€ë$žoZ©¹wÒÿR|þäþß—ú?ÉHÿ¬¼”üy7ÿºý³mÐGÃ»ÿï›ô¯þÐ¡òwØ¿x êoÒÿ{«þ¥P¿Yÿi“þ…ßÈ¿OÿØSúçŸþ	½OZ¸Ø—‡MÃy¬Ú?öæÿëÙbüg®wÿê7ê?Åõ©??€÷ü9¸‹8ÿfùwé[n ù3¾™†T³ÿÓÿW|ÿ-0ªbÿÛCçö¯¶€iXõúß:xïì¿Ñ .·|qÎ©Zÿ™c'çÏè_¼€«c….ÑØýW0ð•oýƒßýG÷Ï[ÀÜqâ.Ô¹¤ä_ì¿xô…üúÏëŸ1€™ƒ¤\®AûW¸ŽÖêg÷O^ÀÌÒ†}Iý¯¯¦¼O¸¿¤âî?:ñŽmØþåçOYÀý‡&e;õžÀýÇéŒþWÈ<DÅüúoÝÿb E‡I©¯ÿqò¿ Â‘bëë¤þõ­¦½Â«ÿÏKýõ6¿þgíÿéÃÚ»é_ÔÿáÃtÌøœ?å¯¿…âj3õ—' fþ»úÀRý…	èŸÕ®þ!°šfúgô_ª€„úß-`Üüñü9ºþîçÀ4†¬þëùwÀ§*˜‘Ñ?Tç|Ê€þñýŽÝ?.h Ó0Zäßs ±ýW¿LãHì—ÇD÷_þ9pIZÿ‡÷™À4š”þgê¿ú[¡q$ôÏ¿ß úÀ“6ùÝt#¶ÿÃéú@Bÿ´ü¾ ôcÜþÝ?5¿þýhßÿïß¿Øß ž´Èß£èŸ®uÿçü@ÿ¡þEýÿVèÿçO“þ°aÿ‚üù9€Äüú¿¨~÷_·ÿSþ¨¤æ×ÿUí›ÿÃLþæý“ëÀ»-úÿ-Ê@N|ýßmp÷ß°f|ý?tÜ?¿¾þzí_R_ÿKùë<úS¡ÿŸúùõ¿°ÿ0ýä×ÿÊlþÝû¿`îMú×5“¿Â/ÿý?[>)wÿ»*ë|üï¥þêÜü÷T–?Ôÿ#ÿê]ÀüÖÿøý¿ÿý7€yúo¡,ÿË¦˜üÉýýô¿…Òükôï@»ü»öOþl£jØ¿ìë¿ÿ·Ñ.ä÷ÿ‹äßB»üQ?ÿ¯ÑíòG<þ·JþM4Ì_HþM5î ö:Ûn´¾'~nå¨ùs°ëév«AýŸWr"ÿFjßö¯óo5€‚^Õ;þÛüÛ è”yAùqêõÏýÛ¯ì)®ÿÿ>¬Lþþ„ó_ÄN@ýƒú÷ß…7òßÅM@ýƒù÷ÚÝÛ×ú/ÔÏ\@ƒGRüÙ,å_‰Ÿñe ÙE$5þíæò‡â§}/ØòR’Sÿr÷ù£ê‡À¡ë_, ;¿tÿv õ- çøW_>Øßº?÷ã`z~è´ýì ²ò@Ÿñëõ·€ã×ìoÖ¿@A~è1ÍþÐ_þªý ·ú•û@çý`°üµû@_ù«÷7€Í4È¯ÿXùï` ½Ðlú­I~?tCÿÁ5Éï! n´É¯7Úô÷K ^´É¯7šä÷,~4É_6€í.<ŸøyMþ^´¨ïyÀi’ß:Ò ¾u¥~ý¼4½¬¨^ß+A{S¹þõûR5þ3õ»S­ý+õ‡§ýð´çj{Ÿ                                                                                                                                               ŒåË—/{Ÿ;ø2gï“b¿ö60†Õø6pr1õ-`ôú0žßFÏo£ç7€ÁóÀàù`ðü0x~8ý‡V’ß ú§ÿÐÊòÀàùõï›þC+Îo ƒç×ìüú]_ÿ~\ÕªT_ÿ.T«ÊÿãÂN—•íêßô¿¬oÔ¿êWßI¸vÛÖ¿ì?ŸßjKºvßjJ»r¿£¿Ô’vÝ&¿Ô‘vÝn˜?Øß *H»n¿ª¿K¼j·ÌÑß 
%^³›æ×¿¹Ô«vÓüú·–zÕnZ_ÿÁú§žK¾f·Íï€úgœ þe2®Úøêëß]ÿ´÷Ô÷pS9×mrÇ’øú7•uÝæ”Ì>É²+`py7­Ì”éÃg™z‰)½ù/ îs&tŸfâ¨Ón {œgËÏ9‚ìþwØãDÎó+Èÿd«øóçºÅ'=¹Âþ;ð©uª¯þOŽyV½ê.?Ué?´þîþ©Iþ±é?¶³õÿödï“èÈ¹ò?×·€Aû¿×7€û_Ö7€û§$»O|“ß :éŸíî½ïê@¤ýú4»y÷¹#éìþEÍ.ßþ@úïÕÿë“à{•5[ln ûöÿúaõý
“éÄþñC(Mf Çë›m úŸ­ÿ}}ýê?—?c uû@aÿeù[õ¬¯ÿ³Ç7íú/ä_@A±èúpYa5ú/æopR_ÿ«ú³¨Ð9õï Óê>€»ú3øQ<€•üT­?vÿÙü·hÛ¿æ@Fý¡°ÿf Åý¿Vîÿ­fýû/æ¿^@iÿõü9«XÜ¬å¿Àû«™ÐþëùãP˜?¯è©]Pšÿb ‡ìxj—þÅý«|å_}@L¶âúC "ÿû šö_ýàmõÏÍÿ6€ó÷n )(é_t÷¯ÿÎù_°_Ø»Ä V?SY~ý÷ÎŸÛÿû÷—ÿ«çý³úòüÿåß®ÿP¨Ú1ÿË ÊúÔ¿qþ§¤öÿÛ?|®á`ú­ÿ[þà "Î5&—þ‡êÿ‘?ð@Ì¹FÕÒ¿aþÔþùWˆ;ÙÈXò·ëÿXÚ?ñ•?×"kéþßgú'½ðóFt,ýÐÿû|ÿø×}ßJˆ%“üÙ7ÿËþÙRjÉ¨›ÿæý=|ßþßôo?€i(uûOíûÏ4Mzgõ·êÿ½Mÿ¦˜óØaÿvßNÃ©ÛÿúØ­ò§ü¨þûÿz3{JÿüóÏ?¡ÓŽèÆ¿iÿ›c/ä¯?ÛÿŸ7È¨þ¶ý§˜þõçðž?÷> .´úõûß;œÿ×JþV˜ùèi\õúß;=ÿuÿà JÞ=~^ÿøWûþ‹ÊÍ?¢å?ð²zaÎ)§ÿÜ fžšÿ¶Ä ê=ÀqyN('ÿý ¿ôƒßÂwÿýk=Â·èÓÉëŸ{_ÈŸ×¿Æz±_ÑN'»žõü¹ý“0÷á±ßÑžÏ^ýçßœÝ¿ìOüÎçb ÷YÀâú—ü‰oý·ë¿ª¨Üòë¿qþäÇf¤çÿ…Æ	®ÿ³¤üC÷OõW[Uò?‹Î¯ÿú_ ÂÁÂíŸèœüï˜¶£ÿ¡úoNýõ?iþOOÖßeäüéý«¯òW–ÞSÿóõ¿¯¿¼ý+äx2¼þÂô/ëÿpi:xþ™œ¿¼ÿUüC, ”ÿ~úçæ¿¯Ÿµ€Ÿï¶é1€i%ýçë§à#~•Ää¿€þ9ýó'à.~ñ>UÀ4Šìü+õã0Ÿ¿d‘ù˜†‘Û=Ü ë ºÿÚ÷ Ó@²ò‡êG`-ö ²ûù Ìþù#ð³Å âûÏ=8Zü¼þUúòg ¡àC£Hî—?4€`þ¼èŸªUþ‡ÒüpÄþÑù× ÿa$õ¨Ó?*Ö RúÀ“VùŠóë¿‰Sõ7€†ý“ò¯ ¶¿;€Cõ8]xÒèæÿPœ_ÿm´¹ùëß‹úÿýû÷ïûÿhØ?-¿¼ˆéÿPÒÿ)ÿÇ ô?˜&7ÿûþ›÷OÍ¯ÿ‹Æwÿ‹ûÿùÓ$¿¼Ú´úã¿þD £¾þ¯¶øòŸ<€ëþj§×ÿÂ_þûO‘ýóãëÿ¡áÝÿ}ÿÔç¬ô/ª¯ÿ‡Mû_àâçë¿öÿÓ ¿þÚ=ø;Óÿ­õýiÌý×åÛ¿þõ4ïŸ}fÍnþú_ZÎ_ö»ß`ÿßÏVÎ¬ÕÍ_ÿ+ËýpsÜõþ/õ˜']‹ùŸû—?} ú×¶¿Ös¿fè,sõ«=õw=ò ôßL£üeýúÙF¦ÿàÚä/ûú_6€ôÏ6²Fù¯þÁúo¦Qþ‹ä|°ü›i”?âñ¿úo¦Uþ2òoæ€õ³°ÓÉvî€ùó°ÛÉv®výµ§ýDÓCUoûëÏûŠ&ÿ–*ÞóWêŸ:€üæE¥¯úµúûË?}Úÿÿ²§˜üÿ»°v,õ;ê?8õêßgsoYË?4õšþÚÅ›ó/ÅÏ]@Ã‹HJü›Ìæ_Ÿñe ñÅ$1þåîû‡ë‡¾¼Aã‹IVý÷Üæ«^ ‡Ž7€äüÐwýëää·€žã_}™ßú9€)¿¿tÚþ¢Q~è4þý rû[@—ñ+ö7€ëWìoÖ¯Úß úË_µ¿ôV¿rè-åþ0xè+­€`{òë?Vþý çþî ºÑ$¿þƒ÷÷#`/Úä×¿mú{°mòëß&ùý¨mòû-p7Úä÷4n´É_Ô³ËNÁ ‡Õ¿Mò`“Í‡õóÐþòr«A}¯êIƒúOäïFƒú^Ü—êõŸ¨ß“ÊñŸ©ß™Ší_©?<éÑž÷ì}                                                                                                                                               £ùrmïÓa·ôV0åö6pzáø&p^±õ-`=¿^ß¦ÑóÀàù-`ôü0z;¿ž_ÿÁûÀØù`ðüúß z¦ÿÐjä×èúúž_ÿ>Ü¤ªUß Ž¯bký»Ó¸¾üC×¿ïÿãÅ>—ëßôoÃäÿ²Xß¨Ù&¿	L£ç·€3çÿ‘ßÈ¿Þß ê‰ºN7ï¿žß j‰»R7Ïìo 5D^©_Øß ÊÅ^©Ûçèo ¥b¯Óòëß^ô•ºC~ý›‹¿RwÈÓß J$\§Û××°þ±§§%)×éöõý 8Pÿ´Ôÿ\ý“ÏPÿ
’®Ôô–åõý ©´k5+eQüÕs”¿XâµšÙ² ¾g ´”zµ–Ü’sÒÎRþBÉ×kÑùv§I«+v‡úžÚLÎíjûú'Úö3!ï~uóúsgÚü3Ž ¯ÿ>ÿŽ‹úÇé1iCÚo“ßU<ýÇ¦ÿØôÐç'§ëÿíÉÞ'ÑMþ×œ&ÿs}HèÿùDýßë[À€ý¯êëÛÿóIúßä7€ýú}ýåÁîò@|ÿ„ÿÄÇ\@V±Ûwž©¯ÿß \× 3Ùí;Ïæ7€€úýïê¯ »Øõ{/Ô×?¤ö _Óúg»~÷ÅüúG«ÒÿkZÿübËÅ`ÉããcÕþß¿GÕ_€þ[y|W«ÿ÷gQùë÷Îo ×õ—PÜÿkþßêæ×ÿ¦þÒ~¤à%ÿå ôï%ÿì JûÝ®Jþá0—n …ý¿n×?-ÿàýçóÏ, ¬ÿ×zý¿U­?xÿÅüwø‘6€½ú'çz +ùoPÔ?/Æƒöùî¿šÿf ]ôÏÉ?î ù¯×?&ÚãÿkÁòòÚ?˜ÿjGêÿ­fýQ“ÿb ý¿nÒ??¿þ%(î¿rŽ)Å
ú8€Èü8TÿoUóë1€c÷/Ê?`ÿøüoHêùã_~þ„”õn )ù8DÿÂüúG MÿõóÔÿýû¿å@ý@jþµûgýêÿ•þéÿØ¦ðLõ?Fþ¤þßÛ÷}?ý+õ_@¸ú¿?èß_ÿ‹ü«¿ Š9Õè^ú·Íÿ4€ìþ©/ûûKþ}ú¯ç_~þgìÉF÷ÒÿÈýo²ñ½äoÛÿ±¬ÿûÒN6!˜þMóGö¿ÊûÐ	Áäß¼ÿ´Oÿª˜ÆÒ¶ÿ÷Úý›ßLƒÙ²•n:€i45ûO»õ¯ô-à4œüþÉùëôo÷3à4 ÇŠw ÷G_ÌÿëEæIGæ“ÓþSlÿ×øÕó7ÕoÕîèsù/êÏàŸþù'xÞ‰·mõô¿ÀìÑƒùÍÖ8qõ÷ï1€ù£óÿZÌ¾(Í}¿³¿`¾oþË'.?”ÿ×rþf_æšò9•ö*Èßh ³
+sNÍû_«Ý¿ÖC|áŸdOjçþÓzÿ˜$/`æ÷dŽ²€}û‡òGõO\@\þQ°kÿ©RÿÂ¿ð;›ìØæÍÙý‹þÄ÷ÈýþO¶V?óëÿ›ÊùÀÆý_°øÆ’þq¸ÿ(ý7í¿ª¬Ä¦„þCàPùËû&0÷þú§ÿÍ òŸ_ÿ#õ¿@á¡¢êë¨üI¿ Œ±Þþ‰þ‡êÿ>€i#c÷ÏùWCÛÅ¢ÿÁòoLÿÓæÿôaùô?cÿ‹ô¡Œœ?û¯¿tXqúïßÿç«Æùg0rÿÌ¿þ×¤}¥¬ÖŸ]ÀÀù3ÿúç¬‡‡‡òøÅæŸY€þ…ý.TÈ_²€OU0¢FþËúIX¬Ÿ?€¨üáL£(ïW?z kùsð©Ê ¦qæŸ«¹€@þ¬Äæ_À4¢þKõcÌŸ3€øþË?LCi”?8€ˆü(é?¦üþ«õƒØ½¿¼h•} QùÓ ÿVýŠúGæwÐ^³ükˆíï ½œþeý¢¿<k–y ñýÝ°ÿÃIúÀ³Ôþ¥ýòû°½fùßß žé?¶Vù—Òß 6 ÿØú?lÜ?ýÂèŸnÓ›ÓŸÿÒòÀ‹Mnþÿ¾ýúÍýÿþ}@Ãþ‰ùõÕ¼ÿSþŒ4Î¯ÿ«_þ+ôoP\ÿYúO‹ýÓŸ ðçÏŸùõ·Á—ÿäþ®kmïþoú'?ÿOÿæšÞýßö¿ÀÜ¼úøùþ¥ùõ¿°iÿ‹ÖWï·ðŸè_S(Ñ/ÿnò¿—~ý_¿ÿþ}ù†¸3Ö¿ª–ýW=Õ¿X@4ýëª×?+ÿöHý|g·ž¿ü©üÉÐ¿²Õü§ëŸøÙF°Ú?v SvÿmøÉÆ°’¿ô•ó
òëßÂRýÈLö/@ò'Ç|ýÒ~.(È¯ÿÆäÏÿùÿ‰üÛj¿ˆþ;Vþüìpªçp¬ü¹ØåTÏ¡býõ_ûGÒkÕnûç}D’s•îùëô÷Äß=Ôøª_©¿×}ôªN~¯ûëU¥ü)¨zþŠéÿ¿7«G’¿KëùßÓÇl@ýãú÷Ýí[óß·N@üC§¿ôþæùü‹ñsïš^DÒâ_Mà>ÿzüà·âwf 	ùCß>QþØõoT?j9þÇ òò@ïõ/‘ß:?óÓ`bèºþÝ ’ó[@Çíëô·€nãWêo}¶¿ëŸ›ß:­3€‚þÐeýŠý Ãú5û[@‡ù«}` ýç/îo å¯Ýß úÊ_½¿ôÜßÀØùÝÞß@7šä×ðþÐ‹6ùõïF›þêE›üîE£üú÷¢M~¿îF›üžÒ6ùË°Õe§ èÀò÷¡Mý’lp¡¹Ð¤~þ Z_\nµÉŸ9€¶•Y-êç á…dEýøÏÔïFƒúOäïGõøÏÔïJÕö¯´Gz¤                                                                                                                                              ØË—{Ÿ»¥7‚A¬Ç7s‹©oÓèõ-`ôú0žßFÏo ƒç·€ÑóÀàù`ðü0x~ýïo cç7€Áóë?v~è—þ#«S_ÿÁóë?t}ªµþi_ÿÁëë?v}ýÇ®ÝÿÇ…ý.:ûä¿¬ocäÿ²’ßÎŸÿËj~8{þ/¡ü0DþµþpÚü178þP8eþøþ°‘ƒæ×ÿÌù#úÀ&öÉ¯ÿQì“?¦¿Ôº&÷É¯ÿ6ÂWå>ù}ØDÄu¹S~ý7s]îS_ÿ‘úÎMþ6¢®Ì}ê{ p”þQg§‘WfNÌòú~Ø]ÿäK9?ù«‹½:nÉÙíïOPþÚ¢¯ÏÜúóy‚òW–p…Ô¯xŠòW•rîRq ?á@’®Ó}ò{	@C‰Wêõ½¨¡ä«uûøOÔ?Ð»yýgâ×ðùÉÅÿvÃ®þÕ|]1ÿÇô´ÿë ôµÿçFý¿~ý:mìÛ‹­?mßùgï Ê>Á×ÓÖõ- ±ÿÜ@¥ø.à¢¾¤õÿ\±ÿ]ýpß V…ûÿ¨W“þ·ù õ ¡ÿ÷±ùk÷¿{__ÿvý_óß/`!åÜçËo W/ÿgÁ7 õo°X½j¬û¼óùõ÷ø&á ¹ÿ×œþé¹î?`!¿þ·õ/Ýÿ*ÿÅ ¾æôÏèuûKõ`¦þò ¢¿Xè_ž?.×Jný#ò/`Šíÿ½bÿœ\úæŸÿ& ´ÿ×
ý¿UÎo sõg0ö¯’_ÿò_ÿ(øîGÌ fû­Óÿ[åüƒ÷_Î??€ã÷OÌ?ø Ý¿Vþ`/ýkåŸÀáû'çy ü3ÈéŸŸ?½FþqûóßàGÌ ÚöÿV9ÿ°ý#òß- ªÿÍ òó'ÿÒ.«ÿ¨xÌÀ±ûçå´dþëdôú™ùk›™ÌDç¿^€þö,ìŸ›?­vþû'å¿À!ú«ÜÀ$öÿX@jÿ§ÿ›?©Aþñú'ç@Dþ¤þ«§©ÿqúÏ qÿ”èß6ÿÛ 2ú¯ p¢ú¨ÿÌ Jû‡NTÿ#õ¬Ý?x¢ú)ÿý "ûg¿æOÿcõ¿ÀÛ?÷%¿ú¬ÿcfÿÌWüoÓKIþ«L	ýo{®	Åôß¤ÿÅ Rò_. á\·è?æ±Ò ¦Äþ9šé¿Mþ…—´é¿ÁÀ4˜-ûOÇï?æ±õ ªöO€ü[õÜìî¿õ ¦ñlØ¿ÊùF§S«ü«¨Ý¹kìû©_½ÿÊ æòÿz“uÊq	å?Fÿ÷Ü×o°€×©ñG­_­ø`>^ÿ¢ßî,ÖòoØ·ïÿ2€ùúsøçYè¼+×ýû¬jå>
´”ÿ×lýö¸>VøI,'µqÿ_¡þùÃ¨öÔ«Îé`ý/ó7ÀÈ?Ò 7@ÒÍ?f 5þÂÃ}þp¬þ7ùc0µÈ¯ÿVý§âþ¥âíÇÐØ¹ÿè7€¢?ñúcèlÛ?ôØOnÿ”Äå×¿Iÿ«LûG/`Šì?È 6Îÿ1€Ù7–ô\Àíé¿mÿUeýcp÷!ú¨æ —ó/÷c ÇÊ×?ï(	ùGï¿ÅïÿRTéÿ$2¿þ‡ÊŸú€uÁøOô?Rÿ´_ F	<¹Gÿ#åOy@ú*ÿ“ëÿàûoKÿÓæÿôaå½FÎ¿Áë?wOþgË?[qúïÞÿç…†õ0pþ*þ£büò	¬×Ÿ_€þûå¿¯_4pþ˜LÃØ9ÿBýìÄäŸ[À°ýËÐ0Ö "ó‡î¦ÔËÿð¦Nþœ|ª1€i(•ò¿ÇOX@ ú âóÏ?0^ýâ?ÿ<W?rÁüÉHè¿öˆàXÊóß×Y@DþÔ¤ô7€Jýçë‡ð³þ ôÏÐ*` qùÝ4W”¥þú "ó»h¯YþíûÀ¦ýùWß ÍµË_£¿4×,ÿò ôï¾ÿÃ1û?8žvùÊó§ÿÀ R5Ë¿4 ýå\ý Y³üúw!5iÿšßÿÝ7Ô?Y«›óþ³ U«›ÿFýo2êŸ¬Óþ³!òëÿfÓüÕ~0›Rÿõ_?ë¹˜)ùõw‚þ*_‰=‹ÎŸÿÓßßÿ÷ ý`Ëþªä×¿¦MûÏ¾ìSÿ]Eæ/|ðÿÕRç”üú÷Ûÿ2ôóÿþýû÷üÖÈ_SÝþ¡ÏvUù÷««·„ÏXÿªöè?]æ¿@Ä	ë_WLþÂç~}˜Ë9€˜Ö¿®jýc>Ùrÿ§7E¯þ•Eäéõ¹Þ#ß÷¦eýKžúeïþ‰Ÿkáü¯ü	Þ$Ÿ®þÕû¼òïÊÒ÷ÿ÷aò×Ê@ôç¹ø6ÿ¦~Â?õo m 	Ÿeáçüèÿ_èßÂjý•¤|ŽÙúâý{%+‹ñŸ×Ÿ{¨?á±ÿòï£4µ? ªÿNŠâ¯öO;ŽüûÉmÿ¬NþŒäž0•UÉŸ<€—„,5ê?‘¿SuòýùoöT'ô*ž9U„êÿïÒÚÄïÓrþ«ôÅhyXñï¼÷·ÏõŸM1ñûˆµ€Ûú«ñƒwwhyñÈ3€”ú¡ÐCü«¯‰ù-àõç›ßNPÿ~ 	ù- ÿú·ýÓò@çñïÚßúŽ_ÞßzŽÓ?'¿	ôÛ¾Vè4~µþÐgýzý Çúû[@‡õ«ö7€þò—ÿüg=ç¯Üß zÎ¯ÿàý #Çìo çwÐ£ö7€m4Éï mòëß6ý=Ô‹6ù=
Ü‹Fùý¨òëß‰FùK°Ý0º6õ=¨ò`“Î‹Fù°Á…æC›úžÞ&õŸÈß‡6õ½¬-â?“¿-ê?Q¿õã?S¿#uÓ¿Óå¹ÁÞg                                                                                                                                              ãù2cïsb·ôF0ˆõø&0ßÎ*¾¾	œPb~¼¾ŒžßFÏo ƒç7€ÁóÀèý`ìü0x~èšþC«ß Ï¯ÿØùõ;¿ž_ÿ¡ëë?Pjý;Ó<¾þƒ×7€Áëë?výëü?ÞìvÁÙ6ÿ—¹ú&0Jý‹þ×õM`Œü_Vò[ÀùóYÍoƒä_îogÎ¼ùÀ¶öÉ¿ÞßÎš?¶¿Œ_ÿÁûÀ™óGô7€ì•_ÿcØ+¿þÇ°Wþ˜þÐÞ^ùÝž_ÿCØ«¾ a·üúÂ^õ=x»Õ÷€cÈiY!¾þ‘Û²´~p ­/8/òoÈ%íŸÈE7äÜöÏä?„‚üwHúÄòCYýòÃ>õ½à8ö¨¿0€¶Ÿ‘;ÔŸ@óÏx^Ÿ?.úøíë?Q¿ŠÏoÊ³mûgê×Ì_:€h_+»|}×èP§ÿç¦ñ-àèù«à&¾½ÿçÖõ·À·W|ª“õOÀ÷ï‰ùÛà­¾dôOÀ÷7	õ›÷¿Èoéý?§×ŸYÀJþ¶¸®¯ÿÇW+ý?çä¿À×úÏÖ½Ío sõ×•ÿ{|þ:ýgóÞç7€¹úoÈ¿¸Í9€¯íûÏçË¯ÿlþÒ¬ôÿºiÿoü0Ÿÿe ¹ý¿/÷ß8ÿGß…üúÏÖ/Àrÿ¯›÷)¼T_ÿ¥ü+ÈïŸ?¥ÕrkHÈ¿<€íû'µÒ¿Rÿì,õÏÌŸXKÿJùÙ¿BþoÕó>€µüK?¶ê?´ÄZú×Ë??€àA3ïþç–šKÿŠùß
N{*`ÞÍá`‰½’ó=€Çè¤Èê¿p¬Ô\ú×ÍŸ³€ŠùçzVÎ?î âòWÀÓËË¯ÿú?«ÿ·ÊùG@tþä$÷¿|(ý?q ©7ÿå#¥õÊÌ¯í¤õ_9þGÉŸ´€¤»ÿµ¥Ëí?â [ ¥ÿê’zeç°NþøÜ÷Ï|Å‡þÇêÿX½ÿú’‚éß<Æ ^ÿKNý´þùùõ¯½€ûþy¯÷Õÿxý«õ8Ð&ý§ÑåÀLÿ»DiB2ý·êÀLþ›Dž©þGìÿ˜ÕÿbÑgºEÿi4Åùƒ˜ÏŸ!!šþöÜ¨Â€ü[ö@ù¹&dÓÃüôÓÎã¨•?a êoÜ?8€*gÝNþ­ûç<9<]l=ù·ÎŸ6€_¿~ýÊ:á¨‚êïÑÿ1%þ‹Œ3Îh«þ6ýëe ÿFÀ4šÇ­pU?ó‹@íúÿ!à6ýoRãßþAÓP·À¯`ÿ^„Î»F÷W#ÿQÛö¿Ï3€×ú1¨î_ˆ›Æñ¸í Rò·»¸:ÈØÿ>à¶ý“nþ¨ð(ïÜ¿9Ð 7@¨ÿMþˆd, œ_ÿíúO…ýÿÆÛÁ°wÿi½Ü ’pý‘úïÚ?”?²Ê®?Nÿ-ûßàö­ý£•œlÜÿr 3o-@Ü®?Dÿmó¿/`þmeýcpóúoÞMaþðîÞ_ÿsõ_ŸÀý;ë ü¹ Ü‹Í?ü€ƒ÷/8TL}ý•?ý ëBõ}8ZÿëLí‡ç…lZßo€Ž–ÿ}ÓFô?ZÿéÞüŸž„ÞIÿæÿtgù}Î_³ÿtÜö	è¿{ÿŸïšÕ_YÀ°ù7zýwtüâ¬Ö_^ÀBÿÿL§·þ»úùÖZÀûûþÍóÏÖÏ[@Týàÿðý÷ËŸ>€ØüáŸ_é¿gþÄÄ×Àù·øû¹ùS”?n CÜü·øûŸÙùã˜?j ú§æxW)ÿÏFõ#ûO#¨•ÿ#~ä"òÇ #Ä ¹ùWúûÿ7õcð³Î ²êG@ÿøü3õƒøY§n~ýß´ÊÀÏ*øÔªÿ0ù‹ÿù§¥úëøY¥~þÐ Æé?5Ë¿6€úýïþCaÿiíò?”ç_í?W³Ò ÆÉ_ôï®ç_ÀÏ*˜Yé` íò·í¿Ó µË¿KÿÒ_'3ÿQûÇ æUØµfùpˆþð&«ÿÃaû»HÔìæ¿Y_ Šdä×ÿD6¾ù×y h9fdx·íÍ¿Îã¿Ë1õ°Æc€5¯ÁÎ¥æ?@ÿÅÄæ×ÿB‹›…_ ®òROý3lz÷ß¨ªÚ×a×¶¼ûŸí?÷×OYÿšª÷_ûd‹õßMBþ¨¬~²ÅÌúŸ¤ÿú'»­üûÙí›g¬U;õ¯ÿ: ý÷R³àSÍÝúï:aýëŠÎ@è3Íßü_ ÿn:ë_6€âkë|¢óç>õ;tÿÝ¿é@áUuNÑýWü47ßþ/}ýozPt=Wlÿ•„?Éü÷? ¶@ö5tr‘ù3_ù9Ý%^ùù¿eÿ¼+g±ýçõ)~.G^yÓ,ý«‹ÌŸõ‡æ"ÿŒzËùë‹Ë?€Øãÿ\Ê¼ø†ú×—ÿIzü¹Î?Wÿs€üDæÏõ3JäÁäo¢]ý'Õêg Åå!Y¥úmþ,Û(ÿFþŽ¶!¿Êë—ýì­Â?þ“ýÀphÿ»¶þÎâÓ¿3’ÓL Ú¡JûðÚÇ,`í¯p˜ø+Xµ :ˆ¿0€p}8Iý¹Äå7€SÔ¿ï›ßÎPÿn 	ù-àõoú§å7€Þã—ö·€¾ãß =¿ô¿Bè·}¥þÐküZý- ÓúÕú[@—õ+ö7€ÎóÀºË_·¿ô–¿rè9¿ôä˜ý`+ò»+‹þ°&ùÝt£M~è…þƒk“ßƒ@½h”ß£Àh•ßï:Ñ¨¾ß÷¢QþÂltá©òœ¿yú÷¡M}OìF›úOäïB£ú^Ð6õŸÈß‡&ñŸÈß‰&õŸ©ß‰í_‰ß‹úí_iÏýö>!                                                                                                                                              Î—[{Ÿ{•7‚q¬Å7iôø&p^±õM`½¾L£ç·€ÁëÀèù-`ôü0x~½¿Œß Ï¯ÿØù`ôþ0v~ýÇÎo ƒç×ìüú_ÿ¡ëÀH©õïÊñõ;¾þ£ç¿îÿãÉnšÍë_öÿqaÏK?º-ëô¿¬oÃäÿ²ßFÏoä_ïogÏÿe=¿‘­¿œ8øæo Ú)¨¿Tñøøøx¬ü±ý JüÐ öÊ¯ÿVõW°[þp¨•e úPÿ@ý§„þP+ÿãñòë¿aþ£ô¿üÔúo—ÿý¯?µþƒõ¿ýÜúo–ÿ ýï?·þû÷ßl 3ŸZþFòïù|oý;ìŸóAKŸ[þ6ò'µÌú¸•O­#)ýBÅö/¼†–?r éqšò·’?j i{–ò·Ÿ?<€f')ÿ1ìS±ÃÏÈ¼=ê/ í§dÞõ½ìP¶¯ï% 5}~RxŒ@û¯o¦jÔ¯X¿Æ½Ç¯<õ«æo³€›ø•ï¨™¿þ æê[ÀqûW^ÀR~8jþä|’Zß ŽÛÿsjü‰ùàÛ·oßš~‚n]?¼ÿ¹d õï¨ß²ÿ·wí>ÇI~¿÷¹` ×ùoÌßl õàÆýÓ;>çà6ÿÕ ¾6ï¿”÷*¿žÞó9{ ß×úmÝ±ïM~<½3w 3ù?ðµuÿÅ¾wùõ_Îÿ4€Ï™Øµÿbàûü°’ÿñq¹ÿçüþ_÷_
<W_ÿµüÙw ßWúÝ¸ÿ·Õü°’?{ úg_–¥Îú§çÏý
°cþäþ°’íàsÃþ—FÿŠù3°Ü¿ \ªäüú×@ÙÍîˆÑ±Òû>€@þ¼‡
nþ³Ç‹¯¥åüYÈï?{¸„\ýG@Dþµ,6÷îþh)¹ôoÐù—Á‡Í»ù/,©—þò/?déÀ97ÿ¥c¥ËÉ?î ¢ó_¼à·Uÿå³Ôÿý¯_ñøÀë­”%X^ÿA”?î5ÿïû¯Iÿ£ôOYÀ\þ¼×{¤ËÌ?fÿôü)Hè¿~ ýÔ?z 3ùú¯'©˜þ­óG/`®ÿÜ BÇI)–›_ÿ˜É?Ó?xý—?n sý3^ìŸ’LÿúG-`&ÿõ ¢ÎSÿCöÌìŸü·^Ršé¿Yþ˜ÌåO–Ð,;¿þ­PáLã£É¿mÿ¤„³éÔüÛ >›ü[÷ßbÑÝäß¡ÿ ÿù7@d;ù÷é¿ë ¾ÕÏÿŸÿüg:»Ç®Nø­âÿ?àq§üú•uº¹y3êÑ¿rþ¸üz“qÂmêÏþuè§ügÀãöx¯Ÿ·€Fñgþ@¸þpU÷Üýû—ŸHÿú¸ÍŸõ]@¥ò¡ä?àqÛÜåßg GZû×ô¯=€_áþÿ¼
œwú³ÿ<ØMþS÷<Xÿ·ú¨ò“¾þ[àW¨ÿeþð Ê_â7—ÿ} ÿ` û÷_Î1€Ò¿ñ¡ÿ¡ûÿÓú¯üýX€þô_Í7€´\}¤þ› á›¿”þIˆÈÛÿÄØ¹ÿê;€è	LÑý?òë_©ÿÍ nßZÔ?rW¡ÿÆý/pÿ¶Âþ1¸ù ý·îÿ2ù7÷y~Èýwè¿¨Bÿøç¿ è¿qþ’ ®Åæwû?zÿì•íÀ‹üúoÔ?ïÀ%áúú+Æ/ BVÚ?ÓÿHýSXn©ÿe~ý·ÊŸö€*ô?Tÿè' UÎâþ›?ÿó€ô:ÿÝ žþ“þ½÷ÿt)ð¾›¿þ}å¿J5õ›¿þäÿù¢Iûˆ	\Ö¿Í¯ëü?¯5hõuàþ›æ¿©Ÿ·€püè”ÿ ÿa¦~òââÇ.@ÿýó', !~Ü ô?BþÈ$ÖÀm~ý›å_«7€ôüÁè¿UþPÿŸ-ê‡0Vþzh?4€Ìüú_:rþõäæ_À]~ýwÌß¨ÿÊ ô/Èÿð®Rþµ|Ú¦ÿtvµòÄZÀ®ý0ÜÍ¿Fÿ™úÁDæ_@Q~ý?´Ê¿>€û/`¼ü5þý·Ùúë8fÿoþ¥ýWò?TÈŸÒñú¯i–e -ú¯¼)v #æ/ý÷Úö_ÀZPý“4Ë¿<€¶ýc0{Ð1ûg`ê¸ÿÜ Í_Òÿáý3ï FíŸ9€éìý§Q´Êß°ÿ]âÕ7Æ`ØþY(é_þøÏý§q4Ê¿eÿòo Ç½ùg`Ú»ÿÔºÿ4’ô/~hàüÉxù ìü5ú¯àSyÿi4ÛöÀÊ!–“–÷Ÿ†s†þ/Q£êÏ`èüixýüüwýCÿ}NlèäþÓvì÷–Æý‡ø'¿V$çÏüåÏ³»È¿ŸÍ¾iQ“þÓ°öìÿ’ÿ~ [öÀ4²ªý³ò? º›',±Ös¿Âý·@kìdÒò¯ôŸrûovPåú¼Îsg¿Ç_¾ý7@«ë|*õ|ý+)Æ+îó_üøw÷ßn ¥WÔY¥õO~åßtør Ko^&eIùÓ_ù;óØÿË~‰ŸÜ?s WÌ(û_ æøýßÜâ é
NRþ'ññÃSû·ø+`£KíŸ¤vÿpxó×ïŸ>€ãäšå}ƒ—ž¿Á_enµŽ¼^7=âj]ŒÓkSÿÙjÚäú)¨u	ÆÐ$~Œ´úñhwÆìLýá©Rÿ{xGñÏ?jkŠ]ü;/£}Ü.GPáô©ß>bóí£ÀÑã¯,`­½œ§þì ‚ñ-à4õgúÇå7€SÔ¿@l~8EýÛþ	ùàõo”ßú_Øß:_Üßzn_£¿t¿Jè6~­þÐiýjý- Ïüõú[@‡õ¯ÿ)ìo Ýå/yüÏöuÄþÐsþ
ý çþ0v~ý»Ñ$¿t£M~ßöBÿ±5Êï1€^4ÊïQÀN´Êï× hT¿x []þÑ5ËïÁ}hUß3A:Ñª~Ñ Z_h>´ª_0€¦——[ê{2p/Õ"ÚÄ¦~šÄ¡~ÚÄ¡~'ê§#=OD                                                                                                                                             8„/¯ö>öé~cïÓb¿ö60‚@|8µ¸ú0z}˜F¯oÓèù`ðü0z~<¿žß Ïo ƒç7€ÑûÀØùõ;¿ôKÿ¡ÕÉo ƒç×ìüúß Æ®¯ÿÑÝTª_ÿ#«ÞZÿ~l_ÿÁë_õÿñbÇ‹ÍÆõ/ú¿Ö7¡ò™©oÃÔë›ßÉ¿ÜßÏou=¾9Pþ/«ù- ~üÕ|9\¨^y ;å_ío Õë/àËoþÐ"ÿQúO1ý výùþ_ŽÚß jçŸÀ^ùÃý vþÇå×ûüGè?Å÷7€æùwzäï™þç?@ÿËO­ÿÆù÷ïõ©õß8ÿÞýo>µþçß¹ÿí§Ö¿¾ÔüÛõŸùÜúï~óßj ³ŸZþÎúg}Ðò³½õ?@ÿø–™¶ü\ùkËÈ2÷×NWÿôê˜÷¡¡Ó•ÿý#°ò)sÛ?“¿²œüÁ„?mzùò×–×m -ÏVþê²òïöox©ß@VÿÙ´?Wù›ÈÈÿ$&þ×µÎTþFÒë‡}½Vå˜ê·S5þmýZP¿–Ï/Ú|®~åT8ÔÀ^ë·YÀRýŠß	îâÞý"õ¬Ô7€½Ü|wwÝ?uß_eä7€#|{›?e oñÊo ›»ÿéþ¾ô®òß œß 6ö×ÿsNþ›ÄÔoÕÿÛ“6‡îÙì£»Ÿsp—ÿz _Û`¥ðs}¸ó˜ÐÿsNþïéùóú¯~›Düvçq©ÿç²þ_ö_-|õFå_îÿ9=ÿ÷ôüéý¿­¾}£þü+ý×°Wÿok‰ïßh ëù³°Úÿk³þßÖ¯¾qlËý?g`­ÿ×mû¿Fž“ò¯Þ|>XÿoéÊ®¸óçÏÀqîþ ,Þ êÜüS/‰þò¯÷_@•›ÿ´EÿáðØb 5ú§_ý[ä_y8a ïoÉ¬SKÿ&ù¨ßæxQ½²ú=€¸þë˜;nvþÙ³Œ¦«üËÏˆÀûÏúŠY,¯ÿÀˆÏ¿º€¹C/ä_î¿rš±ÅôoÙáù€1ß\þ÷äúë¿ÔYG¨—ÿí)Áéý¯þ{jý„ßÛéß¸ÿÂ“ÂçÝ?tšÑÉôoÿãuáþKOþO‹¿P5þ=õ¯ÛÿîµAËŸ`6ÿUÿ˜ÓŒo¦ÿùS^û;ÿÊŸ„øú±ÅW‡EGËÍ¯ÿ¡°mÿÿ<™P–ÃDßjkôÎ?Ä {@lÿìüßîò0€òü[- æf»ú~ñùõ?à ¢ÂÕ¹ùô?ý êôßbqåêÞüOß¿Vþ×®FþËþ'@½þÍ“/»þõ×ýû@™ëÏ¤ÿ°Uýëþ§@Ýü­°M|ý:€6ñgþ4¨þ-ðëEÆéVoñ×—òë_u ¯ñ3Pµýí¯‹üë¸Ì¿Û Þ¶ôOüg”<n<€ëú;àãXKÿ6„þmúßåßã›€-þÛ0ú7À¯:ýË°þo½@ÿøîÿÏ›Ð‰WÈ¯»üyýßë7\@¨ÿó ôo0€_¡þWù#Púgžô?vÿð ÒpùÁú?n9€äüýS'põ‘úïÞZí7€”	Äõ¿É¯«þüÑˆ^@Dÿú·éxð¯¨ä®?Dÿmû¯?ö_Ø?j×ï¯ÿÆý/p÷¶òþÁÜ¼·þ[÷Àìjô}Žpâ÷§Àý—UéŸò2Á¥€ïòëßSÿø?£ÿIûÇþ¥@ý“?ûÀ«ñ—úßç×ŸþSsq7ý7éŸþÀrú'ÿÍ¦MÄä×«þ˜6üá_ÿíòï!œ_ÿ3÷ÿXÀÓÿ?RþíŸÿxCÝü÷xýÏ>ÝHùXýûíÛ=c³ùõoÿç¥ºåÓ ÿöù¯â§O ¢}ôæóë¿qþøDÇÀpýwÿû/óõc”?<€…üú7ë¿œ?b ‰õÃ/õþõòž?0€oþµû×Ì@Nþõè¬ü«ÈË¿:€ûOGÎ¿2€Üü+XÊ¯ÿnùÑ:µ½òÇõÿY=ÿâ Æ¼ù×ëß$¿þÍUÎÿð¤^ÿŸõû/`Ðü5ÿý—‡•òoÖÔ›½ÿé²~p {öŸÀ°ýkà¾~h úÇ-cîˆÃæŸå_ÀÏ&ýWß¸>€qoþS«ükøY8€õªú'i•ãþ7¯`àüS«ü+hÐ?ôöÕþ#ßüË°–¿]ÿ™À7ë¿¬,ÿû‡p{¸¡ó`=•o šô¿yï±oþ‡î¿t€MúO£h“_ÿ^äçß«` UúOã8YÿPþ›èŸ·þ«Hë/Ö ŽÖ?áà˜þÓX2óç}û_úüg‹Q?Õè?fçþ¡ÿ>#&svÿi8yùëô{Ë-ý«ªÝísÝGþýìîm;õŸFT·ÿ”Ôÿ%ÿý VÒ¬ÿ4¤œü5ú_äO@«þÓ rú§?ù£^ÿJ/’ÿM½þSÞÝÿË ¢ûçàê(ò¿IÏŸüÜÏÄþî ®Ž"IÿÔç~ßý¿zÿßh W‘ÿ]Nÿ´—~Ôí_åï@¨ÿ!#Ò+¿ã»Ì?³¶ýßvUSNÿ	Léù_ú^äOêŸ7€›c¨!¯¼ùþ)ïp­<ÿó Š.Ó©´Í_½ý?7ºmûç¼Ç5ù+k™¿AÿÚ”µ”:75õ?ÌÊ ŠŽ›Ü?e Åç?ˆVù/ó†ß£öß¯pú£hTÿ#oø=Rþ1 ù«k”?Jbý'ê×·OülêŸÖÿž…ßOýÓÆ~wñO?rO”?†o|ü·¼úñàpñçÆß ÎRmËí-à<õŠo g©?7€˜úp’ú÷ý#ó[À)êß >¿œ¡þMÿ”üÐüÂþÐwûÛþÉù- ïøú[@Çñ«ô·€nãWêoÝæ/üþÏú®_±¿tŸ¿°¿t—¿rè:¿tä˜ý çüÐ6ù+ô7€žû»èD£ü¾ìD«üî úÐ*¿;€N4ªïQÀN4Ëï× }h–¿p Û\zª<åkþ=hU¿h ­/4ZÕ/@ÓÌµFñŸÉßƒVõŸÈßƒFñŸ©ßƒFñ_¨ßƒFñ_ˆß…éßi                                                       ðöî$»#QÃhªdXÇS=ÏK‹ð\Þgå•hÿï€-šl¢ÏÈŒ{G6‰Žú~€$:N                                                                                      Ðƒßïì}iØ-½Œd©½`+¾	œYX}½¾	L£×7€Ñó[Ààõ-`=¿žß Ïo £÷7€±óÀàùàÈôZ‰ü0x~ýïo cç×ìüúß Ï¯ÿÐõõ»¾þcÕÖÿ8Ä¿ïÿç‹¿bÇ¿éÿßÆªÿÑÿ6¿TrùÐKý÷þù- füüÞ¾ÿs~¨e ¿w’ßªÖ_êß8ÿj¨˜~ ¿ïÑ1¿Ô«?Û—üký Vý¹þ¿÷×ßjåŸÀ>ù7ú@¥ü—Ýóë¿cýn®þ[ý Jþý¯þS`¨‘÷þg¬ÿù÷î?…÷7€
ùwîsÆúï‘ßþ·g¬ù›ö¿?gýÛçß³ÿã9ë?Tÿ§sÖ¿}þ¬»ÿc¿Z_ÿ>ò‡öL9ÎZ}÷ vÒ?(fÒ‘Öë{ }þÔþ‰G[‹¯/ýÓÿ„CVý­äþ‹%'ÿVÈÕ3Nn%'ýW2œyÒ‘®äo›í ÉõsÈß4ä€ê_pù;ê?6—\þžòùö¡À‰Éß®~þŸíKm@ýfõ³û?×/° ù3Ì®•¾~þÔOµÒ·xþåúo2Og,³yûí·ßÖ>_%‘Ÿ‰2wõþíÓó¡¶Nðÿ®Òê@où?ðrà)(þ«¤üÐÔüw÷ûþw®?7€ü°sþËSþàÜç@X~Ø7ÿ\ÿ°<æ×ÿˆùçûÿ–ÿa ¡ù£ðýÍÚ!"OràüýËíÿ­Nÿ÷ø‹XýäÀ.‘ý7°Þÿ[•þwõgo¬cX—øþ¿Åæ¯Þÿ1ÿSä­uk9ÿåò[Ò vè?“ÿ>òöÍÃ¨Öú/ß ¬-`½ÿ·
ýgóßDÞ¼u×Zþµ€•”»úËÊÿ–ycc[Ï¿zð[/ýWò¯/ƒüë7 á¸ý¤þGêŸ4€bý+æ7€À÷öIÀZþò÷þè_1‰Ü®tþäþÃ (Ò Šôý2ô¯Û?åg€åü¡ýï´ÖKÿÊùS~\Ì¿2€×OÎœØz²äþƒ ¢ÿÌ3˜ûTäíüV3ý«ç__Àüé/æ¿Šø¿Í êç_[@ÝºMÿ&ý¯Oùmß? šþMò¿=á¿mÿléýïOéËÕ4†´þó75/gÈõ¶Pÿ—ü£ ¹ÿóÀtŽþoùÇ@FþÛ—îðÓßÌ ŠôÿÈ?Ä òú—yÓ!WÜ"ùoûŸ ™ùÛ- $]‘þ·ùõïfí¾—ïú”èßdÛñÊä«™ü-S7&ÿCÿ“ Tÿúh•_ÿ>Ð¨þcþs÷/˜¿úZÄŸéê\4€úé_èßé*¤Ÿ{g¸‘úÏˆ¼ŸÞü;Cêî|œÚÂÃê_u ??Ä_ÜŠù? Å|ÖOZ@Åü¨üË¸¯¿Ç >Oiñ|g —¶xÊŸð- o7§£Åþ—°üÍ°šÿm ú×ÀÏBýË¼ÊKÿÆýn÷ÿëÓÆ¯Ôÿe úWÀvÿ›ü›H[@Hÿ/ãô¿4ìÿs³ÿ]þ€ÄOàöÈúWî‰ìÿ˜?` ±¸=¦þ=ô_Ë4€¨	l÷ÿSÿ–ý§ý#&pw$ý+÷¿d÷@Øî¡ÿÞýï>ŸÙ?dAýgòë_ ÿÖ}ÿÙý7'ðxèà«¿þ%úo<ôW¢ÐkD>èß¶ÿÍf.Ë_eö*ÑÁ7ÿúê¿¦Tþ« üó ê¿Oþ¢ýCÿÄGàÍ¿þúgÝ0o=þlÿÙüú³ÿ¶°«¿þ-ú§= )èê¯‹ü	 –põ×¿Mÿ‡L|Ô_Ê¯›ü÷˜ÚÓçþ˜¦Žòëß.ÿžôºÿ—áú·~ýGßô?nÿ¯‹
ä×¿Eþÿþ·pùÈ	è¿WþÿÞ)?t+ùõ¯Ùÿ¾~ÌBë`Äüí_þR?põ0äÕÿ÷YÈ°€Èü[Ð¿¯ü[ˆÎ¿>€µüúWê¿Vc 	ùW wù×”_ÿg;æßîÿßÂý—0jþ=ßÿu;ÿâ ó/@ÿ.óë_Ý^ùÃúÿ·pÿ¯	ùõß/ÿç_À¸ùwûûúw¢ëüóøZx ßüÿûOÿyq¢þÓÙ¬ÿ?dYý`è«Á¿ÿxSs uú¯~RÿUòo JÿO/`ðüùýgó¯ Fÿ­Ï/ôýê_¦ÿZöŸ¼ñiýÕÉ¿:€ºýc fÿÅüúEnþæýç×è?¡NþnûßTÿ¬$öÀÒñKõ—ÿ*/ýÃÐÿIü%ú/ŸÀZÕ¯eúO9AÿÐûÿBûO#ÉÈ_¦ÿüÇWNa)ìfý»Èÿ¦|ÿÕ³[îÚ?çQÀÏÑÿ]rþüþËŸÛ¯ÿ4šôþÑ÷þ>ôùÀ?/?¹z5ûOãIÎ_¢ÿkþ·ìßQÑþçµ¿Ñ >OBþý#ü_íÿODÿä|ž‚þ7RóG>ùçùæÿŸ¾úO£Jî?€í3
î_g Ÿ' ÿäþÏýùí/¹ö+Áå¿—Ü?ø©ÿsý§¶ýoŽ/ÿƒäüîò¯ÿü_e 7G—ïþ¯ºËÓ?÷€äP¿ÿóÕÿáþ¿ðÇ ®²ò?ôÏøªNc‡›ÿÕClž^¹þ9_Õy­ä î+ÿ³–ý·pŠýoó5KÕü‘ýƒN2=ÿGÿ¬/ét*æªÙ?| ÏG•N›þÛ	=ÍÔú,¨—ÿ£nÀA"þ€ü…UËÿV·Àaî©_X­üõ¨_VOõÿ÷¿ÿý/äpêÕOü7A‡ÿDnâ‡/€~üû¦L~8düO™õ-àÈñ£¶0ß ÎRuËñà4õ—°ßNSv õà$õŸû‡Õ7€sÔ@p8Aü§þùàøñóú[ÀÑã?öÌoŸßßŽ¿H8ný2ýMà¨õ‹õ·€äÏ€/Ñþpôü¹ýàXùŸþ1€£¨’?»¿:¿E¥üùýàÐýÝ C­ü~<†Zõõ?ˆZùÝ	tÕòç Õ?ÀèjÕ÷0À1T«ïÀc¨Vß3Ž¡Zý+ý Vü+ù Zý+ù VüWê@­ø/Ô?‚:íß©UÒÐ                                                                                                                                              ºðû½/»¥7‚‘,µ7lÄ7SªoÓèõ-`ôú0žß¯o £ç·€ÑóÀàù`ôþ0v~<¿þcç7€ÑûÀØùõïÔår¹´èo ½Ö__@©üúwœÿR?¿þƒ÷7€ö/˜_ÿþ´Ì¯‡æ×ÿ`ÊÖ×¿µ_ì××—ì"6P¾øBÿ?ßUûòÇv?l µÛßôÿ¨omêo Eüþwù- Eýõ4ªÿÖÿ1¿4¨ßìW¼„üÐ þRÿvõ_ûÏæ7€úù/»ç_ëo•ëÏöoZåæß êçŸ@ÛüëW¨\¿‹ü«ý- fþ#ô7€zù/=ä×¯ú{÷Ÿ‚ú@µü—]ó‡ö7€Zù÷íÿ~®úw’¿ý=?¯`Ÿü{ö¿=[ý÷É¿cÿ)ª¿TÉ¿_ÿû³Õ¿“þAˆ:p@}ß ºÉ4öðõõß'Ê£ÑG¨¯ÿ>ùãûÏžev}÷ öÓ­æâ™fÖ÷À>ù#Ÿýµv¾Yñõß'ÿÒ³?ãó-+ôØòQ$ÿLËÐóO[Î•þÝ\ýßD¦:bÜQåož?ýE Èß<Wý=¼yþý¿½É?%ù[ç¿”Iÿ!ó¿mý¼þOõó' ~Ûü—Òõ‹ ëÔÆ‘V?½ÿbýÜ¨ß2ÿ¥FþbÈ9™¡t–?÷ç@í£lõ-Þ3‰_	´÷·ËZ8Åÿ{—œß :ÈÿZmëõ”ß Y¾m¿Éÿ¶€ÇoæŸ@`~Ø9ÿíÕÿs7GX8EýO‘ÿáê³€u÷ùŸœ?b ßßE~õÃ»Äõÿ­Ëþõ- `þÙþØèÿ­tÿ»úK°èüýë«ÿSý™ÌnJößZ@¹›ÿoiù2oß8Œj=ê Zö_È“9ä›Ã .ÉýW°ñë_Éþßdþ£”ÿù€ ûõ³J~ï¿r:€©bÿ´üúçÏÀì§wîo Áùs°ðé}óëÑ?g kgŸŸ_ÿùSdŸü÷t¯Š¸›_ÿVýL°X&ZF~ý£ò'ßTÈ|¸œþÃ ¶ÿÊM@í‹ºî{áþ_¾|ù2":ÿÊÂÎñï7Ñu)^Ùþ×ú- ¥ÿç“ãû¿×@^æÐþïù@Zþ…Tíÿ½IÿÏüc ¹ÿÜâòwß€dä}ÎoÆÕÿïÞóë²€÷	„á‘®þ ·ükþRúß#ÿéûççO[@ÂEmPÿ¹ÿÙP¤“·ýj¼þ…ò·X@ƒøúw<€ñçúŸ{ ûW_@ñøsï3Vÿ¢ùk Vý»èßíŠÖ_x_°çüú÷2€Šù? ÿ©ðqRKoúe¨TÈ_s5óëßf ??$\ÞRùgßúåú×ÀgüÄÊ¯Ýþ— ü­°žÀþÕòÏà©~ëlô€þµ0—?åg€¯óÔ¿zÿKHþçþýµ}±õ?^ÿŸýÿú´qÁõï¿ÿ% ÿÏùúH˜Àfÿë ôß©ÿCþ€ïéù—o ¾ŒÔ¿nþ»löÊòƒ@ÔîŽ¨Óþ	Wÿ°DlàîHúŸ¦èî¢ýþ›XÏ1€€<<"¿þ•úO%ûo-àáÀúïÞ*ÜuOÕ¿eÿ­‡~þ*4€¥	Ìp¦ÿ|~ýôÀãE)×vs‡
¾úë_ ÿíf.JÑþDÿ¶ýWîÿb¥ý‹ÀüúïÕªì>¿þ£õ¿ÐR~ýôO|  €µg~éß*ÿÜ ¦¦ôß·ÿÓ ¦Nòëß$ÿÃ ¦Æôß½ÿÍ¦Žòëß¬ÿnÖòëúüúÝ5¿þçÿz'åÆìßøõ_õÓ?(”_ÿNó¯ÆÙ€þÌR?lùõï°hýè¿oþÿÞ*žsÃæßãí_Öã‡N .ÿÆ Æí_g ¹ù·›} úïÖ¾þÖ âó¯`+¿þíó¯àkÑèßaþµ|mÛ:³=ó¯÷ÿoáþKùê_¾¹üËøZt úwš¿MÿÍüú×É¿Ýÿ¿…ûÏ`ìüeP8ñþsÐŸüôüæÇ¿ÿµGÿçŒž¿Ü bÏWÿ>ÎÿŸÿüç?¥úÿ·xÿÇó_öÀþç]Õþo ä/Óÿ!ÈÒó¼Ð¿Hÿçüûô_ýäL7ÿW5òo £ÿRãÕO&õŸFP%ÿýW?9; ý_”ÈÿÔÿ?ûÏ7.ßC«ÿý¿ÆöwõSãê÷`î£kGNï3 ùßäçÏê¿ð‰µ#/¦ÝªÑÇWÿÏþKŸY=övgý#´¿ú¯VÞÌ_äY òÈÌŸÒÿu ‹Ÿœvî?%³ô¯ÿaWò5ú•—?»ÿ?/úé?¦lÿs|Î·€šý§ñäõ|ôç¡ÿGþ· ŸÇ—ÿNVþÛ„ÝÍÍÿgþ7 ŸÇ—ÿ^^ÿL­úç¾Pÿyýãü·@ÿÌWËÿ aþ·»–ûýnX¥ÿ4®ÆWÿõþ•ðydùŸtÓû€WÅûOckÔÿá±ŸÙ«Ø½ƒéùgûO£kzõºàþ íûg}Qç°Kÿ×< è¤’óë?¯ýÍÿÒ!ÂN¬`ÿœ¯é<ö¸úÏ$ðÔó? çK:“¶¿ý/$øäÒò?öOüZN¨MÿR—6x ÇRIåüq×î)ùïú½4ÇW9ñùo°ÃîÛáú'ý1õ—-ÿ‹¨ú¬;^þWê—ÒKýÿ}ˆ8’ò%tU?r±ïÿ}}8œïd×7€ãÆVßÎQk‹ñà,õ—°ß NSa ›ùà$õçPßÎRÿ¹`~8Cüœþp‚úOÏo'ˆŸ×ßŽ?·¿;~~8týý-à¸õþOëo­_®¿2ÆïÿpÂüYýàhù÷·€£ç7€Ã¨“?·¿;¿€ƒ¨•ßÀ1ÔÊïàªåÏ@Ãƒ¡UËïàjÕwpÕê»øªÕ÷8Ð1T«¥ÿêÕO@½¯–'Õâ¿Ð¿õê_Éß¿jñ_¨ •Ú¿‘ÿ jÅ%þTIÿI{                                                                                                                                              èÃï7ö¾,ìUÞ³ßF°ß¦Ñã[À4z}˜F¯oÓèù`ðü0x}=¿žßŽOÿ¡eæ7€Áó@¯./ê÷7€nãoN D~ý»®¿¶€"ù ÷ü‹ÐŒü(”ß ºÏ?? ý‡î_,¿þÝç×ÁýËå7€=\òú—Ì¯S«]÷¸úëßÎVÛ=òëßHÀ•{üú7±ð­}s Õóôÿó]“±,Öß@õú¿?Ö·€¦õW¨œþ¦ÿ]~h˜ÿñ*þôñ:Ùïû?æ·€Võ×ŸåQ¹ýZh“e ¿ï™ßÚÔ¯ý FØ/›ú¯ý—ò@ýúµŸÞ¥¿TÏ_÷Ù¹ý- vþËîù×û@Õú-îáÝÈ¿Ñß çï­¿TÌßÁÕ_ÿóïØ
ío õòG÷9L\þíþP-dÿÀƒÅÔwÐWþµ°ÁŒÊï`·üQ÷þ02¿þ‡èqÐ¨úúï—?üÞÿ¥sÌ¯¯ÿ~ùü]=ÓÜú~ Ü/À“?¶Ï6·¾þö“_ÿýò—ê¿¹€õ#ë¿Sþrý¯’Ú¿Ÿüeû¿ˆ,ÿJÿ}òWèŸDþ}ò÷ÒßsÀöÉˆþ{_¶çÏÀ·y_üûä¿i_`êï’ÿR®~æäß#ÿ¥hýÒH?±aäÕOë¿’?gêŸ!©$ŸÊH.;ôßÊ_ä{@úIŒä²Cÿíü¹¿Ò,ÿ¥J~8tþÿ[;Sý{Ø62ÿÿ½ÊËo äÿíMè›?ÞæÏîo ;ç¯ÿº€Ð·öýèÿú¿ÊøgUðµyÓZþ&ý¿ÊúÇPdÿ—¬½¹gñþßbê[@áüw7ÿŸø8ââ	ûþÿ-®þâ#%ÿóõÿcë¶ú—ú0“ÿynRóÏöZÀFþ2¿Î×¿+í›CVÿ™o ¡7[òû/çßÞoëùÛÎ(š_ÿÈüK7 e²€¢ù ºÝlN p~ýcó/ Ô’ž–˜ß ¢ó/þPp ‹(ž_ÿèþ-n–Pº¾þ	ù«ÿð.,N}ý“úWý5ðÎZý¼ð«ý¿\MÃˆÍ¿|v~¿
;ð\ý"éû¿Ôh	ù—Q?x OÊÕŸíÿ‘”¤õO|0è³~â JÖ_¿ú2€Äü/÷Æö¿«Ÿ4€¢ù7®þúG. 6ÿßçb 9ý&›çþsg0\ÿÌüoOû	ùÞßYþ) ÿ hörŸù+ÿâ7bÿùÐSþÅsø2Ú ÊôY@výbýoNññ5Áú×[@füâwùÎ½+ÀhýËåoñ¶ouêßà9¿þ \ýÇ·…Yîî”í_{u®ü7­éü•PëÚÿ1 ý»@Åüúaõòë„TìÿçRÿ NþÕüüt‰Kä×¿vÿËfüäè„þ—€úi¨–_ÿºx®ßôàæôoÿq ³ùþÔ6¿þúÿëÿ×_ýµ}¹õ?BÿËvþŸíßm]òœü+?ÿé_g ?úßæ/¿€»ãêß_ÿ‡ü¥¿ÜQÿ6ý/[ù.ç@Ä‚ú«ÿ¥Ÿþ3ùÃ¸‡£èßGÿ©Dÿ+ýOØ?f x<lÌ·ýkõŸŠö_™ÀÓc®þúçöß¾óï¯B˜ŸÀÌÁ"®þú×é?Ué?3Ù…_ýõÏî¿ùÐ_ÑþWëñ¯‚¯þúç÷ÀT¹€Ðüúè·€ç‹²GÿÏ¼üþuû¿M`á²ìÒÿuÓF~ýå_³Sþ+ùõoÐv S;ú÷×ê#¿þò'= Ü&¿þMúÇ>¤$ý;è÷°vùõo”ÿª}|ý{ê¿‡üúŸ»ÿV~ýO_ÿ÷ÿ:£tþÓöoúò¿FñãG ÿ!ó¯ÅÙÀv~ý;ì?lú0XýŒœÿ°ýÃóo@ÿãåê¿±€¡û×@WùW_ÿÎòG÷_€þä_Ààùõ¼ÿÑÞÿ7µÿÒ ô?^þ¤þ_“óëßYþ´þ³>ñ´¸Èút¼ü‰ýgàæÿhÿ)§ÿó ä/;€F—Xÿ’—?¹ÿã Üü_.ÓþÓù-±èÿâpùõwóÿæhù@þ7Eóÿçªö%Ö¿¤âùûÀíiÈÿ®xþnûß@ÿ¥úÿ§Uÿ7 ò(}õ?BWÿeò7ìŸÿ ü7ô:Î nO¥]þügè§Hÿ·Lgè?¥Hþ×$ÿ?/bŽQ·ÿ4š2ýS½æ[@ÍþÓxºÈ3 ýËÚ¯ÿMþÊ7 ŸG–ÿQWÿÊø<®üOz¸úWþðó¨ò?Óèüñ(t¶©ùsÞ
@þ9»äÏè;€Ï#ê?k—þ7ˆ=fjþáþØã1úÇµpÿit»ôO¹ÿ÷]Ñþå¾ ÃÚ%Ž¤üóý÷û":r´þÁ¸;’ü‹ŽÖ?íÝ`å_t´üax8ŠüË×?`GÅáòo-àùàò¯:^ÿµÌXþuÇËÿ",þ•úšçÿñãG¡SÚjÿBýíó/ôÿß»²g¨þ–nü?âWX ›ºªo{È®ÿïœø°—äkþ}üˆ%,Ô7€Y‰¿1åúpšú‹X¯o g©¿°€Íüp–úsýòÀIêÏ (¿œ¤~r8Cüçç7€SÔÏèoÇŸ×ßŽ?·¿¼þãÏÑýMàÈõ‹ô·€ÃÖÏøýÏNPÿùþ¿ÄþpÈüû[ÀòÀHù÷·€ãçÏëo íÔÉo GQ)¿ï Q+¿€c¨TßÀATËŸ7€V_þðªÕw'À!Ô«Ÿ5€ú_8¯êÕ÷8À!Ô«Ÿ1€š_0÷êÕ¿’¿{õâ_éß¿zõ¯äï_­öoäï^½ø¯Ôï_­öoÔ?€:é?i                                                                                                                                              ½øýÍÞ—ƒ½ÊßÚû2±[zÄj|8¹€ú&0^ßF¯o£×·€iôü0x~=¿žß Ïo ƒç7€>]>TÎo =Çßœ€þ§¯¿¶€ù ÿüK(’_ÿþë/, L8Bþ™Ê¯ÿ!ò×ëo ¨ÿ<€bùõ?D~ýGŠ½= ýGjÿÔ¿\~ý¿ÞÕ_ÿ#Ô¯wõ×ÿõë]ýõ?@}ýÇ®_1ÿMÿ?_5ÿç9¾_¿Zæ¯Óÿ­¾	ÄûµÖ¿xý*ýoë@œ_+ýóëÏ<öW=¿ôœ¿IˆÈÿ«eý
ýçò@˜öùËßû7ßß r®þÕê—ï¿ß”Êÿ|œ•3-›¥¿$^ýS¯êsõ?Cµïo ë
çŸs[êþc…ò¯ö7€øþ±õ×_ç3×¿ì“ÿWû[Àš"ùúÏ´MXV?ÿKëÙ–Ê¿Ùß "\Ê÷ŸW,¿þûæOìŸ9€)¢¿ÔÌŸÚ?gw'£ÿAû'`Šìo ógôOÀÓ©è¿gþœþ	˜97 {æÏë¹€ÙSÐÏü¹ý#°púºè­ÿžùKôß^Àê‘õß1¡¬l`óˆúï™¿Xÿ‘é_È¿gþ²ýSè¿gþþûï}ùÎÿþž²gþÌþß¾}û–û%È¿cþô|»“óEÈ¿cþK‰úyÇü—Bõs þ~ù/Åêg,@þsäO€ú{å¿”Í_ì ñd†Q¨~|ÿüExÙ-ÿvÿÜß’>’ÝúoçÏ¿CˆnóëªüuúÀió‡õ7€³æ×{æ/øàû÷ïß“.ÁàBãþöÛo¿Åþa·V7 ßo¤]ŒaÅä_›@òÈï[ßªäÿì]ÀÌ±r.C^ÿÇúP£ÿgþ¹d^ˆœþsùï'`ùùo¯ÿoø8n‰Ë‘Ú©þö*ˆúÑÿ¡ÿË ŠJê›ß Rû? í
Õ7€Ôü?TÀÊŠå×?µÿž(V_ÿäü3h¶€bõõOÏßf !ÏO¯¿ÚÿË—i$ñýüxµÞ?'þJÿ/o¦Q$äoñ{à‹åü™õû¿çg iý/ÓýBÏíï«ˆKW©þvþQ˜ÿqÁí_e]äüúKýoó2€ôþ¯÷ø†æ¿‰Ÿ9€zùìŸ“?â>ÿ‡úý¿7Ë?Ä 2û‡-à©þÎý—N[ÿ˜©ŸÞ¿býçþç@ü[è,ÿ‘_ÿ(™?»ÿêËÂÆë_(ÿê
Ö/xŸßÜ«B¿7€KƒÌŸ×ÿætf_>“_ÿü‹_ìŸ…÷„¯ÑüÈ¾À5®üú×@9•ò¿àËp(Ý¿ú
ôŸÍ?fÿòùk ÖÕÿe úw?€jùõ?Æôï¿ÿò ~~J¼Èú÷Ÿa7ñ3™¥ÿlþ3àÒr õSPéê¯ÕÌÔoxpslýõ¿læo6€»cëß¨ÿe3ÿcÿ¿^\pýÿs ?Cú¿Æ@ñþK?þëŸ=€Ÿýoë_ÀÝñôï°ÿcþ ïÁ¸;RìÍ¿þ»ô@ØŽ¡Ûþ?·ûÏäÀöyó¯æ Ò®þQXÝÀÓAã®þ§íé¦ÿ_ú_…å_xúþ­ûOýã03¹E]ýõÏì?µìÿ8ùƒÄ\ýõÏÌ¿}çoÙþ/Vâ_Eä×¿Nÿ©jÿ-ùõ¯Øû¡ßöýo°‘_ÿìþÏ˜vïÿ6·ÿÔ¿jÿ‡<]”}úZË¯‰þŸ˜½,ç×¿HþuúÝ?ã ÚùõoÑ?ñàùõoÒ?á …èßCþÇL½ä×¿QÿÛLýä×¿Yÿ«–í¯ôï*kÛùõ×ÿ”Î’ÿë«Zùõïµÿ×9ÅóŸ¶Ë—6Š»¡ó¹ÿZýð	Œ}õoûòÿ¶ùÃ ÿ1û‡ä@P~ýš{£÷¯7€>òo ,¿þî¿º€áó·û·æù× ÿóÇö_€›ÿ#¾ÿk|ÿ¥èÄ÷.Ö_þQúÏ@ÿ:ý§þúÏ@ÿ«ãåOéÿ59¿þûäÿÑIÿéäºÌÿãUÁþÏÐÿUùßê/àk‘èÿªãü5ûËÿf¿üs‰oâ×€þïvÍßø¡¾þ-ìœUÉþ÷ÿÃ.ùsú—¸ÐÿÃ.ù0»ˆ©Zùoì’þçü ü ÿîýç~ øí¿aÿi»ä_±Q¿À}€úßê,€ý§q-öƒ@úß;\ÿÌÈïpù«÷ŸÆ²wÿ^Ä£nÿi4=ä[€þ§éÿ‘?f 5ûOãé#Õ€Ï£Êÿ¬þ5ðyLùgìÕÿŸÎúO£êáê_ñw€›#Ê?ëhý“_
®ÿ¼]ú§þüW§ÿ4²£õÀÍÑä_°GþÛD5)ÿxë7Ø.ýSîÿ}§YûôÏ±ÿn_DGŽÖ?åÝ å_q°üa¸?‚ük×?úí€å_ÕºàÓ¾×DåŸë_àË8¦ùC_ö±!¼þ\ÿÜ/âdØ?æBÈ¿e¯[ÿ¬þWÛñgúçå9µÊøªÿ²Ôß¶SÿÇÏþïC¥þOödÚä¿ÀRüÂ?H‹ú‹oúó¿èÄS$ÿ¿3î0“¶~Ùï„È­?ÿiù—ê[À.jÄ¿_@x~8Œ­ú÷˜ó[Àyê?þ –ß NS¦@~8Ký™õ7€“ÔOíoç¨ÿ4€ÐüpŽúéý-àñ³úÀáãçõ·€Ã×üù/²¿	»~þpàúé¿ÿYÀê'Þÿgç¨_®¿œ#ú ,àxù‹ö7€3ä7€Ã¨“?£¿4U'¿D¥úYý ZùÝ C­úpÕêûàêåw/ÐT‹¥ÿêÕ÷@Ð!Ô«%÷êÅ¡÷êÅ!÷êÅ!ÿjµ£~ÿjµ£þÔ(C{                                                                                                                                              €½ýþhïÄ~ím`‹ím` ›õM`ôø0^ß¦Ñó[Ààõ-`=¿žß Ïo£ç7€^]®êç×¿ÓôŸªæ7€¾ãom ¿¿t_yòÀê/-@ÿaòÏ- H~ýn eúÀ1ê? P~ý»ï>? ýÇ	?Ó¿T~8FûÇè?\}ý‡Ž×¿\~ýR_ÿ±ë×¹ù×ÿ õõ»~¥_ÿô?Hþýÿ¼jÿ/tx¿Ô¯sïßMþ??Õü·K¥üúßä·€BWÿrõý+Þÿ>¿ô¿\ÿ¥üê×¯êõk=ùã£ÿ\~òk¡Õümú@€]ò~öÏB~H½ú—¬?ÿìßFý`Cýüžý½Òßâû·È_ôÕ«ý Ëüíú@”²ùW^X,ÿVè1ÁWoõ7€½òW|ðÑß vÊ¿ñ. eòëÐü¥Þýi»¿ì’?àM@
ä×¿×üuÞæé$ú@§ù£0sú÷™?°Ìf®;æÏ~÷wý{ÌÓ?`+GÕÿøù_$´¿Ò¿Ãü)ý_D¥¡ÿ‰ò'?ÏÁóë?v~ ž_ÿ±ó{Pºë»•þUÈÈüwõs& ÿ)ê§/@ýÖO^€üÑö¬¿’¿à ’Nh»æ_í_h I§2ŒŽó—@Ò)dßü[ý3H<öHöÍ¿Ù?ã¾ ì[_ÿÁóo÷7€3ç×W»ç7€Áóû	`ðüÕ~dKù3ïúþ)ã"Œ¨“ú9¸‰o‡Í¿5€àú#0‰5ýÔO{h©þÚ"øÐSý«Øþ1ù-àIjêJõcŸY_ÿG×ô*õWP ¾”¸úßä®óÜî°þ)õõ/Ñ¿úóùú§Õ_ïÿåjHbþúØÊŸZ­ÿKý±Þ¿ýM@‘ú+ý?ò3€ŒüÍÐ0ÿ0Èëßô›@™ú!·þãôÏÍ4€¿?¤\Ä²WþÐüƒàR} Ÿñ“ð RþûÈ¿>€‡ú%ú7Ê?Ä .•ðwùþ•êÙ¿LþåüÝWÿûzxIÈSþp©<€žòßžÈÜkÂô/>€
ùKÜç;ÿ’Ðû—Ë??€~òßœÂÒ+Âõ/¿€â¿úe?à·ø†3ùO?€Kí”®ŸØÿóèËo2`ÿÂù×nŠ]æ¼ü+ï£V%¿þ‡@Vÿ?cûŸz ò×_@•«ÿu úbúwßq ??¥_êŒükýçóë_l7ñ³P¥ÿ4`ÿŠùŸðX¿Ý òúŸx uûß-`¦~Æ· ýÑÿ²ž¿Ñ îŽ¨ÿýõÿëMÈE×ÿý/ëùÎÕ@ÙþÓ€ý/úÿèW¿ìÀýq¢¯þúç  ÿSþ°„làáðúwØ&ð ¶6ðpØè›ý3ûÿ¬Þÿ*0ÿâÓ?óë_½ÿlþØÌOàùP±Wý«õŸÊö¿ÚÌ?; ý{ìŸ4€€·€ŒËÚþ—½ûOuúo{Î¯ûþÓný°ž_ÿÌþ˜vìÿôêýëåß~ì¯}ÿÏlæ×?·ÿöCÿíûßÓ¿jÿÍgþìÜ5¿þùý0õÕ=¿þúßL`ö²t|õ×¿LÿU_ýõ¯Ÿ?çàÚùõoÑ?í	 -òëß¤ÿã ¦Fôï#ÿÃ¦nòëßªÿÇ¦©£üú·ëßZH~ýO›è«¿þc_ýOÒÿë›ZùÏÛ¿ö b.Ê«Äò·¢N@ÿ>úÿø”?raùõ¯œÿ¦~ðVê/ 0¿þuû?äZÀFþ°Ÿ¿nÿäüÛØÎ° Wÿªý3òo (ÿæ ôoýöOÁù7ðµÄ Bóë¿Gþµ„æ__€þ{¼ý_hýµ|-2 ù÷î¿žy _KÀÕÿEÇùðµÄ ôÑsþ¥|-0€àüú×ÉÔÿG‰þ³ÐÿM×ùçÐ´ÿtr}ç/Òn ú¿Ù'pÿ%ú?ÀÍÿ»ÎóïÝ:½=òGôÿQ¢ÿÓ ôÿ°Gþ¼þ ÿ§úÿØ¹¿ü7Úçß¡ÿý ô¿Ñ>nÿì ýo5Ï˜þÓšçÏüý/ úßižÿ ý§AtÜéò ÿ½ÖùóîÿoÕGëüÏú­Ÿ{'°þ»÷¿k½ð‰ÕãWï?¤yþÏÐŸÚ:víþÓXvèïŸ«˜#Ôí?fçü/õã Q»öÿÈ_q 7Ç”Fùc¾Ôë?¨þÕn nŽ(ÿ¬½ò§öO~%üóŽÖ?õ¥€úŸ¤âkå_ÐAÿ¸c&åó¯ýÙ%ÿí bY¼ÿ4¶}ú þ˜…ûO£Û§ÿÛ RŽŸ_ÿ5»äÏQ²ÿn_DGŽÖ?d ÷GUëþáÏúX—±¯åšöÒ×š˜üKý³¿”ÓhyõxÖßªðüóýó¿’9`ÿ¥ÌPþMÍòì?7ÙCÉ¿­Yÿçäžàjû+ù´Êõ´ï2äÒªÿÃ î?÷¿õú—;åsi”ÿa ³ñËN@ý@…óÿûbæsùã\€ü¡JåÿwÖççŸòÏÖ/¶ õƒ¨?ÿ~¡ùK. È	 «þZüçä/ú£ aj\õï‘ß " þÝ BóÀyêÏüBÐßNSÿ©P~8Ký§ö7€“ÔOío ç¨ŸÜßNQ?£¿?~V8~ý¼þpôú‰¿ÿYÀ9ê'Þÿc'©_¤¿¶þóóA’úÀYò§ÀŽ˜¿`8GþäþpŠüpUòÀQÔ©ŸÑß šª”ß ¢R}ß¢V}¿D­úî:†jõÝ|µâ¿Ð¿Õâ_éß¿zõ¯äï_µø/ôï_­ö¯Ô?€Zñ_É uÒ¿SŸ¥ì}±                                                                                                                                               Æòû­½/»¥7‚¡,´·lÄ7Sªo£×7iôú0z~¼¾L£ç7€ÁóÀàù K—µó@¿íÃFÛß úŽ¿1ìüúweùùàõ ÿ(ñgP"¿$þÌ ô¦üÜÊä7€£´×ìöÐ´øw(•_ÿãÄ×ðúú]_ÿ±ëö/–_ÿÕ×ðüú]¿Â·ý”¿vÿ?¯öøg:©Âõoîþ«Ñÿ¥¾	ô›¿êÝ¿ŸõM ÏúUþyÈo }ç/Ýÿ)¿tV¿Nÿ•üÐqþÂOÿYèo Ýæ/Ó#¿ôRæù¿Mú[@ùëôŸú@ŸùK¾úkµ¿ìŸ¿Î€û@ŸùË½ü{£¿ìœñ% mòÀÎùk¼øöTà ù½ý“þ]ç_}ˆüú!ý`Çüï“_ÿöÊ=€çèo »å/ûFPsG×ÿØù¯ÒëëßuþÀþX<¢þçï_ÿ|Ýä‘þ…þýæOéKþ¡óëßoþ&ýÝ<vþíþm.Æ]FèßæRÑ)ò{Ð¡óûüuÈÔüŸñs& þ1ó?ÖO^€üñv¯?›?qêŸ&¹¤œÎ(öŽ¿’¿Ð RNd»×_í_` )§0½ãoôÏü= íØÙ¿þFÿôûØÖAý­þPOõõßOõ`ôüúï£“ú~ÜI7ù`ðüUî`UOõ3îü~'óBŒ¤¯üi|_“}‰N­³ú«H©oËû0pP}XÐ_ý•äÔ7€9=ÖPL|˜Ógþ¥dæßìÿåË—/ÓH:­ôDÐèú[ý¯õ[@·ùgY£ÿ{þÐqþõW|¯™œtÿi ¹ù¿‡æe —ýÿþûïôØ.¿þúÿý!ù"î“Œ\êöÿ¬_`7¨P_ÿòýïóg|xÐ$ÿ¸ÔÀß=õ¿;¹W„ŒØÿR³Oùo¾ðŠ0ý Vþ¬û|_úœ€4ì_ðR—Íÿ6€û—Ìÿ<€£ä€þPôRÏ¯Ý¾ÔÉýÿ\é?—ÿì8è{»Ï€þ‡€þ÷o°€Äü)ýO=€:ùë/@ÿÎû/.àç‡¬®ïýç&ð?w iùWû/ä×¿Ôîëg.@ÿ#ô¿¬Õotp{¤„›ÿ3 zþÏÌåo3€Ûãèßºÿe-ÿCÿ¿>„]üèüúïÔÿg@ÿÏúá˜Àýá—óë_¯ÿÏíþ÷õÃ°9û'\ýõÏÀÏíþOù#°ºÇCêß8Pÿ™üqXœÀãÁâoþõß©ä f'ð| è«¿þ™ýnöÿ«Lÿ«­üKBÿî®þi¸™Àü§õ?yÿ-‘ùõ¯ÕÚ§ÿÜ³ÿõoßŠëÿÇÅ¾ð¨üúgöß¾ï?¤ÿÔÀ4lÿË¸ý?0mç×?·ÿÜ î.IëÛÿGúWÍ¿ýÌ¶?ÿÅå×?»ÿÓ ¦žúoä×?¿ÿýf.‹þ'ïÿ>…ËÒq~ýõ_µ[ÿÍüú7È?7€©	ýûèÿ4€©“üú·éŸöÀLçï®ÿÍ¦©›üú7Ëß\H~ýOÛ?(¿þúŸSGù¼š:ÌÞþ-_ý?q_¿~jæ×¿nÿ»ú1øú,æ‹—¿í«ÿCó.`¦~ÔBóë_³ÿ\ý,Õ_€þÕû'çßÀZþ°ç×¿^ÿÅüØÈ² ý¯úÍ¿6€íü›ÿEÇù3ûo,@ÿÝûoä_@XþÕ„ç×¯ü‹øš? ýßì–?¤ÿÌþ_ä×¿Nÿ-ú/@þw]ç_À×Ü¸úØ)hÿ¹ýg ÿ§}ò·ë?7 ý?õv -ûOg·Kþ–ýŸàê«ïüú?@ÿ[;äé_á@þ±ú?@ÿ;íóëß“öùsûg@þ{Íó7ï? ýï5ÏŸÝ?ë@þGúëß2æý?™ÿIëüú÷¥uþ¼Ç^Ôï?¤‡þ‘/K€þ3çL½ô‰ûOCiÞÿ¶óëþùçŸ‡O­Ÿ@ÝþÓ`Zç¬üÏ«›Ïm¿jÿi8ÍûßU~Ëÿ1€úÕ<ÿüÕps4ù{ëÿOgý§!uqõ¯5€›cÉ¿àpýÓ^
¤ÿ’úÇ3!ÿ°o÷`Ÿü©?ÿÕé?l§þI¿ÿ½(ÞÛNýîÿ‰_ÿU;õ¿½ÿ7NÙþE¾”Ck›?àŽþ-‘ùÇüS¿Ú÷ß@Èã~s¢òù—Þ£4ìû´…úg|!§Òîê¿0€øÓ	Ï¿Ü?ë9•ãõ_\ÀóÕßÖ¬ÿü O+(ÿBÿ¼¯âtZå_z*`ª­øKý3ÎòœšõOÿ ‰äÒ*ÿÓ ¦ÊäÓ*ÿÃ?÷¿WS1ò‡jÖÿùÙÀ·é?”9/ùƒÏÿïÕÜ'fò?Ö/6õÃËÿï¬ÏÏ?æŸ­_fòÇ(Q>þýîò/Ö/² õ£dæ_‹ÿ0€ üÅnòOfëÏþ<°Ñ¿äoJºå¨?3€Íüpaõ“úÀiê? $¿œ§~b8IýÔþp’ü©ýàõÓû[À	âgõ7€ã×Ïêo ‡¯Ÿ×ßŽ^ÿñþŸØþpèúi÷ÿYÀYê??þ“Ðß ›¿L8hý¹§ƒÀÐùûÀ.ÊçO€œ#¿þÇQ¡¾G•úpuêûð0êÔ7€£¨Tß½ Q«~ê ª~±<«ÿ…þP+þùûW-þ•þP+þù VüWòA•ôïÔ?ˆÒá?©ô                                                                                                                                               }øýÝÞ„½ÊßØû2±_{ÄZ|8»€ú0z}˜F¯o£×7€Ñó[Àèù`ðü0x~èÐåVåüÐoúÀäå7€Þãol 7¿÷ëWéø+Ð¿3¿~E÷‰¿°€üüP<ÿ¯*ñçP"¿þ%Eåk?³€"ý  àú)íŸ ÿ!%·@™üú(þÝ ô°~ùþp¤úŸ(•_ÿ#Å×ðúúž_ÿ¡ëë?v}ýÏ_ºÿÎÿ>çV¾¾þR1•þ¾ÙåëtjÔ¯Ùÿ½¾tœ¿ZÿÛúÐkýâÿ-å·€Îó×ïoÝå/Þ5¿tV¿üó¿6ú[@Wù«õ_Ìo Ýæ/ùôÿ•þÐMþ§— ”Ê¿Úß:©_þ aù üÅûO¡ý Ïü¥^þ¯ÿQû—yûÍþ°þ¥Wççèo ½æOÀÝ)èßþµ7ÉÌÒß vÎ_ò`­ÿÁóG-àù¸!ý`×üo–œ_ÿþó‡¼\Àæ¦¦Nò¿ˆ®¯ÿù#ú_E´¿Ò¿÷ü‘ý#É?t~w õž_ÿn!¿€úÎ¯¯Î‘ß ºÎ_¿ÿÖ ê_€Cê+ÿ·Œ¯Dþ½äÿv+íK‘¿×ü—¨ú©Pÿ4ùÓ þyò@Ú¿ÌºÎŸ´ õ#ôQ¥îM@Ê?Ê@:É_¶ÿÇÒŽ;>â¯öÏ¹;€uÄ_ïo µtÒþJÿtÒ~«¿ÔÑMü+ý[ë©¾€özªï ¹¾êû°µÞòçÜôýFæ…EwõSûß¶·‚PýÕOzh>¾lê1ÿò â[Àš.ë/ ­¾,ê³~øÓ@‚âÀáò/ µ~Pÿ/¯¦t[?äy€õCú¿åi =çŸ@rþïáù@×ù7ž^/ÿ0èþ]Ëýãêo÷¿Ë?Ê *çÿûEÖ%,”ûŒô/Üÿ5~Ù|~¸rþ1p©Øÿ3¹Ê?÷„pýËöÿ»XÿÜ|$½þÒëAô/:€¿Kö™ÀÝÿ&æ_~=ØSþpiÔ¿ø/Vÿc úí_úêÿ `~ý« üOé¿ÿu 3ùÏ?€²ùïP³~Òc~‹ùõ¯:€*—¼Ü­ÿÛ ô/>€šJ^ý—ûŸ| åó7[@éþóùõïuEoþõ?Üõ?õ êå_^ÁÏ.¼þý÷˜ÀÏ[Ù—^ÿ#ô¿Ì×o4€Ûƒ¯æ×¿rÿÇúmp{hýwéYÊÿ<€¿^Ä|1ýWïÿ[Êæ\Úõÿ¹Ýÿ5~ôô?@ÿŸ›ýoë—»¸?\ÊÍ¿þúÿÜìÿ˜?n ‹x8˜þ»ôÿ¹Ùÿ9ä æ'ðx˜”üúçæßî?—?z Ïx>„þ;ôÿÙªÀ[¿,ä×ÏþóùÓð9ÙOÆ_ýÏÛ¿›oÿeû¯‹¾úëªþóBÿ=ûkÚÿq [ùõ¯ÔÚì7€?þ(õu?å×¿ÿþüQn 7ØÎ¯þSTÿkþ‚¸ÿƒ0úWí?;€ißþ·Öóë_£ÿÝ	ûö¯ÿQûo>ó' ÿu »ä×?;ÿæÿBú×òeÔþ—¦Ïþ[©_ô€hú7é¿Nþ±ûÏ`ê"¿þMú?`ê#¿þmú?.`ê$¿þòß`jCÿžú7’_ÿ³öªâþÍ_ýÙ—áó·èxI~¼šúË¯õþoñÛN 4¿þ•ûßÕo¶€àüúWÍÿT?b_oE~éúwÑ6Ð îâGo <¿þíó`.øäµsÿÅü[Xª¸€ˆüúï’c ký ýWó¯`=ÿæ bòë¿Sþ•låßZ€þôßÌ¿<€¯yÿÓnù3ú‡ä_@T~ý÷Ë¿4€¯yÐŒþKÐÿF×ùð5k qùÏÞ¿Ú ¦úÏ@þ;]çŸ@VWÿúÏ@ÿ{äï_| ò?Ø#»þOÐÿAßùõ¯®}þÜþÿIûü1ýß èÿìÜýï ÿ³æù³û§@þgÍóëß—ÖùsÿËø	@þ9çî; ýç´ÎŸß?õ@þYó‡`ùÒ Ÿý—>±|
ú—Ô8ÿÚk~Ãò'>
$ÿ‚Öýo3_ÿ÷ŸWŸÚ­ÿ4œÆù§ÙüX?…Šý§ñ´î?Íæ¿ÀÖ)$ôÀ4 ÆùïÞóe¶ÿö)Ôê?©£þ/ŸÛ­ÿ4¨Æý§õþ!§P¥ÿ4¬¶ùWú‡]ýS^¦ÿšÃõ~-¨ü«ZæŸýàó;õŸÆ¶CÿÇû‚~ùÿÙÜ?öh‡þ¸ûhðÉDåöo}k–ÿñ.à‡…ŸNLþQÿÔc„=ú¿ö~üÿPÅú'}§³OÿGQ'œÌ?ô©MþõÄžV`þµþ‰_Å	íß?åäê¯õOü"N©Mÿå¤žÞVýåþÉ_Â9µÉ¿°€ÜŸðö_¹gy:­úÇ<ç¯ ùC5Ëñœ¿|òk—ÿvSeò‡kØéAŸÿÝ(r6òGh˜ÿº€•öÅ& ~Œrùÿ·xø™øE& œ"õâ¯,`1öÔ”­þÂ Öò—@ÞéŒ£fýÙ¬ç/³€¼“M½ú3ØÌ_èw¢û¡oc ùà Bë'õ7€ÓÔOëo §ÉŸÖß NRÿq ¡ý-à$õ“ûÀ)ê'ÞþÀ9êçô7€ã×Ïêo‡¯ŸÙß ^?åþ_8MýýàÀõŸÿ‹ïo'Êo ƒçOêo§Éo ‡R>¿H…ú©ý`ê»8õà8ªÔO@ƒ¯—{Uâ_éuê_é•â_é•â¿Ðÿ*Å!ÿTŠÿBÿ#¨’þúÇP¾ü;ù‡'>3#Øû                                                                                                                                              ë÷ß÷¾ìá÷G{_ ökoãXŽoç·UßFogžßF¯o £ç·€ÁëÀèù-`ôüPÉ¯Äã]UÎ¯y¿^h6‚¬üP)ÿ¯bñ·6Ùß ªäÿU²ýÚróë¿oþÐøÈÎo EÅÕ‹?· ýû‘?!þÓ
ä7€¤¶€þ£Å¿€þãÕ¿@‘üp¬ø7ÐÈúú]ÿc úYÿ­¡üú­¾þƒç×èúú]_ÿÁóë?týŠ¿ÿýùj§¯“¹¢ÿs}è»~Ùûÿæê[@ÏùëôÈoÝæ/û àrè²þç jç7€ó—}Èj~è:‹þÐWýÂÏ 6û@¿ù‹½þg%¿t•¿ìK ¦ þÐOþ¢ý§ÀþÐkþ¼÷7€NòÏ½4?¿þÎ_â€6û@ù—Þ 3@è!ÿâATÏ¯Ïùã0Åö7€ýó—{/ ûcê†þáx<žþÇÈð†p	õûÀò_ÅÖ×ÿ ùû¯M`áðò!xÿ«àøúŸ1ý_ÿ±óïÛ¿Þ™Ù9òë?x ÷Ÿ×þ5Ïû¸N“ß »Ï_·ÿú êžõQu—ÿÛ·oßR¿õÿÛ¤/Gþ÷¿­Ÿº õO“?mêŸ'‘¤þÛ ûü¹ßÿ]FÑQþ¥þÉ¿
p¨ü‹ý`ˆüËý ’žêë?x~h¬¯øú·ÖIõþP^OåßèßPoñõoª¿úyw|“y	FÑcýä¼··`]ÖOêÿßôY?áA€ùú°¡Óú‘.Æ7€£æè¿Z?f _¾|ù2¥ÛúáÏÙªÜÿZ°´Î·“þÛõCû¿çi móÇ,åÅfÿúý?ó4€ò‡`«¥üÃ`·üé7 •ò?ôd ûÿýbù¬/a•ü3Oý2bÿ’ù/3õoØÿq ·ŸJÈ¿ølð/# ZÿüXŸËšÅþÑõW^ò”_ÿŒþ?õ_ŸËªœ«ÿíÁW_6dÿ¢ù/óù_û¯ÏeKòÕÿöDÖ_úeÄ´è¿tFQ´ÀÕ!ÿÛ fòëŸ<€Òùßpÿ¡2ùî_8ÿÜ –Î§ÄÅ/që¿Öÿô¸ÔÀâ¹¹øe®þ/˜Í¯Æ ÖÎ¤ÐÅ×¿»üqÃ&’ªÈÍÿJÿ“à²ƒ¢_€þYÝþ…þ9Ž^¿~ÿs`‡ú?_ûJô_Éêþ­ó¿µ/»€Àüú?k›ÿ®~“›€»Céÿd×üÏøë]ì×ÔJëæ4Ìÿ\ÿq õ‹-àá0kùõ¯ÛÿçVÿ»ú	˜›Àã!’®þúWËÿs9Ê ðôyý÷É¿Ýÿ9Ò î'ðüÙ”›ý«å_ïŸ6€	Ì}Jÿ>ûÿU²ÿš„üúgû™Ö¿Ñ ®Ö¿¿«•þÏxù¨þ£ôÀf~ýs¥ýô×h /Ò¿¿Ÿþ«õ¿ÀÛGÆì¿ï}¿«wþÌôÿãr_yL~ýëôŸâúÿñGÉÜÓ¿}ÿ)®ÿ5­¬ç×¿Fÿ)©è_¹ÿó .IÐ·ùÛÿa O—dÏþùõ/Ñÿv se»ÿ4íóÝ_ÿ"ýß°pQòOûä×¿Lþ{õßÌ¯“þež T!¿þmúx`•üú7ê¿€©…±ów×ÿªYûÀüú·íßPP~ýÇÎ¯ÿ9ûÖ×¿AÿŸ¦Þòë_»ÿMýfÿª‡üõÛ, <ÿ©û·@týˆÈ¯ÿùðõSµüúWì¿˜?` 7ñ#7•_ÿzýWòoà9èâòë¿OþÌçY@d~ý÷êÿ#%ÿæ ä¿ÓqþIù· 'ý7ó¯àkò bóë_)NÿükÐÿ^Ïùð5y ò?:gÿ¥èÿ¨çüKøš:€èüúµÿì ô²OþÐþ?Šö—F×ù3úÏ@ÿ{äoÒÿy ú®ÑÈ?g‡üûôwõŸµCþFý ÿ¼žóçüø8 ùØ¿à€þZçßé@þÍóëß—Žû/BÂ ä_Ò:ÿúO#iÝ?óÀ´è¿¨uþçþoÞKãü+¯ùí' ü+÷¿Ï|ýÀ?WOŸZ;‰Øþ^õ¹¢qþi6ÿë:è?§qÿ‡÷|xÏÿrØ?úy ò¯i›šÏÿp°qú—t¼þ‘Ï–ÝÙû{Ã·u-óß“OíùRý×íÖJí÷Z0ù7´Ë¿òóèÿ¯J÷Ÿ†¶Kÿ›Düúÿ.<ÿØoöf—þ¯#ïþû IòÏô_ÿøšÐü#ÿ­—`{ôÿ±õá-aùþSOöè¿ðøoÄé…ä÷/ýEi‘ÿé‘þ¥EØÌ?êßùÕ¢ÀS€R.úJüaÿÌ{¼ùÒ+“ü¡ôVýŸÕ¶CþúäwÂü‹ý÷¾\]:_þ¥þ{_¬NÒïKÕ¯òÿïNæ‰©©`þ_%§/1ù£•Éÿï²¨ø™P?Avý•øKX©_p é§3–šõg°ž¿Ð ÒOd<ëÏ`+þÒ>®²ßö×Ð?÷7Åüº÷oZÿüÐ½àúëo çÉŸÔß ÎR?±¿œ¤~j8IþÔþpŠúéýàõ“~ÿ3€³ÔÏêo‡¯ŸtÿŸœ¦~ÊýÿpšúÏÿE÷7€çOxü×Nß ¦pý¤þpžüi°€¯ïàH*Ô7€©ÿÊ ¢J}¿GøWúCúî>Œ*ñ_èuâ_é5Ú¿‘ÿª´%ÿA”OÿFþá©?<ñyÁÞ                                                                                                                                               Æóû½/ûµ7‚±Ì¶·A¬ÖžÀ¯_õ.);ÄÀ/8]ý˜ü2€3æZ@Ý‹Íõ#` çÌï—šÚ^k’ò@-×Ÿš’pyÑ"¿T¬ŸÒÿò¤n~¨W?²ÿsúàdä7€.ò¯ÆßÚ@V~Ø;HûÕèß‘Èú1ñ™ß ŠŠÉvúw¥rü§dç7€ö2â?.@ÿáêß @~ýÿv %úÀÑê@ÿ!ë¿ H~ýW_ÿ±ëë?vý·è?l~ý‡®¯ÿØõõ<¿þC×¯ÕÿÏW»ý‹JÍü|ªoÝ×¯Òÿ&¿!Ùþ÷ù- çü% ZÊo ÝÖ/ÙZîo½æ/ø€µüÐgý’Ï Zïo=æ¿y
`íüÐaþ‚OÝîo =çÏ@@è,ÿÃ‹@
äßèo ]å/ø" ÀþÐSþ§×VÏo =çO^ÀÇÑõ?PþÙ‚×îo Ýä_x3ˆŒü!ý —üKo’ž_ÿä]ÀÙß úÈ¿ú~Piùõ?Pþ2ïv$ý“ó]ãóë üï
Y_ÿsåßXÀÌÁõ?LþÐ÷Ž¨¯ÿ	û_…Å¿Òÿ(ùãÞ<”üGÉ¯GÎ’ß€GÉ_©¿'€$¿þÝ8S~O ¼¿g€¥½ó<²ËÉú/ âYXù¿½Iü’Ô?tÿ÷úéÿ¸ùïê—Y@ò?Îù]úïŸú]àe©ÇÅò§€>óÇö7€aòÏ÷7€ÁûÀ‰òëß‰õ7€óä×ìüIý`Œþn ©ÜWÿÎUl¿uëÌ Z¨õ<*ôÿþ)ÿg õë7ìß‚4¨¿r.ë—-¶ÿc}ØÖ$“þ3õcûy1¤IýÂ?†×ëÿZ¬ìœëÙŸ¡ýêGõÿÈ?Ò šä¯Þ¿pþq°wþÍg‡ô_¬Óÿ.ÿ08Cÿ¸üKOÕ¿dþ¿¯BÎdónöÈ¿òdð‡üƒ hþË}ý„n&­xþÕ×‚è_®ÿ{þ·äõßzxVþ•þ# lþ˜÷ý3ó? `þ<ç×?¿ÿöY4ë¿ÿ} _†@éþo9Ëæ@JÿÅüú—ïÿ6€€3¼œ)ý§˜þ_†ì_<ÿCÑ¨¯Jøí/0ÿJÿÓ Fÿ¨á‡ïOhÿ—è¿ƒ¨Ëº”?ìq¿´þ'Àêàùú':Rý«ùü¹ýWòëßMû5ú§9CûÕúŸ{ {ÄÿùóçÏ
_ÊFþ­ßÿ‡ìß<þÏOé¯ô¯FÿXóßÔŸ]À_¿žµüSZ~ý+ÕÀgýô|.`æsiýÏ<€}óÿ\ÎŸ±€×	Ì}BÿGûæ¿ÀcþŒ,ZÎ¯e?7úÿµoÿ•üúWËÿs-«LãößùÖÿ³ÿlþFxù¸þUýì¥ÿÒ›ë¿çÕ¿aÿ…çÿë¿gÿ…ü-°_ÿ½nþëô¿ÀÛ‡ôß£ÿ´OÿÏ||@ÿnþ§Ýú?ZÍ¯ÿØý§ójÕv Slÿ?jý3ŒzõßµÿÝ	éÿÇTZ€þÍû?\€þ×üu°ž_ÿý·žùxõ×ÿˆù_žð¹Vq w©Õ#¿þEú.`ö¢„üô¿O~ýõ_Ð¿ŽqówÕ¿Éóf|õï«¹çÿÍ¯«þ÷˜:É¯»þ˜¦nòëß2S!õõ?kÿ°úgÎ?tÿÀü§îßh Û—ãÇ»©³úú×ïÿ¿ÙÂëë_;ÿCýˆÉ¯Ýþ3ù+ ª¾þuûÏæ¯º€Èüúï‘¿Þ äï¨ÿrþÐ|ýúµjþ“÷o1€´üøz£V~ý÷Êÿ#¢~èâóë_­ÿFþ<åX@B~ýwË¿:€¹ü[ÿ4ýçó¯/ %ÿéû×@Nþ•|M€þ§é¿œy Iùõß3ÿâ ¾Æ@þ‘û§Õ¡ÕL¹ý$ô¿ÀkÃÔúú×êÿ£fÿÏ¤‡&ÍþÓNý? €ò‡÷Ï€þƒö/3€i;ä×¿'íó×ï_d Óºî¿ã ¦Q4Ïß°¿_þOÙ¿Á ¦q´Îß¤î ¦q´Îß¶¿G~7µîŸ{`Ô7 OüÙÖ8ÿLÿ…O;`ËÞý?³Sÿi4mó?f¾~äŸþYøÌ‚ðþ^õÓwÿ×úWsŸZ¢ImóOóù_˜?üa`¯ùÑGÿ‡¬ŸHp/ùÐ2ÿCäÒúÇ=LÿÓõ&¨üÛØ?ø¥ òh˜ÿ!rrÿµÜLÿíúþüŸ3€ûƒÉb«ÿû½?±¿ÿ¿+ÚÜý_#¿ßÿÝaÒ?H›ük‘ãûÏ-àé òŸ¸ÿÓž?/˜öýW>ù>p‹ñ‡ÿS1ä¯ÔüÁêç_ÿ¿Fþ¡ÿÐS¬†ýW?=$„Úùß
O©£vþöä3Rÿ½/[—Î•­ÿÞ­S§Ê¿ÒïKÖ¯^òÿï]Æi¨Ÿ ‡üñ3' Š2ùÿ½qûÁ¸ôyP?MÙúÏbÚç,@ýT5ë/`¥~©¤È˜*ÖŸÀzý"H;…U«?3€Íþ©?ˆŸ%ª}xþ£ógý&H¡õ’ß Î”?¥¿œ¦~Z8Mþ´þp’ú©ýàõ“ûÀ9ò'÷7€3Ôøý?¦¿¿~Òý?pšú	wÿÀyê§<þcgÎÝß Ž[?ááèMÙúp4¥ó'ô·€ý”®o ÇR:þ•Gùúihñµò¬|ü+ý¢F}8
ñ_è5â_É5â¿Ðÿ *´%ÿQOÿFþC)TýŽüÃxâs·‚½/
                                                                                                                                               ë÷ß÷¾ìâ÷	'ñë×¯
ŒöñÓFðëªÖE¤uüø	ÀÉâÇnÀ NX?fpÊüá0€SÖ_€$jýÏ›ß êyù7kû¯Ÿ?tV?ñíòªEþ°´ßòIòÿJ+§nþˆD~-ãJË?×>|Éù ‡üëñ·G‘?| á_ÎÈ¢ó‡µ_Ÿ@õþ

W?*þâ²ò òbP1ùSêÏ- EÕŽÿ¼€ÌüÐ^VüÇè?\ýÛdç×ÿpñoßß ŽWÿs úYÿc úYÿm òëÈúúž¿X8bý×è?l}ýÏ¯ÿÐõý 8xþ*ýÿ¼Úíßë\êÖ¯Ñÿ¥¾	#ùþŸù- ûúo÷ ì—ßzÏ_ºÿc~èº~±G€óÀòWíoýæ/öÕþÐiýrÏ[Ío½æ¿yhÝþÐeþROž6û@‡õï_P·¿t˜¿ÔË@ò[@‡ù^Vóêo ÝçÏ}ÍþÐWþçWçä×ÿhùçÞ jè*ÿì»A$çéo =åŸ7ýGÉ¿ðn0‰ùõ?ZþÅ7„JÊÔß :Ê¿ü†`)ùõ?OÿÐÜGÿƒå_}WÈèüú-ÿú»‚Ææ×ÿhù·Þ6.¿þGË¿ýÞÐõýþw¸ü!ïžßÀGËöÞðñ= tÒþWñõ?\þØ?²Eþcå/Ýk ¥ÏîøÎ•£ñ³;¼ËÉú{@œqú—?«¸œ®¿W€(þs¨q6gpÆüÏ¨t.Çwéµÿ·W_šöÛ.ö«Ÿ;6 ¿Ôsé³ÿC~¨å ù ŽËaú@—c|÷7€Jö®¯ÿ®.‡êo ¥]z½ïGÿ.ëo e]z¿ëWÿšöŽ¯ÿ¾öŽ¿öÐŸTW9©þ«Z?ðô/œþÕÕ­ŸÙ¿ño€_^L#©\?è¦>ú¿ÖlµóWé¿6€ïß¿çæh Õógö½øþbýkž.ØmþqP½Êq’û¿Ö_é¿òTÐ/C vþ–ýßë/ö_{*ø—!ûwqõ_æwpÿïý×_	òeÈÔîŸŸ?¸JþÏ<å×¿@ÿ”ã<	ëÿ}£ÿŸ±ýG@ñü÷1ŽR«ÿBþè_| ÑGÈÀ÷õþnôŸÉ?Â jô-wè²ýgNBÿ†ùã\Îo úÇ»t`ê¡ÿlþóàÒ õ`T~ý?ðu€Ñ¿ümõ?ù önñ–AýWûÓÆå@ïø”™þ3ÿªfÿ¥üúwÿªNÿiµÿ¹pðïrú/àå“ú·iÿóÝìÅùëÝÒåÍÈ¯ÿ³ÝêÏ.à£þÊ >ðÕ®ä×¿»úO¸­¿¹€¤¯6éê¯•+ÿÓ ó¯ ™þöÍÿs5…¤ÜüŸz ûÿì ÿò[ë¿CþŸëù›àíãúïÿçFþ¿š½ôZ~ýwë_ oÔ¿ý;õ¿[Àû‡ô¯ëgOýgÞ^þ=úoæ¯Ôÿ‰«¿þú·þösAô¯ÿÔMÿÕüúè¿qß¿þÃõŸúé¿ž_ÿý0¦ÿtbûßàù’åÿã?*ü#Œ{õoÚý™_úŸ¾ÿË/JÐ­þùõ/ØM—ßüõoÖ?üùMóëßªàó‹;oý?&0M½ä×¿mÿ¦òëÚþ!õõ?iÿ°øú·êÿãjê®¾þúÿ¸ÕU|ýë÷¿«_qõÏ¿Õ bê×]@d}ý+÷ŸÍ_o Ñùõ¯Ú!¥Ä××ŸüU’_ÿŠýWògà9žüõ_ÍŸ9€Ç‚Iñèßb iù³š[ÿfý7óoàë›zùõï·ÿ{ý™È¬ãüë¸Íÿ°€bùõï¶ÿCþ»è¡ãükxê³ ýOß&ÿç ä°K~ýÇî˜y _× Œò×êÿ6 ùOÓÿG\ÿ²˜ÆÐ>½þ¯Ðÿìý×o äÑ>Åþ/Ð?Ê©úÀ4Œæù«ö¿@ÿ(§ë_` Ó@Zç/Ð¿úÀ4’ÓõÏÀ4”ÆùÜXû`Ëþý>>ís0¦qþ§Î‹Ÿ™öÀ4šÆý2¿|èŸÅÏ$õÏÀ4ž¶ùŸ^óýÏ«ÇO­žFµþÓ€vìÿ™ÿi ë'²Þ?} ÓˆšæŒüÏí ‚ûo<œ:€iL;öÿ'±ÿúó@¼æ/JÓüÓÂÕ?²ÿúÁ¼ä;ÊûÏàó³òÇØ%ÿKãôþ«¯ð†/qöï?ó¹M+ùã0­Uþ§Æ7ùÃï ø°œßÛ½£ÿë ž>þ& óñ¯ä°[ÿùÏ•x ùc4Ï?“¸lïõ¥EþÂ;õ/q^'°ÿû;òÉ¥~þÍÀ;ô/rN'Ñ¬ÿÖ!Ê|9òÇªœ?$o¹üÃÿ™Ÿ•ó—¬@þxUó7&‚óäùOüþ?{÷’¹­¶k”@nœˆjy Ûs¨¾‡P={$žÿ	ÝóÂH üH¬ÕÚÛrYH>¯RR*•5ìp•üóý>\`qòÿónãŸ–«ù?âïX€ü›•Éÿï‡õ·.@ýíö×ÿ÷ÑêA<¶ß: õ÷(\ÿyëÛÀ†ÿJ¿ößóç`:þÆ¨¿S­ú£XÈ¿{ ùœç,ÿUùŸ°˜×[þ,¬¬ÿÔ9ÿæG˜ÿq kúÀ…òÿ›Ÿß ®S[¸Lþmýà"õ·ö7€kÔßôõŸ\'ÿæþp…ú[¾ÿ·€ËÔßòøŸ\§þóãÿYý-àÜõÇ~þ—9 ¸Vþìþp©ü`‡*[Ó ,à@…ëÀ¹”ŽÿJÿó(ßÀ¹¯ÿJÿÓ(ÿ•þ§Q¡¾Ï¤xû7úŸFùøoä?Âå?É&Ã“¿{êwO}´                                                                                                                                              8»ÿ^}ŽíoCï°€s{y·áOÀ5ÒÛ8 ¸Bü#0€«ÅÏ€\¯~ÖàŠõ3&` Í¿v°Í!—-§¾TtÌ—Î™ùW.À 6×žß båOÏêæ_5 ´È?Ò>kÛòg ëöôjKþÙö+W°µ¿”•eü…lÎŸ3€Õ¡_¹ùóêON`G~w %e]©ñ'&°§¿;€‚Ö_§ÍñÇ&P»¿¬µò*í¬ÿ°€]ùÝ´V þý ê÷Ï¸c£Iý›ìÌŸ1€ºW¦ë Iÿ×Ô½4([¿m¢Õÿ€þÖÿÀîþpÖüúw]_ÿ¾ë¿@ÿ~óëßu}ýû®¯çùË|x{ä?ßvÉ.¤~ýâß |Ô·€“ä/Üÿ&¿œ ~áG€ïó@üüEû?æ·€èõýp˜ìo ±ó—yÈLˆ\¿hÿÑü:ÿ×³ +ö7€°õožZ±¿„Í_æYÀKý- jþ2¿°˜ß ‚æ¿ûE zþ4ÿý/‚Õìo óùEÀuý `þÇß®Ùß âåú]ðÍùWô7€pùK¼ÀÇÔÿ„ùôÖ÷7€hùG^FÿŽò½Ð¶üúŸ1ÿþ—ƒÊêo Áò¿"Ü–üúŸ1ÿÄ+nÈ¯ÿóO½"¤þ}äßùŠ ·Bþ+õÏÿ‹€ô?aþ™W…ÎÌïÀŽ®?ûªà™ùý (ÛÑñ÷¼*üó¿-¦Àü	sò{P®ÀÒ××÷ÀL)‚ç\©ÑKw)„ug]nÿFý)‚Â·IýÕR¥o•ú+¥Êß0õWI1Ô¸iâ/KA}z•b8ú2ô*1q¼?þø£ñéK
bôp|i~]z‘‚˜Ïo•¤ ó@)ˆåüPA
bXÓß ŠK1ëú@a)ˆ•ùõ/,Å0¬ío E¥ F§u)†a}((1~:ýkK1LÏ *K1LOÿºR!úÿx3ô$Å0äõÿ£^ý¾P1gÌþÓÏûÊßÓêå/Ô¿è'€¹'‚Þæ×ÿŠýgŸ~—¿›ÔÉÿZ3ûÔþ°ð‹ ?º@
bîŒeú/üÐcþN‚¨Þé÷Àô?Òì‹|øs~ Ïù»ÀÑÝ?ÍŸ²@ÿ©üúG°pJýkI1Þ,H1,žs÷ &óëÀâ9õ¯#…°â •ûç¿þ RkZïàí­úgÝIõ¯ °ö¬•ú³ý/>€3½ÚCÍþ“ùõÿÕ¾þ³ÿë#ý¯w§­qðþ6ý›uÿûÕlýÉÔ¸XêíÿÝ\ý©èêü7õŸðå ²nî–üú×©ÿ8€§ü«>dÞ^ýïšÿï…ü_îé?õB°úÿn cý—¿È¿Å£ùõ?ºÿ¯œþ_Ør“ÇòëHþÅþÓØ#/¿þúÿjÙÿc7ÿ_ÿ–ßøßÿ‘þ1ïþõ¯LÿÅüú×êsýûë{ý»ûúoÓ¿ßüö¿?‡þWïÿ0€ÇƒØ>¿þ…úÏþè?÷ñß’ôoÓÿk £'‰úá¯±þ³¢~øëß¦ÿÈ Z\€¾óGêÿ4€ùõoÖÿ~CŒüú7ìÿ5aˆ’_ÿ¶ý[ZQ_ÿËö_U_ÿkö__ÿ+ö_ÿêù£ôÿß‡`ñõoÑÿ3~ƒdÆ×¿~þ‡ú5__ÿÚýGòÀh½-ù¯Þ¿Õ ²òïÀXÁMñ¯ŸÿØþõw`cjý[÷ŸÎ¿g %óë_1ÿlÿÿ…È¯Åþ³ù7@þ“ô_È¿q EówÐ¿É 6å×¿óþ› ÿ9ú¯È¯Çä_ÕË ôÏuHÿÿ•èÿïîþ™þ¹ŽÈ¿²ÿÿÖä¿_€üö¿€þ½ô¿É3 ý³ÅÍ?;€ÿ€ü}ö¯0€¡íó×èÿ9 ù³é¯ÓüUú@þ|×è_v CGZç_?€Ãú]¹Fÿ’ºrÆþUï †Î4Î?ÒüŸÝiÝú—¾BôºÓ8ÿ}æé7Ç`èNëþ·•§ß´pèZý‡5ÎÿÔÿ÷›‡·-Zÿrëÿ]ÿs {ûïÀÐ¥¶ù"ÿÀò©ÇûïÀÐ©ƒúßçÏí_ái C¯šæ/Õ¿øó ‡n´ÿèåß eþ’ýÇÈ¿AÃþcßýé´fù¿Ç»Ë_äõàäßâ¨þwÿ¬ `Žü´Ê¿ð!~Lÿ=ïí*õÿ_ýþÙØõÎ.£IþÅÀ%ú{­×MZäØßûº†ý—þ…·Dþmªç_“·äÁÊŸ§vþ·þÕoEFÿg9•Êù›‘«žú}Ê®ß_ñ¶Çùëûw	”ÿŸW[þ ü{ÄÈÿÏ·ì?«þ>eòÿûagýÒØrœî”«?‚uk¸¯¿aêïV´þøV¶/8€ÌÿJß¶×_È?¹€‰ö¥ùŸ`rÃ¾úã˜«_` ™žw¹ñ×åÀBþ}Èü³Ü[›~}þ³óç }{+ë?`EþM4ÿ†þp¡ü[úÀeêoëo —É¿­¿\¤þÖþpú›û[À%êoùþß .SW8}ýÿZÀ•ógÀÎ[üÇ¿¹°€KåÏïo+Yß N§l}8›²ñ_À™ŽÿJÿ)^ß7§R<þ+ýÏ£xüWúŸGñøoô?Âé?È&Ã‘¿{êwO}ÄçfG                                                                                                                                             Øì¿WG‚Có›@·¾ú[ÀÐû , ÷X@ sp///þ”œßËƒ¬?l ×ŠŸ¿¸ZüÌÀ^Ç\¹ùú90€í»p+ò¯^€þváÖÕ_½ Øâ¿äÏ]@õ£_Æ'É¿r0´ûÎ9Ý©ß å¿O¿eùù HþéøëW°%ÿªè¿Þ–ü+â¯Á¶þplþŒøó#Ø˜ß JÊÌ¿!þäjö?îÑ¬“ÉÊ¿¹þØ6çÏ¹ØvQ:²>ÿ¾øÏ¨Ûß ÖiXÿa/M°ãÒtaÝE*Tÿv{òg<¼ïêP¸þ÷ ^Ú ê…éBÙú_hÐ?^ýÏ´èOÀúú÷]ÿc ûúÀyëëßy~ý»®ÿ> ý»­_¢¿œ·¾þç÷@×õ‹÷ÿóÍa×ì:ÚÔ/Üÿ½¾œ'ÑG ¿ó[À9êí—ßÎP¿È 'òÀ	òüðsˆ^¿Ìs@¦û@ðüåúæ7€ØõË<	p®¿„Îÿý4àjý pþ›§Wëo qóë?“ßÂÖ/òk ÃršÿîÁ*ö7€˜ù›õ7€ùKü"èºþ1¿þ}çx)€šý `þ/1¬ío ñòëßwþ§WÒ¿«üûûü9ý·8ºþÈ«éßÐÑõÇ^nS~ý·8:¾þ‡JŒkK~ äKŒLÿRcGÛßÀ¹RcGÛ_ÿL)ˆÑÃåç÷€<)Šñãåç÷ ,)Š‰óeç_@õz.)Œ©fçŸí_ùržMŠcú™ùý
Èz)Ž™SæÕŸ@¥kxb)ÙƒfÕ@ù«w~)Ž¥£fÄ#þ²ÈŠã®nÿAûy)’£/F‡R$G_Œþ¤HŽ¾J‘}1ú“"9úbt(ErôÅèOŠdô„|h~iº™«oU¤@†¥þP\
d1¿”–Vô7€²R«ò@Y)Œñóé_UŠcm((…1q@ýkJaëû@1)ŒFýgŸ	òãÇÐ™FNÿ­˜}ØCGRCýþóÏýÌßÕ Ryý7`áiÀßù{Z@ŠbæŒeú/üÀ.û§0fYä`á·@îów3€Æ!ýÿœìßÉ RCvÿ?
äÿs2¿þmÍžrÿ?³ûw1€Åü1÷ßè?*Eqpÿ‘ü] ±tÎÝÐT
bcÿõÐL
b8¸ÿhþbXqÒ½ÐL
aÍIõ¯!E°î¨;°%ÿõXyÔ:w }÷O¬>l•;€÷·é¾~;€…üú7mÿëS³;€¥þ@ˆêOõ'Püàãú·ò÷‡¥üYX}s'òëß¸þØò`gÿ‰§Îä×¿Ný§<åÏ@ÆÎýð¿vÿ#óß`$ÿúOY·ù9¿þgê¿ÿ—êëLþ¿—ò¯ÀÞ«0—_ÿjù7÷/ýj@úŸ­ÿÍ
\ýîÿ+»Iú×7lùðo3€Ùüúë]Gö¿=Ç¡÷ÿúÑÿîq?üõ¯Óÿá ú_½ÿÝ žr\ÿ…üú—ê3€çƒøð¿~ÿÏŒžÄ‡ÿµû/=Ï/h~ýõ@‹ ”þO‘_ÿfý×<ÿ³y~ýöÿ^À¤¾þmû·´*ÿÅû·þðdñ/Ÿ¿ÏþkãëÁþñõ¿Zÿ¼øúŸµÿhºìøúŸ²ÿx¿-õ/Ÿ¿]ÿÙSüïC‰[´©³þÇõÿŒ_fEóë_¿ÿ}þ½(›ÿúý›`mý}ÿ\ýÇòï@áüú’ó Jç×¿nÿ©ü[ ÿUúÿ/Bþ.ú7@fþMÐ‹˜ù#ôº´ÿ†è¦þùõoå˜ü‹ýó ÿ&úë0¿þ­\¥¿ý^ªÿÁw C7ŽÈ¾ÿÐ‘«ô/9€¡#ä/ÔÿÿþïÿþïæÿÊßWÿ×ü·Ð›úO<íoKÿ
úr@þÛÒãoV÷ÿ€þÛÐÿ{ oÙÒ¿Ð †Þöã|åWÿú—r@ÿ÷ì;vý9 ÿêò9ùõßèˆþ%<ö/0€¡Kçÿý¦ÀíÿŒýßó—€þEÈ` C¯ìÿ¿À äßè°üeûïÀÐ1ý»Î_z Ãùú};ªÑ¯ÿö`èÜAù£ô/ñÎÏí þ¿ÿ%ÿfÇäÿX@©!ÿvGõ/IþÎŸßK}îrþü[ú|âHÎßß=ïrúüÙý>o0gÏïeþ÷:yþ¼}ÖˆNž?g GŸ4¨sç÷W<ívêüþ‚·ÎœÝ Ž>ct!êÿó%ïÏ©¿_¡üÿ~ÚS¿ð òÒ¥’õdÆÏ^€üeÔ©¿4çöó_aiÃÖü“˜ˆ_h y7žW›â/çÀLýÈ¼á|Êm¿¦þXÿùü™_Š_ÖÚôkó?`)ÿödý9öú·VÿÌï‰œÿq +òÀ…êoêo ×É¿©¿\¥þÆþp•üûÀ5êoîo—¨¿åû?¸Jü}ý-àôõ7<þk—ÎŸÛßÎ[üÇ¿Ù°€+åß2 8VÉú›úÀ‘JÆ¥ÿ¹”­o gS6þ+ýÏ¤püWúŸIáø¯ô?“Âñßè"…Û¿‘ÿTJ¦ÿ ÷äïžúˆÏã
Ž>                                                                                                                                             ë¿OG„Có›@—îú[@ïý- 7Ð¹§X@g wÐ=(ê„—Ñ J9ø"¾|ËûƒPÀ±—ð¦ý–ÀNÇ^À±ú™0€Ž½®Ÿ5ý¯XÃêž÷jþŸ?cúŸ+ÿÊúy÷u|-gÉŸµ€º‡¾’=ùÓ³ªý3 bþ‘öf—ß‚äŸ¿~Ùùõ/kKþ•ñ×Œ ¿¿›?3þü6ä7€’róo¬?µMýà ü»âM`[~ý‹ÉÉ_ þã6ö7€RÖç/Tÿ~úlmþ‚õo°5¿”rDýïè´5ù‹×ÿÀöþÐJúŸÐ¿Óúú÷]ÿc ;úÀ©ëëßy~ý»®ÿ>€=ýàÔõõï»¾þ}×÷@ßõ÷÷7€3×/ÜÿÏw‡]¸kh™÷#€/Oõ-à<õKö¿Éo'©_°ÿ}~8Eý‚?~êo 'È¿¿ÿËT~ˆ_¿Às€fú[@øü¥úç7€àõ‹=	tª¿ÄÎ_¿¿DÎÿý[ Õú@àü-ú[@Øúú@Ôü¥~l¡¿Íßª¿ÄÌû{À;ú/æ×Tê¦¿Œ8:¾þ‡JÜž§jx”"¸=Ðæüî ¶H!ÜžHÿ†R·GÒ¿ÄÝ¡¶æ×?WŠâîTú·’¢¸?–þm¤0îÏµ1¿þyR'ÛØß ²¤8N¶1¿þ9R$g«Ô¿õ%Ž,…òxºMù=$C
åéx›ò{Øj)–Bý=t¥Ìó	7åŸ@£{)˜‘#nÊ?9€õ<R4c‡Ü”ß/®‘‚™8æ–üÏ¨xO*E3uÐ-õßh?'E3yÒù™“¢™;¬úÅ¥hæ+~Y)šgÖ¾œÍÑ¤/)š£/HgR0G_Î¤`Ž¾½IÁ}=z“b9úrô&Å2uÌ?Þ´½4]H¡Ìç·€âR(‹ù °ÉŠüûà§€·R Cýþžp/2¬ë¿c žò(Å1¬í¿y žô$Å±¾ÿ¶,>ðÇ«¡+)Ž!£ÿ–,=	ô­~oHqTî¿ô$à¯ü] …1dõÿ£Dþ?Çó÷4€Ffÿ?jöïf )ŽÜþìÏ3€ûüÝàèèß†ìþYÐT
cCÿ?ÊõÌßË RKÕ¿†ÆÒIwÞdçïc )Ša[ÿÕÐT
bØÚç fòëßÐP} ùý{@ŠaØÑå ô‘bvõ_7€üüú7²ò°0ßÿúH»û¯@æWÿú7²þ´Å°_ÿöõýÚÔÍ ²?ü/ß?Xü__šÜ,æ¿ü "D©ßh ŸÿTÿvþ~³˜j;û?ù_ÿ¶õGð˜â`oÿ¯¬Ê¯¥üOxÊŸ;€íAÿò?`$æ ¶_ýÈ¿¹ÿþg‚­Ï¯µü+úO>P2¿þúç_ÿHP­üïdþ}ýË½„þÇôvöUâ•@ô?¤ÿ°¦ÿâ jç×_ÿkÙ˜É¿õþ¿z~ý«ô:ˆþ×ïÿ=€!Lÿ}÷o9€×w7Qÿ°þ‹ùõ/ÚZÐý¯Ü9¿þú¯ÿùoÓüú7€ùõoÖÿq !òëß®ÿÝbÔ¿zþ`ý›YY_ÿKö_]_ÿëõÏˆ¯ÿåúçÕ¿~ÿ@ ¬ýüí?/;¾þ§ì?–pK{ýÏ˜kiý¯Ð¿lýò_«áüúŸªéú]ôo7€Ú7DþMä×ÿýåïº…üôo5€º7BÿÍ®ßÝßý+ä×_ÿ>œ?¿»ÿ=ô×ÿäýË`èÈùóë¿‡þ]ç¿B?ùßãüù=ï§óþe0ôEÿ®ó×@“› ßý`èÏùóëßyÿbztþüúwÞ¿Ð †>?¿þgîÿûÕÎÛ ÿ‡æ«¿{ òŸ´ÿgþã0ôë¸ü7ý÷@þ=ëÿ;Jÿ¡kGå/×ï †¾õÞèÝ1ùË}þß7€ïú
ï¿÷È¿Ë1ùK}ÿ¯ÿnÇä/ôøß+ù÷9ª)òïtîü[ûtÚˆÎÝã Ž:mD§Î¿­ÿa§éÌù7àÀÓÆtâüúyÚ ZçÿëËþ³«_ÀQù@þ"æ/Û?k ûßÛu5ËÛ¿ÄÁÕ/£Uþ²ŸÿýõŽå´©Óìÿ|Èøï©_J¡üÿÞy~ûTþÏö¹¿˜âõÇ‡ð”ÿ>}îÔ/gç=ÿdýñ»‚éøÅîr/ ÛëÏçŸÀdþÈ¾ñ¼Ú1ÿØ fêïÿ20ûvó-/ýªü#ø§Ú òn-{­¨ÿÜ!Ö n'Pò†Q,ÿã óg€àùóûÀ•òoèo×©¿­¿\¥þÆþp•üû[À5êoïoˆ¿áû¸Pýý-àäõ³ÿ7+Õûù_v¸R~è<ÿ¦XÀ¡JÖ×ÿ|
Æe 'S2þ+ýÏ¥hüWúŸJÙø¯ô?•²ñßè&…ã¿’ÿTŠ¶§ÿ¹”+ÿIþî©úŒŽàè3                                                                                                                                             þ{sô)80þ‡£Ã¡ù- ÷ü0ôÞß :ïo1€Ú‚_T¨éÕ j9Í%5€
ÎuA ¬3^ÎÓ8¬3ÖÿpÂ#G¢þË·CÞ·Ô¿io´¾´ócß9¼þR~¨éðú+ò[@ïù- `þô¬^~¨`{ý‘ö›v°>¿DÉ¿Ð>g9ù ´Mù××_1‚¼þptþìøó#ÈÌo Çæß\jÙý œÌü;ãM ?¿”¿HýÇè œüÅêß`K(d}þ’õï ÿÖæ/]ÿ{ ›ò@!ëòW¨ÿ5 ýt\ýý ‘Zõ? §õ? ¯õ÷õ7€³××¿ïúïØÜß Î^_ÿ¾ëëßwýýàäõw~¨ÿ¹ãëßyý¢ýÿüpÔÅ;½öõ÷öy®o'ª¿ó' 7ýoó[ÀYêWëoçÈ¿·ÿËT~8CýRýGò[Àòï|
È|ˆ^¿rˆžwÿ—ùþ;ÿÎç ôŸÎo ¡ë7èo ÓRý-`J
 E•"ø<Œþ­¥šô7€g)†6ýàQŠâã<ú·•¢ø<PÝþp/…ñy"ýJq|IÿvR _‡Úž_ÿL)¯CéßJ
åëXÛûû GŠåë\ú·‘bù:×öüúgHÁ|ŸLÿR0%úû	Ðj)š›³mÎ¯ÿZ)œÛÓÕêÄ•Ž)Åssº­ù—pÀ…Ž)t{¾Íý=t•ÐÝ·æ÷ð5RD…úO éŽ-ôpÄÍùýØ¢Ñã!7ç@›+{)¢§Snïïe f¥žÏ¹=ÿ+ù§¤ˆÆº'ÿ+ùÇ¤Fº/?£RDg•¿¸ÑôqÕ/,4{`õ‹Jñ,žYýbR<ë¾9¾/ÿo¥pêÞ^ß ÞIáÔ½½¸—¢©{s=ø ÅRùÖzøAŠ¥îõ ')”º·ÕO Ÿ¥HêÞT?~–"©|[õ–©|S=hD
¤u~ýCõožÿ±ÿ?~}Iq÷­ßÝR«ÎûÇ›BùÿËß× Rù·,`©ÿwþ®ptõoYùóÓ¿Ÿ¤02óg/`¡ÿ]þ~ÂÈïŸµ€Ñüú§(†-ýÿ(Öÿ!7HQlëŸ± ýÇ¤ †­ýW /'HQlï¿vúHA{ú¯[@f~ývöß8€Ùþ] …0ìîÿÇ®þ£ùõo%ã¼Eðõ†nû§†"ýW /¿þmä¸Ü †¥þ \ý_¯ªõÿÝ©üú7®ÿi;ð¹€›¢ÿ±ÙŸêÏ.`oÿ'“ùõo•þ9ÿ–¥û_ ­ëÿýnEþ(žÿòýÊ?2€çüùØvôoŸÿy YýÇP>¿þµòÿ½"æw/þ§ìÿ8€¡F~ýK¦ûÿÊï¿ë©à+óë_ÒßÙý—°ŸþÇ|ü1ú/ä×¿Rÿ!Fÿ¥üú×éÿtý{èÿ1€‘sÓ1¿þeûO
š_ÿ÷_‘_ÿFý7<þÓ"¿þ‡ö?<¿þ­úgþü§Q~ý›õÏùù³üú·ë¿þù?íò_¾¨Ü- B}ýÛöÿ^À#¿þû×—Sÿúù{ëŸU_ÿ‹õÏ¬¯ÿ¥òg××ÿBý7Ôï Ó„n­ÿ5ú—j¯Ëþ½‰Ô¾“üú¿Çß»€ÂñõoÕÿ&ÿÖ”oßMÿvXSÓêÔï$ÿÁýŸóç R}ý[ôËŸ7€jùõ¯ß<Î äß-^þŒèÉþ« ÿyûÏä×¿óþk ÿ~óëßyÿ•Ðÿ¬ýÿŠÜèÊùõ#dÿ#0ôåˆþ‹ùõo§}þbýk`èþú·Í_®ùýiß¿Ð×ÿú:ºÿÈ?]xý÷kžÿ&õè?Ï8»ü§ì_èIß¥0ô©}þräï»É½:qþ‚ý‡nÝÿ÷ïßÛ/ÿ~‡æÿýnëÙõ?wÿüG`èZ€ü› Gå/Ð¿È †ÎEèàÀÆ÷|!å/ññ¿ ›ßó…èß·còøúÿ v¼ç9¨ÿÞïÿ_É_Â1ù÷>þ÷FþÊ_€þEœ¶ÿŽ4?jdgÍ¿½û£†vXþ½O’¿ŒÖù·>õ÷‘ü…šÇ=€ü¥4Ì_°ÿ†ìxg—Ö.±»ÿý÷¼¯«k•¿ÈK ’¿œVùï°óÐêÔ¦~©—€#QMòOÿ2Ø«^­ÿO©_V©úÿŽø~ëHþ­=±úe¨?ÿa÷ùŸâç,@þÒvÞñOç¿½Xª_j[.@÷¶ÇŸ­?:€éüû?	l¹í¼Û1ÿó æòg|%¨~å×åÀ|ÿíßäÝNJXQÿ±ÿRþœ|n ì¢hþìþy xþ‡¬èo Wª¿¡¿\)ÿ–þp™úÛú[ÀUêoío×¨Ÿÿõ¿\'~þã?&p©ú™ÿZÀµêü ({ p¥üú[À…òÀ)«o gT°¾þ'T.þ+8›‚ñ_é2%ã¿ÒÿdJÆ£ÿ©mÿFþS)Úþþ§R´ý;ùO¦\úOòwO|¦Fpô±hJz                                                                                                                                             8«ÿÞ}
ŒÿáèÃpd}zÏo½ç7€J^Ýñþ±Îx	A¯îTÿ@G¼‚¸WWÿúB_]¨,üÅÕ¿¢S\Û3œñœÎseOqÈ“9O}*P¿kâ÷,Nû—W¾ÿ.Å¨ÿòè¨ƒô&Büçú&ÐH€øõM  õçò›@]ñë[@ÐüéI­ü-ÿsûÍKXÕßå_ŠŸ5ƒ•ù ‚-õ×Ç_µ‚Õù BþõçGÑß Î¿=þärò@Y™ùw×[€þ'É_¤þÓòò@I9ù‹ÕX@n8"ÑúwÐÿ8GÕ¿@v~h­Býïèßeý¯lèo ¨ÿ9 ý;­¿£¿\ þÇ ôïµþŽþpþøúw^ÿ} ÛúÀùãëßwü]ýàôñõï¼¾þ]Çß×ÿi þùç1×îüª_°ÿŸ_»ˆ§uXý}ý_Æê[À‰ê—êŸßN“Ç€7ýŸòÀ9êïìÿ2ÝßN‘¿HÿÑü°ìèøuû[À‚À¾þ/óý`NŠ n˜”bx;Ë¾þ3ù`J
¢v•¢ØÙÿe±¿ŒHaÔïo OR õûÀ£ÈÛôo)EÒ ¿ÜI¡¼IÿvR,-úÀËû¡vä×?KŠæíTú7’ÂÙÝß R8ïçÒ¿‰ÏûÁôo"Åó~0ý[H½m{~ýWKíîïà•RH‡Ó¿ºÒÇá¶ç÷€uRLŸÇÓ¿²Sþž¶B
êë€ÛóÏàˆ‹P
êû„;ú{ø’Õ÷wä÷[@KRT7gÜÓr m/sT)¬›CîÉ?5€–9°ÕÝ)wõ÷{àÓRX÷çÜ“| m®ot)ªÇƒîÉï•@&¥ †²ý½Ð¸ÔÈQwå×\Šiô¬{ò? Ú%=“ÓÄi÷ä×L
iò¸;òë?&4{àbùõ?cþ™,ü1ýG¤pÖœzK~ýÇ¤`V<·þÈã?;/Ý¤`²Ÿ_ÿq)–Š·ô9¿þÁúW½¥úH‘Ô½©úH‘´Î¯¨þuo©þcRíóëŸâŽïÿãÇÐ™Gå[ºœÿÇ»¡'GGÿ6Ýÿ#_HaÝÿ+WHQ÷¿É¯ÿªßÒõù;@ŠbÕ¿›¤(2ÏýÇ»œ?’“_ÿÆ¶åÏ›€þÏRÛógL #7H1ìÊ¿zú?J1{û¯[@F~ý
ôÏÀ0ß¿¤†"ý×}X_ÿV†–ýßpÿOFóë6ÿÎ<Ñ?Jý_ïÚöÏßÅ BÅÿ¬¿fú¥üCýåì?•_ÿVåGò/. ~~ýÍŸý) tþÐ¾þßÿý÷ªü¹_n¼ú·ÌÿZt ¿6à{C…üú7ëÿkkÿfóë_:fÿ_Çæ×¿Rÿµù›_ý/®uÿ×Œã˜þKùõ/žÂ!ýóëåþËù;@¿ýåoÞ?ê¿&¿þ­ú!óëÕþëòëß¬ÿ¶ŸÿTÎ¯»þc8¸¾þ-ûç>ÿ£A~ý[öÀáõõoÛ?ëùŸ-òëß¸ÿç†õ;ÈæÀ&2óë©þ¹õõ¿Rÿüúú·ëÿ×›Xõ»Èß´ÿlüòØ]ÿÆýoë—YÀÞî]õo9€5ù÷ Txý›õÎŸ·€ÂÉûËhÿÑúëP1¾þæ_9 ù‹ˆØÿ¯Ãóë_½ÿLþ¨œ_ÿÚýgó/@þRBæ×¿óþKÿÔýóëßyÿ#0t%f~ý;ï¿0 ùÏÛU~ý[i¿Hÿzz´ÿQw Coôï:ƒlÊÐ'€¡?úw¿þ ªô¯3€¡GMó‡î?téœý+`èTËü…¾ÿ×è½ñÝj™d #ÿtÍ©õ¿Bÿñ7¬:¶ü¥´Ì?×9+ÙþCÏÚöÿÀÄ[Ö[ÿRšæÌüûÍ÷›VŸZþ“ö¿õ^ÿ{ 9ô/å°üßý7@þRä?ð`Ã{¾ý;wLþýË`Ë;¾œcòïûü_f ›ÞïõÝÛ©å/æü_Øzjý‹9$ÿ«Íñ½Ô[QGõÿ’óèï'ùË94ÞO¾É_NÛü›ŸûqGþ‚Zæ/Ôû ²ßSæßýŸä/¨]þÑl:³ü%5Ë?õdÀlêÕ,ÿ–ç}Ž’¿¬Vù‹ý ò—Õ*ÿí vXýÂÚÔÿÀÞóª_Z“ú¯Êüí/òW¬þ¿#¦þÝž¬<­úTŠ?¹€çúë' ~;ï÷'ë`"‰lºñ¼ÙüI®þÈ ¦ó¯þ4 ~%¹éWäÀlþÕ_<M û¦RÆbþ‡üSh o”_?³æŸÿß¼üp­úùý-àRù7ô·€ëÔßÖß ®Rc¸Hýì¯ÿMàRõ÷ô·€ÓÇÏ|üÏ.Vÿé Ù°€3×Ïûù\=ÿ¦XÀuò@çù7õ7€ƒ•ŠÿJÿó)ÿ•þ§S¬ýýÏ¦`ü7úŸLÉø¯ô?—¢ñßè.ÓÿTJ¦ÿ ÿÉ”KÿI}æFpôÑhEz                                                                                                                                              8—ÿ¾}ŒozÌoÕEºÌ#ù£í’‚]çñüvIñ®óTÿÃvA¯ódÿ£v91/³þD½Êú·ù"Ç=ÙeDÎï!€êb×ÿ÷d§?>‰ß7å»§;pœ—wGƒãÚ;ú@Yß†Þë[@lé^üpŠô»–0[ßÎ?{‹ýà”ñWÎ`9¿œºþüVå7€“×ŸÜÀÊüpúøãÐ¿£úÏXß .QÿqýàõïÓß ®‘ÿf Yùõ¿Fý›äõ7€kÔÿ@f¸FýÏäæ×ÿ"õ?Ýß .Rk¸D|ýûŽÿ1€ýàñõï9ýžþp…øúwÝþc ›úÀ%êoïo ˆ¯çõwô¿ÀŸ_»ŽçtlýRý¿ó[À™êê—ßÖJéÌý_&ó[À*é"ýGòÀ¢”ÎÞÿe®¿ÌK—é?žßf¥+ô™ïo “Rý`Bê¤¿ŒJlýàWÿ¹ü0&]¦ÿËbx’ºêo R,ú·•¢©Ýß î¤hö~¨ŽÔ_ø–âÑ¿¡Ôcø”ÒÅðz£ô_+…¤+)$ýI1½mG~ý×J1½MÿúRT;û{hÕëáô¯.Eõz8ýkKa½o{~?\%…µ»¿ç -Kq½PÿªR\ïÜ‘a G]òHR`GÜÓß“€¤ÀJô÷[ óR`GÜ•_ÿY)²ÏCîêï× ç¤À¾¹+ÿô _êˆRdßÇÔ¿’ØÍ1wå÷: “R`wÕ¿Š×ýAwå×J
ëá »òë?!Eõ|Ô]ýGPýêÆ—‚9ê®üúK!Ÿµt~ýcæŸ:ìŽüúKñÌœVÿÒR4óÇÝœ_ÿQ)˜ÅoÍïË¿Q)”UGÞ–_ÿQ)’µ‡.•_ÿIÆ¹³óë?*’wò¼úîþÇ¥8²Ïž•_ÿQ)Ž§___ÿq)Œ­·`U|Ì„£««}Kõ‘Â¨[ûÿx5t%EÑà¶.ä«ßÛ R‡÷ÿÌß× R-nëºÿ¾‚hrcWæ×¿¹F·vÍ½WH1´º¹ë>üõo­ÙíýÎ¯Ã¤ZÞâÑÇ}óëßÒÑAÿCí½üñGéüÝàùwàG·ý¯pçÿÇîèÞúî Æòë@ý_Ÿ2oE…ü PüïúP>¿þíÊ?ço8 ýÄÊßlSùõ?8ÿ¯cóëpþ&˜Î¯ÿÑù`&’ÿ¨þ³ùõoÖ"íÌç×ÿâýòëß*ÿ1ý—òëéþ‹ùõ¿rÿåüú_¸ÿŠüú_·ÿšüú7ëßøûÿUõõ¿jÿ•ùõo×b ‡æï¡ãLŸ£YþÕõõoÙˆ—_ÿ–ýŸpp}ýÛö\@…+èþ·Ï¯ûþ5eÖ×ÿRý³ëëß´ÿ_«ßIÿ¶?Â__âÄï%Óþõ/`cwý[ö¿¯_j;Óëßªÿsþ•˜LU"}Gùí?–ÕJUÖ¿á Öæ_@ýüú×ï?™q ò_ ÿLþ¥è_ÐAýÿŠÜèÈ1ùúÏ@ÿÓ÷_È?? ùK:¢ÿb~ý›9 ÿŠþsÿäýWä×¿™˜ýÀÐ›æùõï»ÿ_‘ûý‰Ùÿ ýiœ?tÿ¡Cû¯Ì¯3§ë_m C—šæ_Ýÿˆ;€¡O§ë_i C§Zæ×?žýçìÃ¿¤†ùãöúu¾þ0t¬]þÿ¼’ÿBýÇþñÒ‘õ/©]þéÐYùK÷úÖ°ÿô/}fõ/;€¡wíò|œÿþýû÷Ã›–O¬ÿIûßà³þÇ 2ò@ÑKyNíò?dþÈ?€5'–¿¨vù'úÿÎì_n å.â‰5ìÿ™yxê÷–Eò—Ô.ÿtÿ¿è_æê]@³üwØüù¿Ô 
\¹k8¦ÿ× nþyË;€î*šå¿ÿ8Éßî`÷E»’Vù'>Î³ÿ{'Qò ?=.¸‚üeµÉ?6€Ûú­°ý:]V›üû^âŽüeµé¿ë%`îÉ_V“üÈ:°üe5©ÿnüÍýsßKOZåµ+ý;õKk—?ÿAßò×¬þ«}õýí^U´Ë_€üå§¾¿Ù·’³Ô¥~åãÿûiê_øçÎúÿ°øuˆÿï„Åúy#P¿’*ñG0šýÄ¯gÛþ\ýçLæß~'y+)j!ÿÃ æòg}-À9êçõ·€Ëåÿ7+¿\¬þý Vô·€kÕÏïo—Ê¿¡¿\§þ¦þp™úû[ÀEêoîo—¨Ÿùý¿\«þ¾þpöú9ÿÀåêïïoWÊo gU¦¾ôžK8\©úî Î©Tü7úŸN©ôïô?›‚ñ_é6ã¿Ñÿ\J¶'ÿ¹LÿAþs)˜þƒü'S.ýõ™ÁÑ§¢9Ý                                                                                                                                              ‚ûïÖÑ‡éIˆ~W?Ä‰zå‚?×·€úâ\ðñþPQ¤>‘ß ª‰u½'û@ÿ¥¿ÔíbëßT¼‹­C/uÄ3]UÌ+òP—úB‡<ÔÅ„O3Ò  m¼¼}òrëèÃ°FúP8¾	œ¦ü˜"õMàœñ·,a*¿œ9þêLç·€ÓÇ_Ál~¸Dý™	,ä·€‹ÔŸXÀr~¸Hý±	¬Éo —©ÿ4€uýà*õ°2¿\§þÝ V÷7€ëäÿÀúüú_§þ÷ 2úÀuê §¿\§þGÿ¬üpúÐ¿ÓøÛúÀUâ ·¿\#½þ=‡ÿêŸß ®‘~{¸Fü·léo ×ˆ¯çõ·ö7€KÄ/×ÿÏOÇ\ÈSJé¼ý_Æë[ÀzéÔý_¦ò[À*)]¦ÿc~X–Nßÿe&¿ÌKéêý`FºDÿ—¹ü0-õÑß Æ¥P¶ý `U“.Óÿ} úgIõ7€')œýçòÀ“ÔW¸—.Õÿe¹¿ÜJíü@ÿõR‡ýà[
IÿFR—ýàSŠiß#€ú¯•‚Úù°þ+¥ ôo"¥ëàõvù°N
KÿR\ú7âÚò;À_ù}°JŠLÿêÒuûûÀ
)]ðÀÇm“QºrÏY”®ØÿëÖé¿ ÅözÄ=ýçpàu"ÅözDý+J±½qO~Ož—b{?ä®þ~`NŠ­nÿc.y$)¶SîÊ¯ÿŒ[‘þ~xZ
íó”ûòë?)…6TîßújÇ“"û>æ¾üúOI‘ÅúO`è]Šëîœ;ó{ 	)ª‡sê_EŠéù ;óë?.E4vPý«HáŒŸso~/9.3uÎ½ùõ•b™<çîýG¥P¦Ï¹;ÿhÿZWõ<R$5óë?*Å1sÊý÷þúJÔÍïo“â¨œ_ÿ1)Œ2ùçþÞ/ùŸ]ýKýüúHQÐ¿Âå<ÄÌKå@ékyF)ˆú—¾”g”‚šô¿ÀÓ¼º’b˜?d±ü·˜ÈßÙ RÍú.`˜Ìß× RK§,ÙÂwþ®"X>fõþ·ùõolÍAõ¯"°î¤Uûßåïh )€µg­Øÿ!¿þó¯@™üú¬¿f C¡þÝàTù—P*¿þÇÔÿõfæ¼5úä×ÿ°øó¨Ð,¿þ­ãßÕŸY@ñþ£ùõoÿ9ÿ¦ËßË ¢ÔÉ¿e åòëxþ©4É¯ËüYý§P0¿þÇçÏ@Éüúî?>€¢ùõú êùõÐ?c …ów2€ÓöÀP<¿þ±ûßL`¨P_ÿøý·[‘_ÿëö_“_ÿvý³¿ÿk_ÿ«ö_—_ÿ†ý§p\}ý[æÏ{ü¿I~ý[öÏùùo“ú}äÓýó?šÔ×¿uÿ§›¿“þ°p˜šùóêëDÿ5O oS_ÿcò×‘_¿—üQúÿõ×_âëß²ÿ__‚´×¿aÿïú9XN´=}Wý[`9ÿÊ,eÚÙ¾§üÇöª¿j ³±ö·×¿Uÿ±üË(SXþÃûOä_€þEÅË¿0 ý/Ñ&ÿì ä/Kÿ¾û·@Nþ¹È…þùÀÐý»Îßh ™ùg aúëß¶ÿŠüÓ¿´Öù÷õ¯<€¡?úw¿Å òóô	`èQÛü{û×ÀÐ%ýûî_{ CÙþõ0tªiÿ•ù¸ºu®þµ0t«aþ¸ý‡~¬k—?lÿ¡gûÏžWþÂšå/ðýŸþåµË_¤ñ½;²ÿè?Ÿ?®ü…5ËÿÔâçÕ¿°fý§;Ö¿è…<©fùŸûÿ~óð–¥óê_X«üO™õ¿}ËÒqå/íàþw ‹Ç•¿°Vù+oì_j E¯á©5Ê¯Tmòºÿ/4€‚—ïôŽéÿýõfÿ(ué®¡IþçoóFò7º(tÝ.£EþéÌ¹ýw`çÕº ù'3ox5@ùK«Ÿ²óý?¯°óJ]Tõü%ûïÀ®«taµóO>Î¿¥ÿöl¾>—W;ÿä‹>oé¿u [.L7ªÖÿ=÷¶œ×W¿¼ºù“¿‚óäÏÀA§<™ÓÔ%§©ïov­ä,õý½ÞÕœ"þñë8Eü7ê×²?þ¿ï¾ÿ×Çÿ{öÏˆµïEûz¶Üÿ;mUýÈ8%uÌÔÀtþŒp–ú˜Ío×«ŸÙß.Vÿ¾ÿr~¸Xþ»¬éo—ª¿¡¿\)ÿ†þpúÛúÀUêoìo©¿¹¿\¢~î÷ÿp©ú»ú[ÀÅò@gõw÷·€Kå7€ÎóoÀ·•'…êÀI•ªïkÀs*ÿ•œO¡ôïô?rñßÈ6åÚ¿Ñÿl
Æ#ÿÉ”KÿIþs)˜þƒügS,ýõy¥<                                                                                                                                               D÷ß«£Ñí…?öêÁŽ¼òÿE8ƒ´ãºå·€ú‚\ö‰üPÙÑû@MQ.út~¨è¿3ô7€Z]qýè‚Ë€H×[ÿö‚]lù[{©Ãè²âµ    Kvü'_^<"Ûï˜ÂË­z'§Uü¬ÜÕ7ëÄ_µçúp¥úÏo—ª?½€Éüp©ú˜Ëo ×ª?2€ùüp­úOXÊo «?€åüpµü·XÕß .Uÿf ëòÀµê`m¸Tý¯¬îo —ªÿÑ}~ý/Uÿc ýàBí·ô7€Ë¤ÿìŸ•ß NŸüq ™ýà*é7ö7€ËÄßÖß ®c(# ÿQR:mÿ‘üùéˆKyB)ŠMý_¦ê[À:éJýïê[À²”ÎÞÿe¶¿ÌJèÿ2—ß æ¤kõËo ÓÒ5ú¿Ì÷7€	©“þ0*]¦ÿË|~“:êo OR@;?è¿^ŠhçÀLx:ëo wRHú7’úëo 7RPCÅþð%¥KÞè¿RŠJÿRŸýàCŠk× ú¯’Ó¿¾Ôkx•"Ó¿ºÙ¶ç€¯| @ÿèùw>Lÿe)¶]ÏÖYJWüðqãô_’‚Ó¿®téþ~¸$§U)ºüWºÍï9 Rtú×”ºîä•!E÷zÈ=ù=	|VŠîõú×’¢{;¥þµ¤èÞN¹+¿ßœ–¢ªöz—‚û8¦þ•¤ØÊä÷" SRh_ÇÔ¿’ØÍ1wæ×JŠêî”{?ü½Ð„Óã1÷æ×B
èù”»?üõŸ¢;dÑ×–ÿVŠe¨•_ÿQ)”¡P~ý×J‘ÔÌïE€G¥8†bùõ_-…Q9¿•Â(—_ÿÕRÕó? âu=‹£«™8Ÿþu¥ JæŸþËßä”‚˜8^Ùü÷¨tEÏ%Å04ê3€*—ótRC³þ_¨p-Ï(…0}¾Òù¹—"‚ôÿñcèM
`ö€Íúÿx7t%E0ÄFý?òw6€ÀÒ›ôÿÊß× N?{ ;óë,î væ×?ZþÌìÌßÕ Î‘?o {óë­~Þ ²/‚þaêÿúõkâ¤õú?æ×ÿ˜ú¿¾µYþŽ'þmýñTê?’_ÿæõó- Jÿ±üú·®?’ó öç×?Bþýä×?Bþ(_ÿùŸP¸ÿTþ~p²þ+P$¿þ×ï?S_ÿù7<P&¿þ1úg P~ýÏÙ¿T~ýÃöŸ@±üú·ìŸõÀô ÊÕ×?Hÿ‰Sïª¿&¿þ-óg÷ÀP6¿þMûO`æä›Ú¯¬¯ŒþåoïÊüú·í?1€£êëßºÿºŸÿ·ª¯óþ#8®¾þíó¯x`³úÝäÕÿnGÖ×ÿ¨þ5dÇï©ÓÌã¯8íõoÜÿ¯O1Úw•ÿøþ_õW/`M¥ñõoØÿ®þº,—Ú_ÿó/`)Öîø]åo9€UùP ¯þ!úÖ_€ü…–²ÿì ô/í¨þ“ùg ÿEúÏäŸ€ü¥Ì?3 ý‹Ó¿ëümúçåŸ€þWè¿˜r ú—§×ù[ô²û4€¡G­ûÿ¶ÿÐ%ýõo˜]ÿ#0tªmÿuùõo§iþý+`è–þú·Ê¿·µÓ¿ëü5û?½¯¿b~zv¦þu0ô­]þÝ÷ÿúwÞ¿Æ †Þ5Ë²Å{gê_~ õ®ëi´Ê?õ[?9ýK Ò%=•zùþüy÷ž¦JÖ¿Ò=™Jý¾º{G“èëû—@ëy:õòÏõý'¿ÿ~zËüYå/¯Fþ‘ÿçþ¿ßdõ/8€zôljåè?Œæ»ÐÿZýfô¸X:¬üåµÉ_¦¡Tº’'U%ÿÊþoY<«ü”Ì?õáÿôeÞhÿ&¨pÏ­BþåþoË,ùËk¦r^ÿ½(tÉ®¥~þrý÷ ÈåºžêùWö¯}Päb]Qíüsåíî ö_§Ëªœö»¼Ìþ^ã¹Š2ù§þëó…óúo\À¶ËÒ=õ—òž~ï9ù· ëRtª^þ÷¾*ë¯È_žú5l©HþŒ4>×Ée×ÿêW‘üù>­¨_GFýƒ‰_Küöï´¯§]û^ÝüÏ¯ÿ·ŽòÁü;eì_þgRûƒS³þè¦ó[Àåê?`6¿\­þã –òÀÅêg÷·€KÕßÐß ®”ÿn «òÀ•êoéoÊ¿©¿\¥þÆþp•üw_ @oõ7|ýo×©¿«¿\,¿tVo¸V~è<¿œV™ü¾8«2õà¤
Å¥ÿ	)ÿIÿó)ÿ•þ§S¬ý;ùÏ¦`ü7úŸM©òŸÔ?›rí?È>…Ò                                                                                                                                                fü÷áà÷Ô»ïÚgûÃ~€ž=\üöF`G^ü¶—ü&ÐÉµŸ:‚ôqí§Ï`•EÏ¯Uÿ…ïo 5Å¸ìú%ÆE×ÿ(Q.¸ü	s¹å?ˆK    Ð½ôìè#qTySèÅšøVpQYñmàZ¶Ä_·—/n
-ëÏ/à;¾	\µþÌó›À5ë/`¬¾\4ÿó¦òÀ%ë?`:¿\²þÃ fûÀóß`>¿\±þÍ óÀë`E¸^ýÏþkò[Àõê`e¸XüÜþP×Ý·dÕÓõ_ß êh“zr ýàJí7ô7€+ÅßÐß ŠI!äö7€2R:iÿ©üùªñE<­”ÎÛÿe*þ»®æé¤S÷™Ëo‹R:yÿ—¹ú° ¿ÿËB˜–‚ÙÝ$¿LJ—è; ý3¤‹ô™Ïo ãR7ý`DºNÿ¯è¿Zº`ÿ©üð$Å´ï€þ«¥tÁ;€éþp/õÖß n¥¨ôo"…õ²g sýà[J×¼Ð—þõ¥.ûÀ§™þµ¥Ð†jýà]JWý ÿ
)6ý+K±ù°²ÜŽüú/KÑíy˜O ‹Rtú×”ÂÛõPý¤ðô¯)…§E)¾}¿¤ÿ¬ß¾_ÔVŠOÿzR|Ã¾þž6'uÝÿÈ+Cº|~ýg¤øô¯(…7ìîï—€&¥ðÞŽ¹/ÿtÿ¡w)º¡À‡¿þ“RpCÕþÇ\óHRhC™üúOI‘}RÿZRT·‡|©Õ¿ñÅ(ôxÆýùõŸÂ9dþz—b=ãKµþ-®pl)’rõ—^ Zÿ)‚ù×õop}ƒKq%óü úHaÔÎï5àÇ¤(Êæý`ô–‚è_÷ÊžÃÑÝ?5Èÿ4€ªö$RC“þ÷¨xUO#ÅP:ÿäß (ÿ½ÃÄéŠçÿ^@¥ëy6)„ÉãUèÏ­Áôñô¯,E0}<ý+KÌOÿº‚ç/öÃ?ÆEÏ_ègÿküøñãÇÐ›ðùË<÷g]ý?›þù»@üüžú‘¿³œ!ÿîßüËÊ¯´ú°#¿þáêç`Gþ¾*þ¯o-û?ä×ÿðú#¨×ÿ1¿þGä¨ÿ´€jýŸòëß¾þXþ=Ø“_ÿ ù·÷ß•¿«„î¿y ûòë$ÿý *ôÏ¯ÈþØU_ÿ0ù7öß™_ÿ0ý·`gþŽú§+öß›_ÿ ýW`o~ýOÝwþŽ"ÿúþk°¿¾þaû/ D~ýÛö_ùýÿ›ê÷ýú‡î?;€2õõoÝr cÿníþŽò·î?}õù'0«ßSÿÆ˜9HFþWùíW××ÿˆþ‹O Úiu|ýéÿ<€câëLþWUêgÆ×ÿ¸þß8.~Wùãõ/hKûÞú·ÀÄ	þú°úÈ«m¯ÛþŸõW/`U§õûÊß°ÿbþUXÑjO|ý[ö¨¿b K½v¶ï¯»¬É¿¸€}å¿,ÿü êç×¿Uÿ‰ü³Ðÿ2ý'óÏ@þòÂå×ÿúýçòÏ@þòŽÈ¿Ðr úWp@ÿ…üúwÞj ò×/¿þ÷?f CŸæ×¿¥€ý' ßý«`èVƒü?Fï?ô«~ÿŸßýWå×¿¥ù3û7ÀÐ³Êý_óëXƒü…ú×ÀÐ·Þû«Ÿ¿Tÿ:zW¯ÿÏôou•ãª–¿xÿht‘#k•ß÷ÿ¯ä?QÿŸOýw=þ÷FþêæŸí?òçNª5ò¯ê?ú†Ù£Ê_C…þcùg~éóþÕ®çéTÌ?Ýÿî+û@kyF¥óø?àõüþýû÷Ã[Ž*ÕòO÷ÿÌÿ>€öý+^Í*ÚÿçÊþïùî –N*MòOô¿¿X<ªü5ÔÉ?ßÿæþý' ýë(•æÃ¿L¯õRGýüÏó|åÏé¿ å/ÞTÏ?÷8_N¯ôUGáü³ý§ß¶æ¤òWQ9¹þ^æ³Ž}õ—ò/ÜÉçô÷"¿uTÍ¿ô1ž‘ë 6_˜^lÏÿs1ÿç ÊœTþ:J|ðOä@¹“ª_EÅü¥É_EvýƒòûË½jÙS¿e~µc-«ãœÅšè"VÅ?¼þ+õkYˆ#ÿ+ñ«™lä~£¤ol¹þ¿oòÿËÿ|ÙJ*Yˆÿï”¥ä*ß6›¹ÓŸ¬?±€éüp>³õÇ0›ß ®Uÿy ù-àbù°œß .UC¸Rþýà:õ°®¿\(ÿ–þp™úûÀUòoìo ×¨¿åë?¸Nþ‡€r`È¿§¿\-¿tž_ÿ¾ó@çùà´ŠÔ÷=Ài‰ÿJÿS*‘þƒþgT¦ýýO¨Tü7òŸO©öïô?Ÿ2å¿È:ÅÚPñ                                                                                                                                                &ü÷í°wÞþó¿}‰ãÞ3£ñ›f8ò}3Q¿Y„cß;S×¿Q‚™wo\ÿ¹÷o Õ~õgû@m‡_ûùþP×ñ~¡¿Ôuü5—ÿH.¸þŠy­ã     .-}9ú$~ÌÑ§ã¸öFpe+ÛÁ%åÖ·¡÷ø&p{ê[@ïõðòòòÒðÖÐ¾þô^¾µ¾a4¬?¾€›ú&põüÏxÌoW®ÿ4€‘ü&páú˜Èo —­7€ÉüpÝüß˜Ëo¿¾¿\1þ÷ ó@U£Qj§Ïëou4©¼4€Uýàrñóú[@Q)„œüPNŠ"«¿’NÚr~i|%Ï(¥óö™¯o ËÒ©û¿,ä·€y)˜ìþ/Kù`F:ÿ—¥üúOJWèÿ²Ôß &¤kôYÈo ãRDú·’BÚy0Þß ž¥˜ôo$]¨ÿËB~x’¢ÚÔÿs ú¯”:ëo wR\ú7âö@ÿURduúÀ™þµ¥öYêo _RhúW–‚«Ôß >¤àv| ÿ
)8ý«JÑé_UŠ®Ò7€ð&…§M)<ýkJñíx
€þÒ	è_O:=OÒ^:ý«I'°ë)€úÏJ'°ë)ÀúÏJ'°ï)àúÏHg 5éöý€þsÒ	è_M:ü— ¹Ëï)À3R|ÃÞþ~hZŠo[~ý×Hñ½s_~ý'¥èÞNùR©ÿQW=ŽÛÇ)õ¯$EöuÊ—Jý¸â±¤˜î¹;¿× š’Ây>ã¦üú¯’B=âKµþm.qd)’¡^~ýÇ¥8†¢ùW¼°ü‘úÎ¯ÿ*)ŠÚùGPûÚžA
¢tþ±¿Bÿ')ˆá€þu¯ì9ÝýCùüþ˜UR“Ç+›ÿn õ®é™¤}ø¿’ÿNŠ`hØÿuU®ä9¥ fŽW¥?_R3çÓ¿®ÀÜùô¯+xþ¢ÿñ,z~ýëŠž¿ÜOÿ>©Ÿþ3*~~ýkŠŸ¿Ès?—ýx5t'~ýOý_Y¿Çœ ~ƒþŸùûÀ	êïÿÕ¿õùõ?´þ¯/-ûßäïn òÇ^@Íþwùõ?¨þcþûTìŸ_ÿcò?×ß7€­ù{@þ£ùoP©ÿS}ýÈ¿Ü?w ›ó÷Õ?ö‡ÿŽ;€Íùõ”sÿíùõÔë ¶ç×¿“þùû@ˆüåûïÉ¯Ìþ9Ø“_ÿÓ÷ß•_ÿ ýW`W}ý/ß>¿þQû¯ÀÎüú·Î¿êñ¿7õïüõ?¢ÿä ÿ½êüú‡î¿0€¡@~ýÛçŸÀÈ¿X÷c¿³ü0w•ù§P$¾þGõYÀô¿Zç#_ÿ#ó?-`á_.ù)_ÿýïPâÖå¶×ÿàþŸ8*~où[ö/sà••¶Åï¯ÃLà¯w+»ªÔæøú·îÿQíVÔÚ¿¿üíú/å_³€ùjûÊëß¼ÿ}ý(QXÿ{ò/@þ+õÉ¿0 ý/Ô4ÿü ô¯!TþÙÈ™þ“ùõoíˆü3ýg ôÿ+dÿ¡O±ò8€¡OúÿŒÞèU›ü?WæŸ€þ§íÿóç÷ böºÕ ÿÏœþ“Ð¿Ž6ù®ÍÈÀÐ1ýûî?4ÉºÿÐµºýæö?` Cßjæ?Cÿ¡s5ûÿ,Ø¿Ö †ÞµË±£‹ØYú×@›kZõüû·¹Â±UÏŸÑîœòWR»ÿ÷{š*¾ª…Ô¾²çP9ÿLÿ§·ÌTþ:êæŸî{†ú×ºœ§S·ÿÍ;šûd¿¢áÔ¸”çT3ÿmÿ»÷/Ï«bþ©þOgXÑ¿ä 
_Ás+›òÃÿ©ÿïß¿ß½mé ú×ÑæÃÿ¦ÿWþ¯´í_ç2žW“üãýgô/5€*×ðÌ*åŸíÿ{Cÿ2¨r	Ï­EþåþmPãú^™üs÷þ+>ÿ7é_üÒ]CùüUúï@éëvÕóàóÿû·î€7òWR=ÿSÿÇ7®;§ü•ÔÎŸù¢“ä¯dOýù3îäÈ_Gåüå¨_ÉÆü?Ûæß²€gº‚ü-òç. Í‘.aoýFùýí>ÕdÕ?.ÿÚ´<ÐEl¯ß4¿¿Ø³ž5ñŸë·ÎÿJýJâÉÿJüj&ãÔ?*ÿ;í[úY=ÿ?eÿs”´¢þ¿·ÖýWÿy6ùïþ¿ÿ÷ÿvÝvÈ¬¿f	#ígðÿÞ½U¬µtÇ?Yj“õ§` Gšû¤?[t³ù§?	ÈÑbþ§,äŸû2€óÕßÐß ®”ÿa +òÀ¥òoèo ×©¿©¿\'ÿý Vö7€ëäßÔß ®Rc¸bþŒþpü @gùwô7€ËåwÐy~w §¶;¿tžßg€+P?o mo
Äe 'µ?ýýO©Hû7òŸR™øoô?£2íßÉFEÒ’ÿ„Ê¤ÿ$?Ï#8ú@                           ÿŸ½;ÉŽ#GÐ5ê10MtŠšÄ2r	óX‚fÒF^ìÿ¶ÞY˜04÷N*ƒb‘F|¿;I§‹º                                                                                                                      @þ½:ûR8¯}Éœð.Ùl_*Ç)ï”ø%Zœ¶;êgqâ»& ÿ™ýM`ôüÝÉ§o ';ùØ7û@^§¸þçªð°+¼¤ŽUzÐu^     @‡¦Gg_g•7„alµ7‚ŽÇ7Ëèñm +ûê[ÀàñM }Gë[Àèõ-`ôú0x}¼þÂ¾½;áÃ£tþ§|Ä·1ê?ö¿ÏoÇÀs~(èùöx}y‰Ìæ7ìòöMÐß:m7€•ü&ÇTƒÀþÚT‰ÐþÒTðþøó]‘ãkÜT“ˆþß¶â[@ˆ©*ùp›ß 6Lu‰ëÿm;¿¬™ª×fù`ÙTŸØþß¶ûÀ‚©BÑý¿mæ×ÞT¥èþß6ûÀ¬©“þwÐ?ÔT§Ë¡Ìæ7€S­ô/aê©ÿu úš†êo ¦¾ú@ÿ SÍrô7€;Soý? ˆ©júç6õ×ÿÛF¸š¦nï ô0UNÿ¬¦!ûÀ§©vúg5ÕîÀ€+ýàÝT?ý3šê§>SôÏgj@–€ô3Ûß É¯>SôÏfjþ¹LMÈñ`ý_M-8ò ß ¬šZ 6SôÏejÁ‘çÿxÀª©û›¿þk¦ìzþÿö_Ó¿çüú‡˜FîæÁWbªÞÛeêŸÉT»ùõ_4Uî²;ÿö¯ ‘¿êþ7W©.Sef/rW~ýLUY¸Èãùý
¨S=¯q_~¿0ÄTÔù·ûç?ÝúM•¸$ÏÿøK`õŸ1Ubåå÷;ÀçLu¸ä¿ùë?gªBŽü3ÿ€üOÎ.ÿæR¨¿æÉTƒRùoë@Û2ÕàR°ÿû²œe‹¦
\ÊöçF}ùü¸ûOý³:;¾þçªïÞÿ>¿þyÕýÉ_ÿÜjÏŸòá?žUŸ_ÿ±ó'üñOê¯¯NäOòä/æ5P_ÿŒ¨Ÿâ¹ßÛþøãË€Z¨_ ÿo.ã©-ÿßŠö¯?ä ªÊÿÿyYûåp å¿¯?€œýoòë_QþÛäë[ÀTÓ.ÿ¡ìÊ¯Uù³÷Ì¯ÿ9ýò_§ÿS~ý+íàß~É?Ü *Ï¿ÿ`g~ý‡é?›_ÿJûG`o~ýé¿_ÿ.úïÎ¯ÿ	ùƒúG`w~ý{è¿?¿þgô_ÀÍ+•È¯½ýCp ¾þ§ä_ÀÝ+È¯Åýƒp,ÿhýË`å:Bòà`}ýÏê??€çW;;¾þ§åŸ]ÀÜkí‹Ô~Àü5õÀÂ«EÖM¯ÿÉù°òzYÚëzÿ›„¼r‚Ï÷ú×ÕKh¥=ñGì_n ).6°ÔÎø#æoªH°Ýíõo/j—ñè?tþRHq¥úç ¿þçõÿÏþ|¥òçpfþÿ¼
¾Rý³8¯ÿªêÔYùÿ™_ÿ®úä×ÿtäÏÜÿ2¬"ý_^^æòë¾BùëîXþþ/ýÿ³§Ö\–=ýý/CËÝÿe±Ôeêßfÿ—Çþÿ©íö[ÞüÉúçÀepYû¿Tßÿ2ºœùõo@ü	úg@òÓlO¾þ_ùÿ§>¹òoô½Lùë?›_ÿúäÎ?Û?þ2åÏ$Kþ¥þñOþø$.9ú/å}ê×ýsIŸ£ÿ®«”?—¬ùú¿`ßeÊŸKêþ+ù£žøOÿlòåOØ?å ŸX_’æ_½ùß÷ÿùógÌeÊŸK®ü«ý¾‰¸Jù³I×3ÿCÿòHuf=É“µÿGþâŸRY_åß¸ùíŸ` iŽ«?EòÏ|þëx ÇªWÉóÏö¿\¿üßÕÿà žQ×Šä¿µ'ÿ±ì<™AÎ¿—ü¹ª_*ÿþd¼¤^´ïò^R'öæ)™Ï r_Q/RÜøó÷^@þêF|ýòÇ- Èõôãà¿LþWêgrà¶_®þ+õ3	¬rþWêg²ÿ¹~Lþ¿Þì¸°ï¯î^"~&kñgêÇçß1€ïW·/Ö>›çôóõ£îüSô¼ ˜ ü¿ßEöÿõ% ¿TZÿ÷Œ»WxìÿkVÀ , ´}õ7p—¾þüàd›÷üËùo–np²õ/úVëß- (À]@Æ•‹_îoæúŠp#ÿæW>:v
¨ßõ;"	ó?`;ÿÒh3ÿŽþÐQþû„õ7€~êïêo ýäßÕß ºÉ¿¯¿ô’gè0¿—è/¿´Nÿ¡Ío m;Zß—€m;žßƒ -;ÿ•4ëpû7ò·êpúú7*Eü7ú·)Eûwò·éxù/ò7)Eú/òó8‚³/                                                                                                                                                  ÿ~8û:8-½	\FO_`vVuúÌiÊïØøƒœó^‰«V(âÄÛïÚr;õØC`9|àOïÑ Êªï° ¤*Ú Ê©ôõÇO!      Š™îœ}5œUÞF²ÒÞ:ÒÞ:ß.£Ç7~ì­oƒÇ·€Ëèõ-`ðøp½¾^ß ÆŽo £×7€:luÉÔÞ *³­TnªÁÌu}{uÂyŒeªÃlü«sÎf S-ÖêA&S=úMàÏOùN­SMBòoOà+¿l™ê˜u7õ-`ÃT›ðþKxÈ¯ÿŠ©:1ýçðØß Mõ‰ëÿ- ¿,™j×ÿyú‡šªÛÿq úšê›ÿa 3ù`ÖT©èþwÐ?ÐT«øþ·Ð?ÌT­ýàÉT¯øþ7Ð?ÈT±ý¿mô7€{SÍÞ®Pÿœ¦ªíèÿ5 ýLuËÐß nMuÛÓÿs úo›*—£¿\MµÓ?«iÄþðiê²ÿÇ ôß4UOÿŒ¦úéŸÑ4hx7ÕOÿ|¦èŸÏÔ ýó™ 6Sçý}°njþÙL-Ð?›©{òëbêöæ¯ˆ©úg3õþéß3 ÖLÝßüõ_3ÜÿÔƒ¯ÄÔ€×ëÔ?©~;óë`ªÞûuêï¯€,šj—"¿¿ºhªÙõ2õÏdªÉâUîÉ¿ù;@Joí¦z¬\å®üú˜j±z•‡óÏ ïÁ6bªÃúE¿ùë¿`ªBŽü[¿0ç©6cªÂ¥D¿|ÆTƒ<ùŸ°üO¦
”Êïß€xvvû€á-aÿÌ£Êòÿx•&ÿÚ¿‘ñ@Û2ÕÕÿ-ÿÃ ÷çV•ùï Fuæ×¿”šò'î_ú(›TS~ýË«)¿þcçŸÿòOÿŒªÊÿÕÿþ¥úçSSý¯<¼Pÿ|ªª¿Dÿl¨¯F-ä×?ŸêëŸQùÓ<û9Mä×”þ_Ý¾8sþ?^]†TUþ›úÈÙÿ­þ¨¨¨ÿCý»dìÿ™ÌÔœÿf Ùú_ë9€júÏå¿ Wÿ»üúŸ×>ÿ‘Äçq •ôÿûŒþõõ¯¯ÿßùú?ç×ÿ¤þ§ï¿'¿þçäè¿û_~ŽÉ¯ÿ0ýgóëßMÿ]ùõ¯·ä öõo öß™_ÿSò|ÿ7€½ùõï¢ÿÆÇ,ÿ:úo? 1€Ýùõ¯®ÿÝ+åÎ¯ÿYùpÿJÇó¯Õ×ÿÄþóx|¥ƒù×ëëfÿõ'€|:P+¾þ§æ_ØÕžúéõ?½ÿÚ@oÅÄ-?jþ‚ºšíú¯ÂâGµ×¿Šþ_˜ÿ³ÛLëwúÑñõ¯¤ÿ²ðR{êëßLþÕ\ûÚš¿áþ©]†$ÿØýàøuêŸG#ùÝýg¢¿þäÏÝÿ2,ýõ×ÿ2¬6ògîXýóà2°"ù__¦ü÷y9< ýs)’¿æþ—±eïÿšÿð ôÏ¥Lþzï .£ÓlEòë_¯¡û§9Â¦µ?Û R`ëòõ©½Šãk^¶üÕ÷OqzÈž?Aÿ,HpY=µ‚«êCùs Éeõ Kÿ—Úû'¹ª>4póO>€DWÕ‡œùõ¯_Îü©ú§@ª‹êDÆþé.Rþ|²å¯²ºkêÅYùÆ\¤üù$ÌÞÿç«ˆ‹Ô?Ÿtýãò—Àá£êR–üAý# >§å/{pøœºU8ÿžÛÿá;¡Î%È¿§ÜEÊŸOÙüŸˆ½Jù³)›ÿ} ñW)>Éê'|àï‰üù4ßò^P?vÖ/š?~Ù¯§#ÇoüùóG. Äõtäà¿H~ÿ¼CNGê—ÊÿJý\‚ëïËÿ×­˜ëúþîúñ3	ŠÿT?ðÖÿ×Î|ä¿ß€ø¹lÄ®zç¿·ÿÝ Vî"Þ"ë–ÚÏÕÿÜðþvu$ÿÝ .Ç`•ÔŸÉÿûÝÜ˜Éÿë^h(/ þï9×?~Ìÿq³°€²vÖ¿Ÿ@@þðäühyp þí®ùëÏ.À ÎôY?à.àÒ?è. ÓÊ²¥/÷7ó?`=Èr||ìÿa ›ùç¿P¿ÙüÑýç¿¤Íú;ú@OùïÔß zÊ¿£¿t”Oè'ÿ®þÐMþ}ý —ü;¾0€ªÈÑß :¼ùÀàùcú@Žåw0x~_¶íh}hÛáújÛÑø¯ôo×ÁôäoÖñø¯ôoÖÑôŸäoÕÁðWò·êhù+ù	ú                                                                                                                                                  0¬_}œ×þÃÙ×ÂyíóÀ¶jNž} î]ÚHŸ©ÑìÛÎ§C|ü¼7ÿ›7^äsc£vÆ
aý- «|îÝ»óáÍ¹‡=óî ¤
OÚ 
ªò˜ ˜JØ J©÷xõGr>     À—éÁÙ×Ãié­`+ím wñMà2z|½½\Fo£Ç·€ÁÛ[Àeôø0z|¨IPš´ñ- !}2¤7€dk ˜*pöŒkªÃÙÇ0ª©gŸÃ˜¦z$ü¨þ|•ðíukªIÒú`ªÊÚ•~{•ß6L•Ùˆÿ%8¿þk¦ÚÅß˜À]~X1Õ'8ÿâòÀ¢©Bõ  ©Fqùç ˜©N‘ýŸðÔß fMuŠÍÿ8€çüúÏ™j›ÿa 3ýàÙT­øþwÐ?ÈT­ýàÑT±èüwÐ?ÄT±ý·pÆ×lªÙŽüî âL5ÛÓÿÛF¸5Õíó2õÏdªÛžþß6úÀÕT¹ÏëÔ?©r{òënªÜ®þß6úÀ§©v×©Síõ_Ê¯ÿ§©zYúÀ»©~{òëhªßÛuêŸÇT¿]ý? ÿº©oªSÞ.Tÿ,¦ú]Žô÷àª©ûòëbjÀÛ…îÍ¯ÿª©oªSý.yúŸxèõ˜°/¿þ!¦ú]ö÷€SýÞ/Tÿ,¦êíÍ¿Õÿ¼3¯ÈT»Ï=Òßß X4Õåñš.Iòë¿hªÅÆu¦ïŸù`1Õá’>ÿÖßÎz¬­˜ª°}éûg<Ô†L5È“ã—€ä;Ó–L¸ÌÃùýÈyýæ_ïŸé8[ÓÈ/øNÑß¯€žÑqþçß)ÿ“Žó¯ü"ØôçØªò'ìÿ¶€ÄGØ´ºòÿxót‘	óSSþi.ÿÓ RÞü¹Se~ý‹©2ÿã ôÏ¦Îü?Rä×?@5õõ?E=ùõ?C5õïò'é_îÛUMý•›¿þùTSÿn  6å×ÿå_zðOÿŒNÉÿÏ?W3ŸßÃÿùœÿŸWqW©.åóë_““úG^¥þ¹è?¶òùWý}uûbý‡èSÿaYóÿñÇeXõ¨·€|ýÿxwT=ýgò_«ÿGýqPMÿ¿Oè­?ì jé?Ÿÿk ùó:€Jú/å?p›_ÿûï¿ˆÍ¯Wý£óë?Rÿçüú×˜ï âóÀ8ýgóëZÿµ|¼Fþ›¿þ5÷ßùï~Gä×ÿ´üÛ_ÿÅõß•_ÿóúo? 3€}ùõ¯»ð væ×ÿÄþ[? x%•äßúà›ãù—ëërÿÙ<¾N¶¿þgç_Ð§ùWãÛ¿Ü ¶/e;ÿú öu×¿–þ˜ðø¡åõ¯$ÿÝV^)}üaó×Öÿcs/(•äN_ÿêò/	¯_ÿÆú§w•üCç×_ÿ3ûÿõaë2õÏäÔüŸõ· .çõ¿­¿µ ýs©&ÿê ôï¬ÿsýÕÈŸKEùW 6gô_È¿< ù³)‘ÿå%,ÿâ ôo¹ÿË}ÿ•ügà2¸ùïPWÿËèêê¿0 ý›íÿRuÿR§\±ùÃû@©C®ØÈýKqÕ
ä×¿bóWÞ¿ÐÛÿ%Uÿ<(tÀµ+šß7 Yú9Üè?¸Üùïûïz0Ã 
l+Šæ_ÀÒ%ÊßOÿ¯<oaùõÏ(kþ™þò§îŸôøšwnþW[ù Ñ¹uãôþäÏ¨þü	û'»¤~dËŸ®º¤»¤~¤ÌŸåæŸn )/©yò¯÷ÿù*âåÏ(Yÿ¸ü1?§Dù£ûÀáSêWéü;úÀÁ#ê[áü{ú[À‘ÃAâüYúÀ“DÑüñ_ÿ½“?£Cõãò, þåÏ¨dþÝäÏ§ü~ÉkV	êçÎ¹€üWÓ—øúQù·çÛ’ïß¿_ÿCýl2çxºÏæ“?>}ÿðõõ³Ù_ëÎ?î©Ÿsýo7 ~.ñëG<á/¶ÿÝ ®?—€úñùcàrÿ•O{>Zf¬¶®ú•ÿ®üs¸ýŠLfÓÏÕÿÆoOý…XÀ9žëÇ|ß¿+ÿ|¨£~äÃ>3ùýúõkß , ¬Ðú¿ÜþÙ}ý_Oæß³4’ÿ1ýÜÖò/mÀ Î·;þÂêÇ- Ï‡Êœ;þÕüÏXÉ¾€<(ñ6ê?`½ÿìò7œÿa ù—¾¿Ùü±ý7¾+¤±ü÷èo ]Õ¿ë’ß úÊßß zÊ}ÿo]åßÕß ºÉ¿¯¿Þß :Éý €ô›?¦¿Tê@~w cßü }ÇòëßºCõ}Ø¼cõ=Ôºƒõ_éß²cíßèß°ƒíßéß°cé?Éß®ýÕïÈú<Œàì«                                                                                                                                                  ¨Ì¿oÎ¾
Î¬o—Ñó'€QÕd¡s¾þoÕÝMq·ŸÎ>WÿÍµÁIñ=KŒÙw¶}-$öoÐ™ç»÷_º¯±€N<ðÕ{(âÜÃžyOPT}Gm %UxÌPNg¬1Õ°þET~¸úg×ÄÁÊ       ÙL÷Î¾NKo#YŠo—ÑÛ[Àeôø0vz¼¼Ô+ªÑîòP£˜L‡Ó[@]Âb¥ÊnuÉÐÕšqj}=¿œiªÁÙ‡0®©gÃ¨¦Zœ}cšê‘ôãúóUÒ·Ø¥©&©ó[À–©*éóÀª©2éóë¿bªÍÖ»Öß –MÕ	Ž¿:Ûü°hªOTýÅèbªQdþùÜ÷7€YS•bëÏ@ÿ S¢óÏà¡¿Ì˜*Ÿÿy úo›*µ§ÿ·þðdªÕžüxêo ¦jíÉÿ0€çþpoª×ã¥êŸÁT¯]ùï0Óß nM{¸Tý3˜j¶+ÿÝ æúÀ©f‡ûÏæ×ÿjªÚ¾ü›ýàËTµÛ+Õ?ƒ©n;û_ ÿº©n·—ªSÝvæßìo ¦ºÝ\©þL•ÛÛÿk ú¯š*ws©úg0Uno~ýƒLµËÕÿ¤ó®ÍT»ë¥êŸÁT»½ùõ2Uîr¸¿ ­˜jw½Tý3˜*·?ÿFÿsŽ»:S=f.èöJõÏaªÂüuÝ¿dw~O ]6Õ èJ÷ßüõ_6Uà’½¿¿´¤™ßñ_ÿÍüŠŸcýýðýæ_û;€²M­ä?Þßï€šÓqþ•þÉ±Y÷~#ò?é7ÿâïJz~­k#ªþŒ“_ÿ mä×?—6òëŸKeùüH—_ÿ 5åÿñnæOäÏ¤¢úŸùõ/¨Âü3Ø•_ÿ ÕÔ¿É¯9µÔ×ÿ'äÿçÍJ~ýË9+ÿÓ ÖúËŸMéüŸõûßæ×¿œÓò?ÀÝÿù¿îüõ²ÿmþÅO ÏW©.µÜüoúÏ\¥þý÷_yð_ÿú¯Ð?—²ùoûG]¦þ}ô¿ î2õï¬ÿÒõü}uûbù;éÿ¶€K@ýûèßMÿKhýÛèß}ÿçú7ÈÔÿw—qUÓ6ÿ× ²äÿ¨o 5`½ÿÑ¿ú¿žäTÒ!ÿ;€ˆúúŸ?}ÿ¨ü Žþ‹ù?¸ÿc~ý+ï¿÷÷~/ÐèþOùõï«l~ýkï¿óßý
Ì¯ÿ©ùS÷_ÿõ¯®ÿÊ ¾^%g~ý;ê¿#¿þçæß~ (| {òëvÿ­ ¼Ê—Üþå°u!ÛýC°/¿þ§ç_À‡Lõõ¯ ÿì_eý•øú×Ñÿy 3¯[½»þåÀÂ+…Ö+¯EýŸ þæjû–äü…°òþÿúë¯‡—Ìßö#bÅÅ×ÿ´þ]m]æR±§‚Ññõ?)ÿMýíìÉªÍýò¯/@þÎú?×_€þÙÔ“e úwÕ!ÿò äÏ¦¦ü‹Ð¿£þ+ù— >%ò¿¼¼„å_€üÝôßÈ¯ieò÷/<€rç\­ìý_óë_­"ù_BóÏ@ÿ|Fî_ô k•·ÿKlÿ¹èŸQ‰üuö/|Ð•Ê™?QÿL(zÌõÊØÿ¥æþeO¹^ånþúW©ØÍwÿ(yÂuËž?øáýO1bÿ‚Ç[½bùw÷O>€bgÛ„ùgû`þ
õo­ÿlþ? J>€"§Úœùïú_ªè_âHÛ’:òþ)ÿ8›S*ÿÖ V.QþœÒö_Î3€§lü=0ùsJ™µÿ{ðç—úk€)Ï¬'åòÏ‹ÿ{Àò'•%xÿòçT>ÿÏ7—(Niò‡÷Ï_p Ï§{eóïéhGŽfEóïë¿ ûeIóçé¿w »Ïd(ó ìÊ¾ÿúŸòçS0ÿÇ Â®ëû›ÿ?£ÝõÃòo?Ð·ÒçvžÄ ²çŸ[ÀÖÀŸý¿& >{êGå_ø@à ââ@†sìÆ¿Øág½!?¼í1tG2˜7þ€›ÿMíÐ' < dId8»ë¯|é¿þôõ/Ÿ°þÕ`ºƒWHü˜üëØºš™\Ð>­øOõC¾ñN¿Üÿfd²”~®~ðü#ã¯ÀNò\?êqõ×`íÕßce 6pzýìù- ëü¿^m½’Ô ¾þï«åøW+oÉ Nÿ÷‚íüë+ÿlâÏ.`>ÿòä?ßÚþjüç,ç_œ€úû×=ÿòÒ7Zÿa [ý·¿+ ±ü‘ý ³ü¿ãò[@gùãû@Oùwô7€~êGþ·€äîo ½äßÙß :É÷ t?¦¿tØß ÆÎ¯ûŽä÷@ûå÷=`óÕ÷ PûÕ¥ÓŽÅ¥ÓŽÅ#ÓŽ¤ÿ ëbjÏ“ŸÙœ}M&>                                                                                                                                                   ,û÷ÍÙWÁ™õ- {‰ÿÍ1€Ù7ffç¸)< }ÿ¹7·~äòxî«Hý.c®‚fÏýùès÷_ºÈ*æØËßü- ³³ýù½¬ô7€\Î;ñåO0PLeÇm …UwÔúUá9Ë_P½‡\Ýu©Îö#>         ŒizuöEp^û/›¯þ¿/E®ŽÃÅÂßÔÆÛ»¦·€³ÌÛ=‚)â=µ7€ò–‚íAÄšo UÕ_è7_4fIËõõ¯±~
aõåï4ÿ–_ÿ>ë_ûË?dþÏÈ?hþ÷þòšÿ­¿ü5hÓYýå7ÿ$%êìö©Cþ¡”ò˜ÚÍÿíÛ·ì§Ó¿ûo^ô·[«¯ùçŸþ™ð´ºSaþ¸úëxÍoõåŸöçª¿¶€þ° º›ÿ®ú‹øÌo uå_ê¿·þÒ ®ý-`N]ù/òÏà¶¿T“¶ÿåXþ¹Üå7€ªûÎ?3€‡þPIþçÇ~C.÷x¸sbþûþ—$ùŸð”_ÿjúGÿ¿o)ú@ùïžøzµßâ Õý£|KÓß ºîÿm+¿þäß1€Àüú‡Ól]ö¿€þµæŸ²å×?”þck©x~ý[ÈŸ±ÿÍ ô_1hÿÔÇØ¬^óo|H|ŠíÒhÓ˜ýŸb»ºÍ¿þ`ÚClØ˜ýÓžaËÊ ¿'€vÐÿ[²þIO°iå?Ôß_ i¾dþåç &<¾æµ“ÿhtN¿ùþP¢sëE3ùßü*¿þ!šÉ¯ÿØý£óë¢•üúçÑo~ýC´Q_ÿÁóëŸGÇùõpFþ^E^§üyœT?vnþ™”ÎÿU¦ÿ?–.SÿLÎËÿ8€ïæ/SÿLNÌÿÏ\~ý‡É7€ÏüóØ“_ÿÚúÿ³ÜÿGúþO±]õå×¿$ýÇvægý‡êÿÏrÿý÷ä×¿öþyoþú·Ó?Ç—ÿú‡¨ã›ÿïþõï¡ÿÚƒýÓ¿êþ²Rß—ÿ}ô_ýÙß*ý;ë¿x=¹}©þí÷{ÚWpý‡èßGÿU÷õï ÷ýŸêß@ÿÞûÏå¿ Gÿ?^]WKÿùü_HŸÿ­¾Úÿ³þð¨¤ÿRþÏ$î“ð4ÒÿØ/þZÍ¯Õý÷Ý¬Ðú©#êþ1ùÇ@+ýwþ³!ùõªÿS~ý[è¿ïŸýš¡ÿ­Òù_^^f¯#aÿØüC÷/6€÷÷ö²¿ÿžõ9(¿þÅú¿,ö_À×käÊ¯Ñü»û`G~ýõ_Ë¿8€ÛW9X!¿þeòoôßø	ð›7~ýKõßÈ¿ñéëÞ¿Ì ‚úÏ`æ•¢ã¯”×¿Lÿ·w´™ÿy¯³»ü%ûÏÞüÿúðõ‚Õúw­Voõ¡íõ/Ñÿíý<çÿŒ??Çë/_ÿÓnþ÷ùo ªþÁ
ö_«¿1 ýs)’ÿ±ÿ\þµÈßvÿ‡»ÿùü+Ð?›nþKù— >ÅoþËù >ùóß÷_Ë¿4 ý[î~ó×¿¼BùÃnþ?#ýÇV&ÿKXþùÈŸ‘þƒËÚÿ>@ÿr({ÊõÊ™_ÿú•È_aÿ¢g\µ|ý¿òú×¿¼lù“õÏ0€¢'\¹\ýóë_§LùŸû_ªé_ðt‡íÿ’®ò<Ý”ºùWÓ¿ØÉ¶!sþýÓ Ô¹6#Cÿ¹ü•ô/uªIž¾ÿÎ ¼’?§BùôO7€ÇÙž|ùkë_à0[”­ÿý»Ù?Õ 2c³råO×?É òbËŠäþ‹Ÿý ãù5/Kþµþ+/Z N‰ò¯ÞügþÚÿíæ/ìû÷ïÿKþŒŠäÿlýþ?Þ½p¹ÿçäÏ(yþåþoÿóç››—®õ?¼€L‡Ö“ùŸûÿíÿ± ùóÉŸ¡ÿí‹—û¸Èr\J˜åæ¿óö¿û. ×iu¨Hþ¥ÏÿØ³€LGÕ§ùop÷ýß >ûê?äé¿ùòùþq÷©Og ùó?„þ+v ÁH~6cˆ®›?®ÿÌ B&øP†r¨þÚ·~3¡—‡±ÖëÛÁÔ'2šðú{òÇõ_Àâ’Ä¸öÕ_øMß‹ùàk+Hô‘ói½}xþå¯þþø;€Û	Ãbû™úË¿ç­îõuÿhm &pŽçú[ÿÌÃë0‚
âçÌ2 8·~Öü°€ÓêgÎï. 'Õ@‰ëÚÞú¿ß,üá¯7ÛoDþ³í«ÿi¿nm¼%ùOÿ&ýÂîòì@þ³´Î¾4€ùüë¿jkñû¯ä½Èÿ‘,þã 6ú‡|UH[ùãú[@gõïúä·€ÎòÇ÷·€žòïéo ÝÔß×ßºÉûõŸô•o¼¿t—ß †Ëÿø ýÛw ¿;€Èï Gòû°}‡òÇ ôF˜#õý Gê¿Ò¿qGâ¿‘¿qûÓ’ù™ÁÙWDyÚ                                                                                                                                                   ,ø÷ÝÙ—Á©ù³-àúöMì7f*,ÿÉÎ÷¶ú¾m °ç Æyx;³ïÛÊY°<€dï.ü½“Ëâù/
HöcÞ=9üsþiº<¼¨4ÿüñòøæõo(²÷pÙ.€w§Ô¾¢W0¤*ÚÏ_Ê	—0œÊÎ¼’ËH-å       hÃÿ¾œ}%œÓýÖÙWÅié-à2z{=¾Œ^ß Š›n^_ÿÓÚçAD}ýOŽŸ~Qõ †ú	G[_ÿjò'A|}ý«ªl{òë__þ}+ØU_þZëÇŽ`_~ýëÎ<ù{Í4ùõo"ÿæäï<ÿúä¡ÿòä"ÿÒä%ÿìä(ÿÌ äªÿÓ ä*ÿã ä,ÿÃ ä®ÿÝ ä.ÿÝ Rçÿö*÷ùô®æþ›ñßå?¤~M÷Šou÷¿@¶ú[øóÏ?YO¦jûÇå_ÀŸÒž\¦’È™y Ÿùàœü{ú_âó/àšßZé¿+ÿü îòëFÿ¯¯¿šv ÷ýà„üqý/ûóÏà!¿þgöÀ¡üÛý |þˆ;€þ= ýkê¿5€Ãùõ¯²Ø 6¯÷[ü ô¯!Èc€—$ùõ¯²ÿÖÓ ‚®Wÿvû¯=0ðrƒò?@ÿJûÇKÒÿøet£hþãÌ¯(ýÇ6D?ÿ©$ÿÑ„æ_½8v	}¤ÿí Ž]AgÚêžù!àCÐaúàÐûïOSý#ò{*xùõ¯JSýcòëDÿ±µ”_ÿ±ûGå×?HCùõo?¹›¿þ!Ê¯ýæ×?D;ùõï£ÿ?¯v\©ü9ÎÿÏUì•êŸÃiùc›_ÿ %óßÕ€þ½å×¨þÿê_ÿgæ€þYœxïÕ?>¿þUõÿg£ÿ?~¬\§üyœzóÿç®þêôo»ÿ?«ý?ó/ >¿þõ÷Î¯Ÿùõ¯SŸþoòë?PÿÏ‹Ðÿ4ô—¿Ãþsùõ¦ÿ×5¸û ÿÚÏ~7óëß]ÿÛ‹ØÌ¯ûý×žú³•ß£¿­÷¿Àóu|ÆÿûËÝëßAÿ	¬\ÍµþÃôï£ÿºûü·Ð¿ÿþõo ÷ýgò@æcëF5ýgó_ ÿ˜ýÿÎÔÿW)°qµôÿ»hÿ·úÐBÿdÉo Íô¿dÉo ¥ó¿¼¼¼Dåßsž_ÿ¢ý_ëGàýòä¾Ñøõå@ÿðl|Àúß9!ÞþQù ™þˆÌ¯±þkù¾Øõ>næ×¿xþ½ý÷ü£Ï›ùõ¯¤ÿæ#€!ˆÏ?|ÿ"È¿ù WÉëë_¢ÿ%Uÿµìª¯¡þÛù·žð)e|ýKô¿öŸÀÜëE´_)/ÿýïßù_ï¾þ;(˜­òú8-ÿGü»	¬×N6[0,½þ§ö¿«?»€ýUõ¯«Hþ›Ï³²ä×?{ÿËlÿ™üë?›rý×ó¯@ÿlŠåÙÈ¿6 ýûé¿˜y òçSQþÅèŸ‘þc+”ÿ% ÿÒ äo¿ÿÇ{Ó¿65Ýü ä×-cÿk~ý«•/ÅýKpí²õÊ¿Ý~ úç”+ÅýKï°ý_’õO>€’Ç[¿b7ÿZú—;ÚûÏÜüõ¯SŽüIû§@±smE©üuô/uªIßÿ%mÿ„(u¦-Iž_ÿ¶”É ²9ÎÑû¿¤ïŸh EN³AEnþ{úÿþýûûÿ’?§ù÷ü èµÿÇäÏ(Wþ4ýÓ ÔY6)Yþ•›ÿfÿËRÿ(rŒíÊ’?Yÿ÷ÈŸQšþkùgþÞoxÿƒ(q‚ËŸÿ6÷Ì‹Öû@æ£ëCêükýç^¶ÑÿÀ²[?rç¿¶~û¯Ÿ?Þ½pîáŸ$È|lý8TóÞÿ¡ÿÏWO/]í¿kYO¬3	ó¯ÝüÿúÌÝ?~ ™O¬39óoö@äòW‡òå½·ÌrT¯vÕÌ¿~ó¿ûúo½ÿì íˆ:wøÆ¿•ÿ>ôêw€óýÎq0Ã8xãß¸÷ê¿4€õ	$?‘ÑDÔÏÿÐyï >žà_vÉbwýÍ{ÿÇÊ»û_'ð9‚„?+¸¾NXþõÇù×û¯àfd°Ö~¶~|þ›W¸ì€œd®þü¯y_}ËÞXAõ~Ëÿfü0ƒsã¯þ#‡DÀNªŸ-¿4?gþÈd½¡U?j ¹¯dX'Ö%ÿÉŽåÿýû÷ïÅ?üõ+äMÈªýñ_Íüé¯/ÛoIþŽ?7€ký°¨¦¸øéç0“{âWn6|lÿ{éÛkÿ4€õüa_ÐRýØþÐWýøþÐUþßÑù- £úûú[@7ùwÜÿ@Gù÷ö7€>òïîo ]ä¿ È †Î×ß ºëï ûóë?v~ßôà@~tàHþ˜”þ¸s(ø Ê~P„;Rÿ•þ­;ÿüÍÛÝþƒú,Žàìë¢$ñ                                                                                                                                                   `Õ¿ÿf{Ã¯2½q¢KÌÕXzyº÷h§ºñT#O¤õ÷I1Ï!b$jt÷6ß)eÌ‡Hßÿîm,½S(l1ÄÒ'€Ó¿'ýOZâx¡°üúâp ýë×á`Ÿû7-ŠÞïß²üu8/ƒú£tÚ      TïKÎ¾0Î*oýÛŽo£Ç7€ÁãÀàñ`ôú0v|(lºQE}8¥}ÊŠ¯ÿ‰ñ“làh~8·þ±¯¯ù÷n E~ý«¨¿cIêë_Oþ¸	$Ê¯MùÃ'*¿þuÕ\@²üúW—?`ò÷Ýcéòë_gþõèßþ•È?DþÅè?Fþ¥È?LÿÙÈ?Lþ¹$Ë¯ýùg ÿPýŸ ÿPùŸ åôZêüypÒá`Ê= ùËŸ¾ÿY‡3€)û ä-âþóWþíªÌQuiÊ?€,ùoê[@uùS  þæ þüóÏ?Ó\'Úìÿœu¯õ- hþ»É¿<€ÏüÐGÿ…ü‹ÐÿŒþ©žÿÛV~(˜ÿv )û/ç_€þ§÷?2€ˆüóÐÿ¤þiî .Yÿfòç¸XÏ?; ýÏê?ÕÖ?ÿ‘6ejb 1ù7PàL’?’Ï QùWû8Ó–èŸâaàÃý?ý@SºÿÎDå_~ óa6¨DÿÏOÑŸ“ò¯üµð<ùõ¯«ÿÆïÑìþ¯óëßiÿw‰òë_Wþ¸_¹’?´¿4Üÿa{òëßvÿëî_¨ÿ0ýçç×?Œþcë5¿þaôÚÔTÿˆüúi*¿þ÷ÿçSþüúW×ÿ«þÞèŸÜYù÷ *¿þuõ¨¿g ò§w^þè¸ùg ÿØNÌÿOÎüú×Ô6ä ôo5’þ‘ùõ¢ÿØNÍŸ³¾#ëJ3ýÝü;îÿãÝÚ…êß_ÿ‡ü«Ð¿Ûþ?úÇæ×¿þþOùW úíÄþ3ùÓõ/v€m›éïæßtÿ¹|^‚»ÿ!û]‚þôÀõBòûôßzÿåç~†ä×¿ùþËÏý¾Íÿ÷—û×Ñ¿ýþ‹fê?.@ÿ–ûþåŸûüw¿ûþõï ïýçò_ Õäßèï¯~tÞ>ÿ¾;€¼GÖ•êû@ÿú¿¼‰Ê¿£À‡ýÇÉN°q%û¿çŸÀß	°ù1ÿñ&é16«\ÿÏú³HØ?¬¾¼;#ÖþÁùõ?«ÿ%ªÜ Âó@Éþ/eúÇä×¿Ü¿ýu›?ò€˜‡ ¢òëÿª|ÿËÎþÛˆË¯ÿ«âùçûo?°ëßü]©¯±þùƒú¯à_ÿWòõßü	À»tõõ?¥ÿò•õŸYÀeW|ý?äïÿ’´ÿ›ÐòKéõÿrâÍÿ¯wŸÿžÿr°¼þû/Ýü?êßN  HËíôú9éæ[ÿº€õü¤Uô˜ëuJÿÇü³w—¬ùõwBþçú7_¼oàù:åï»ÿÍ æ¤Î¯ÿ‡Zò¯ y~ý?•î¿”u ògSM~ýï¿2 ùó)“ÿe;¿þ÷¿ô_€þùTsó/×¿ØÙ6¡žþ‹Ð?£rù+é_ìdGîÿRmÿr'ÛˆùÓöO:€RÇ:tÿÙüUô/uªIŸgÿŸ JjCrç?Þ?Ý 
i[2÷¿ìïÿýûûÿ•?§¼ùôÿþêíÉŸS™üÑýßò§@ÑCmHÝýß Nó'èŸh e´-%òïïŸd EÏ³5Éò/ßûÇ?þó=å Êe“2åŸýK_;ú@±ƒlUšþ«ùô?8€bÇØ®ùö[€üeÏý çì[@¡lÝÑü÷þOýŸþ{£ÿÞ9¼$Î¿ÚùEËýw- û©u$oþÛØ«/K9€¬çÕýõŸó¯õßzábÿØä;ª>åÌMýö_?þœyéfÿ˜d=ªNåË_úç«§— pY©_;êÏäÏÚ?d9¨s™ò•¾Üõß7€§ä:šA­¿šÿ£ógþýWž–åH\?8ÿbçµþ«øX€_íŸEXýÙüëýÃÿ`«ÿud±¾þÂoz]Î¼œ{ &ÙRúÅúK¿èw¥òJÿ€ØÀ)ê/ÿžçÍ_ôv` öPIýµßó½ÓžXÀ9ñ3ä7€vâgÉïS@+ñ3åß5€LW2°­öÙêï@¾KÓvüœù£óRFtrýWúŸèüü1(p-£9^ÿ÷«Å?ýõë×¯í·!ÿiÅÿ}c!þÕú›Rÿ,)âÏà¾~ÀÔ?KdûÇòóXê¿"I,¤Ÿé¿–ãÓöíÅÀVþ°/i&þŽþÐSý=ý- Ÿúûú[@7ùwö7€Nòïío]Ô?Ðß zÈ¯‡öö7€áòëßŸÝù ûóû úí@~uàH~wà@}?êÁú¯ôoÞú¯ÔoßÞöägag_åI                                                                                                                                                    —?}geÞ¡9æ¢$µöÎ8½þ}“ä¡VßÅ=÷¸K’ ÓÍÿïì;3€óÌ¹Ir¸ÓÒ{Ð¿ÛIŽ†
È¯ÿi¶‹’_ÿÓÑ¿kAŽt’¿v!At’¿~Y{Ü¾Uù«U(‡ú£Sxâ    @Cþ·êì«ã´ô&Ðµ°ø0x{¸Œß Æno£·7€Ñã[Àeôú0x}(húTQ}(Üþª’üpFüHß Îª¿kéóÀyõ£'#¿œš?fyòënýàdÊo §çZ@¶üúŸŸ?`úwkùòë_Gþõèß}þÕè?@þådÌ¯Eý— ÿù— ÿ ù ÿ0ýg ÿ0ùg ÿ8ùç ÿHýŸ ÿHùŸ šëÎ1õ*Yþ§è?Xÿ28éœ:•2¿þƒ÷€üƒå×ðþ÷´üùpÚQu©¹þwoþÛ›ÂGÖ•)ï röo•åÏÛ¶¾ÔÔ*Ñÿ!¿Ô“?çÀR}¨¨Æ;€•üPMÿ›äÈ¯åù³Ý¬æ7€júgºØÈo }÷ßÌ¯%ùó`»¿tÜ? ¿þµôÏ0€€üúWØ?Ñ .!ý ’üÉ–_ÿû§X@X~ý«éŸö¹ ïoCÿvû?È“ß ªÉŸô·¾¿¾þ-õù¡ÉóëßTÿ°|¼ªþö˜@L~ýÛëøÏ?ëßkÿÕÄå×¿ÉþËøzýËùÅ¤É¯}ýÿù²~Ikùõoµÿµþæ–ëç×?Ð9ùcp÷ú·Ùÿ)è'Ë¾üúWÕÿŸèþóôo²ÿ\þ=Ï¯‡ý#òë_QÿùüñÐ?½ùSõ—¿ÍþKùõ¯€þC›Úé“_ÿ@ú­þQùõo©ÿW[W*oýïòo.@ÿNûæß€þõÊÿ#Y~ýkê??€çüú—×gÿ2g×ƒ"ý/aùõïµÿò³¿ô¢ÿâ³?Cóëßvÿ¥g»ùý·?òÿýåáõôoµÿú îò_ë?-@ÿ>ûàò”ÿ~òçqvþOù÷ ËAuªžþ3ùo ßýgóß@ÿöû¿¼‰É€ü­÷¯¿0 ý;ïÿU?²ì Š\NÈ?;€TýË\
õÙè¿œÿk ògQ¤ÿVþÕ|¾Šü9”ÏŸ¯ÈÇûÇ«tÇ×¼ý_ÒôOño~¼Õ7€uäêIUß ªëðÀê âêëUGþ°þûÿÅï»øú××ûÀOñ_ó=Õ7€«Jò‡÷þ½ÞL|ýëë¿8€…W	9Ÿ^ÿ;•ä_ÀÌ+ä\)¯ýÿúôõ’ ü[M7Ëëïœü_õo°Ù?0®üuö_È]@©üúß(–ÿe1ÿÂ]À%W~ýÏè¿’ÿæ«€Ï	<]gÂüúß(•ÿe-ÿí ÈŸIáþóù70¿þwêÈ_°þ#mJ%ý7 6uäß€üÙè?¶ù_¶óê_äHÛR ÿ% ÿê ôÏ'þãýS Äy6Gÿ±•Ê¿£ÿ÷ïÿCþŒ2çßÝÿû›÷ÿ-ÿ¨ýß Feòoôÿk!²=Ò¦$ÌŸ£ÿÛ äÏ¨HþÈþ×üIPô<›“ªÿKžþÇPö8›“(¶þGPô0[T ä×ÿß àA¶*þcý Ü)6,Kþû¿ôs¨ÿþ;Â¶Í¿uó?Úï 
_ûÒç?Ò?Õ Êœ]2ç?ÜÏ#%Î­‰ó'ï¿€§Ö‘¬ùoû/¾dk QŸ2ŸV2æŸû{ßs/Zïqíz–,ÿJÿ­—­ö]@¦óé_lýàüŸ­ç^6÷üŸÅ<)$ý±Œ#WþÖïÿûçÏŸ·/Œë¿±€,§2’Ãõ7ûÿ|uóÂ…çÿm.`fYNd4õ£ò¿§¾<ô¿»Wˆèÿµ€Û$>…¡mÇÌÝk ×Åjûåú‹¿ìí¦óWþ»YDö7"žË¯×_ý]3–ÿúGÀ Là/éò¯ê»³8½~Êþ1p¿PEü¤ù µø‰ó@â+Ývúù ù•Œ',yÖüûáRSEþ½Èr)c©#ÿÎdº–‘T’× ²]ËHê¨ÿJþSTR?v ¹/fµäZ@‹G’ø¿?,üñ¯[+oFý3«ÿ™~ywõ·f ÿ	v¶H¿0€ùüû&æÃåYdüÙô³XÎ½t-‚>ß¯Äê¿‘õëé+´ÿi Ûý×¿$¤±ú÷ýƒò[@Gõ÷õ7€nòïëoÔ¿@Dè$ÿÞþÐ]þ¸þÐCþßÿ@GùõïO©þP§ÝùÝŒÞß· 8_ÿÈï1ÀÈ3€âaŽä÷SÀì¯ÿJþæ¨ÿJþìlÿA}>h                                                                                                                                                    7þ=û8Ë¿W¥ÞQÞ÷Ã¾úYË”z?¨ò&]«õ÷ÃIž³Ü”9ëëÿoö½ÀùVÃ‹5ÿ¦õ¯Êj™Cµ¶óë>ý·æ@­€üúW`=LÖþé?vX³;—üÍXï²³–üÉ’E~>©?:õ¹h    ­ùß¦³¯ÓÒÛ@·"â[@_bÓ[Àèé-à2z{h[Šú0x|hRÒü0x}¸Œžß Ïo ÙMêÊo EãïÝ@¾üP¼~üræ7€êÇM o~ýO©¾€Ìùà¬üÐ¿Ûü!Èž_ÿóêo/ ~85ÿÆ ôï¾ÿê ôï>ÿÚJä×ÿìüËÐˆü‹Œü(‘_ÿ*úÏ@ÿaòë?xÿ¹È?Nþ¹è?Pþ™Èßý‡v<ÿ)8å¬z4å€üCå×ðþ¬üúÞ¿ì N:¬þ$Ëÿ8 ý›Ðfÿ³N«?S®è?ZþrýO;®îLÙ ÿpùKõ?ï¼z3å€þãå/Óÿæ|ûöíÛ	çÖ‹)ã ò÷ÿöå¤ãk^“ýŸê[@5ù`®¾Öÿ)¿TÒÿ:€²ù Žü™û/ç×¿Žþ_(œß bé?¶Ìý3`5¿T‘?ãÀF~ýëêŸå÷þ¯ä7€:úçÀÛ›Ô¿¡þI°_ÿ*ògú)àv~ýëè¿üD°ù—¦ºùë_cÿEÉó@Sýcðþúú·Ñ?ý?–_ÿÖú 0¿þÍõÀûkêßJþûþÿ¼Y¾”tùõ¯®ÿ{üõ	å×¿Áþ·õW*¿þuõÌ¿g Ÿ¯¢sýŸóÇ *¿þÕ÷ÀõÏõo®ÿlþ˜¯oþPþîû?.àîôo®ÿBþµ\ððò°üú·ÞA`~ýÃé?¶ìýóë_ƒ–ú‡æ×?œþck¨¿ü-ö_@ô¥êßiÿ?‚.UÿÖò¯õÿº„ïÒå×¿¡þõ ›ý/aùÓõÏ}f=)Ñn Ÿï_ÿ!ûÏä×¿ÛþO˜Ëÿ#U~ýëë·€ë³ôÏvV=*ÖÿÕÓc>úÕÿÉSþ¿¿<½®ü]÷¿¯?³ ýûëÀsþÇèŸÃ¹ùïû}Ê¿k ÙNªOeû¿¼¼<]Áç×}3ùï Åú¿|š¿ŽÙüwÐ¿áþ_õ—ð÷æ äÏ¡HþÛúóý—òÇ È‰õ¥@ÿûúû:²®”ÏÙÿ: ù[ìÿ’¬¿_úšCæþ/	ûûïÏ ÿò 
V‡²öÍ¿ÖûQÀ2Õ©œùÃû‡Þ</ øýãÕ‘“êTÆþáù#ú¿Š¼Õÿqcß!u¬lþ¥þA ìrß Îî¿x±ùC‚>¦7€uäù	À—í¨óåõŸÓZÿ?Êy–-ª#ÿÒ R××¿ÖþÛOI’_ÿG'åÿëÕÝKŠä×ÿQŽü›ýßê?. D~ýKôßÈÿUý.àñJõÏ"}þþ·ù—ðtò·Ò?*ÿÃ –éŸGòü±ý &©ûÇæ€ü™Èÿ²š¿Xÿ|gØ´¤ù÷ô€þMôß“¿Ð@¾l\Âüûú/àû›÷ÿ­.¹óïíÿ^ÿs òg“¹ÿåhÿ(rÊ›oÿkþ÷ÈŸMÖü;ûßæ?>€R'Ù¨$ù7oþçõ/sŠíÊ˜gÿûüPèVäæ¤ÿ‘”9Â¶•¸ùê¿ e°u™ò§ë¿w eŽ¯}ùóì¿o EÎ®9ò'í¿g EN®¹óî?€ÇÖÌùc~ 8ß?ö‘àì'Ö™ÄùWúßþ×%¼Ü2ŸVâëGäÿ,þð‚¨þáÈtBK˜¡ÿãËæ¯ãûÁ¤>—qDÕÊÿ6€À«Xéð”DG1¨lù#|ÀÒ~øl,àPÿhÿ|.àyß-ïêgÍ¿Õÿº€›}ŸÜZ¿^ÿpþ€Ü,€\æÊo×ßîÿóçñþp–—ãùÓ`yÖq^ý ü‰ú?uvÿpÔzÃíú‰ú‡ þÞekCâ‡|ñ’_ÿs,ÔK–?þg»ÿñ¤»”T“_ÿST“ÿð ’^Ë8ªÉp ‰¯eõä?4€ä×2Œzò@†‹E=ù÷ ËÅŒ¢žü;éZ†QMýWò——7ÿÿûßÿF¼ºüåå¼ñÿ7²Ü"/†yïúŸûÿzµúÿ#q)êÿ¾q}é]þ_Þ”úÅŠ›þiËõ×F ~iûÚÏ¤_ÀRþåûõK‹‹¿Ø~n kùã&ô#æÉŽÏ÷	ú¯|Q¨}}¶ê?`;ÿÖ·4UOè§þ¾þÐMþß{ò[@/õïÑß :É¿·¿ô‘ï' ¨×Þüú}óëo ÝõwÐýÇ¶?¿o{ ÿàöç÷`ä@ù‹@òû!Pö×%ûö×¥~öµÿ >                                                                                                                                                     Üú÷Köw’ñp´~¾BÙß‰ò?ôIÑkõPYþ›@‡Š½ÿÍ½y¨ÇlŸ·BG’-¼U¨ÎV©]ÅÒ¾5@â5Ñ[ÿŒ±ôÜb¡fÿï]Ø”¿^ËòÏ@þÖ¬ôYi¶póß@–€£ÒÖ‘Ÿ7ê#>   @Óþ·æì‹ã¤ðVÐ³ðô&p=½	tbzhÞñøp½¾	\F¯o£×·€Ñë[Àeôü0x~<¿0½©3¿H£ºüú—‹¿cÙó@Ñø‘(_ÿÒõ#P¢¿”Ï¸€"ùõ?#ÈÊä×ÿœüÛ(Ôß N©¿¹€Rùõ?+ÿú ôï¿ÿTA~ýÏË¿2 ýGÈ¿< ý‡È¿4 ùGé?? ýGÉ?? ý‡É¯ÿàýç ÿ8ùç côÚ¡ü3Ð¨þO¨ü§ÝœrZý9Üÿ¤;€sN«;Çóë?xÿÇÈ?V~ýïÿ0 ýËBÿ³¬3SŽè?ZþâýO;±¾LY +ZíÞ‰u%]þ»è?tùGì€ü#æ×¿9ö?õÌ:’6ÿu ú·¡Ñþ_×ÿíÝYÇ×¼)Ó Êäÿ¨oÕä/Ò&¿TÒ*Öÿ®¾ŒÓ>¿þ5õ¿Ïo UäÏ°”ß †è¿œ_ÿŠúçÀJ~ý«èŸw ký ûþ«ùõ¯!ÿæcÀ¼?¿þUô_û)àýìÊ¯3ýïÏ\AÚ›¿þÕõß”2¿þíõÀûëë_}ÿ§üójé*Òå×¿Æþÿ\Í_F²üú××ÿ¦þâÂóëßXÿ‡üH”_ÿ:òO+ù÷àóõôoªÿ\þ=Ÿóë_WÿÙü;ðõJú÷Ð?r —àüú7Üa ·¯¡Sý—òG<t‰Ê¯Ûý7~^¤ÿýWlç×?Šþck«¿ü©é?6ýÇVÕã	òëGÿ±þóŸ¯/VþNúß×€þö¿ä€»ÿôN}ú×äý3œPßÎ|úçMþ èßjÿyúÝ?6¿ŸýõßÿïOsÿúwÛÿ¡þüäOï¼üO_ýßÕŸ]€þé•êÿòáæEùŸ ›ý?Û/`)ÿÓ äO/þ»ú÷¸ñwÀ äo¯ÿcý…þóù#ù˜º•7ÿsýÈþ¡È}LÝÊÙ®~–þù©_¥óGöø0ûu-[ÿ—,ýý|zWEþ•þsK_}ÿ—œýI¨†üú÷Õÿ¥žþ|8øfúUÃÍGÿÏ®Ëe¯¯ak
æ_ìñÀlÛ›ºÏd eûïÈ×ÿ2bÃRçßÕ?ð' GêÀ‚Äýwå_@ÊüúÏJ›?sÿ#ùõŸUEþ°§€èŸC™þ›—!ÿIŠäßîðPý³¨#ÿÓf^Aÿ®ûß-`îåÏ¡@þÐþŸ¸{É÷ïŸÿKÿ,å?~óŸñýÝûÈŸGîü/Gó@þ<êÏt ©NªS	òçèÿ=UÿTçÔ«¼ù_ä?4€dçÔ­Ãù/¹ó@ªCêYÆü/iò¿@þLòåOÚ?~ ÉN¨o‡ò¹ùï@ªê]®ü	ûï@ªãé_¦ü/éòï@²Ó@Eù—úG ÕÉbWýü‰ûG Ñ±¤–üËý#~”äD[+úþÁHqJyãOóÐÿ®¤8ŠA¥»ñgêÿù„õ3IU?ÉO~ãpøãg3~Þü›ýWžvèãæËZûø™û_p³ýï¦÷/›kZÿ@þ°Ü,€ãÂÊ¶?˜?¬ÿÆ¬$Êf¿ðôÅú/åu7/2oÖü1x({/Á§šòÇõ˜môO9€$§Ó¿’ùþÜzù‹+×ÿçÏ‚Hw@+š¿Ü ÒPï
å/Û?Ùéô¯Tÿ ûÿTHs4c(”?”ü¥U•?Eÿt3„ªò'@Ê‹BUù íÅ¡ªüúb†PUþCH1C¨*ÿä¸˜!Èÿß7a¯+qyë¿ÇÏ;€ý;û°#`ÿØýó.[ý=ýc°ë#æN®ú·ˆù’¿´Lõ¯ˆüÿR¿°$õßøzáCþ_·VÞ–ú…Š[þi—…ú+P¿´]ñçÒ/`6ÿÊÔ/-UûÙ,ç»Høñ2#ðþFý§þëùW¿Ð¾:›õŸ°ÙõBZ«ÿÐ? ¿t•Oè¦þÃ û[@?ù÷õ7€^òïìo ƒ÷7€>òïîo ÕÚ›_ÿ±oþ>t¡Pè¯¿;€ìÏï;ÀÁû{¨ûó{¸ûóû!Pv×%öÖ%öÅ'>                                                                                                                                                     <ù÷ÝÙ—Á‰ñ³MÀ¶ÚÉŸ:Tæi‘<ÿµÔ‘lsoÕj4_ê@¶doˆJúGuK¸$*éÑ-Ýh°²QÊ®þÿïCÜ+õ!‘³ÿgû¹	èßžcùï ‹bòïï_øƒ"ÂB¨¹lkù×PâÃà€ðJK_ý}½õG¦>  œëÿþïì+à,ÿ÷áìëàÔü0výÄýÿ é;ä`þÿ+XÞºì™ÞN–°þÞô6p¢TõÇ·“ÔpË7†¥­o—ÑëÀèù-`ðú0z~<¿ž_ÿ±óÀàù §éN•ùõ/Ò~ÇÊä×¿`ý˜Êo Eë‡/@ÿNó‡- X~ýK×Y@¹üpBþÍèßwþ”Ì¯ÿù× ÿù× ÿý§*òëVþÅè?F~ýÇÎ¿4 ùGé?? ýGÉ?? ý¤ÿÐvæŸ€üãä×ÿÿ³w'Yq$‹Úvùú©9åÐiß!¨—šˆrþÿ¢ŽÂ3s«ÜlïÎ½‡?o8ˆ@äÃÜý ÿDù ÿÙè?µCùï ÿÉœ¶›Ó5šƒùï ÿ¹œ¶£ó5šo™ ÿdùõŸ¼ÿõ äŸ-ÿ·ùõŸ»»S6’,ù¯ ÿÔýåŸ±ÿ× ôŸ1õþMÏÚ8¾e€þS÷—ÎüúOÞÿ} òŸ‰þSË™ÿ} òŸÈIû·>mÃÐjyó¿@þ¹ûû¥ïçqòþÿß»†gðÜ¾ñÀm}è«ÿCõüÐIþ
ýóëßSÿÝ™Èb~è¤ÿþàóƒgÍ¯OýWÛ^øŒùõïªÿbÚûŸš_ÿÞû_·]=€lùõï­˜¤þù Ûþÿ÷añrå×¿‹üßVë¯- ËÕ_ÿ^ú[¯¿²€<ùõï°ÿ]þô<ìä×?^ƒüKˆÊ¯ÿiú/æO» ìç×ÿ$ýS¾¼¸¥þgé¿’?þ¯!ùõ?uÿ\ÝLþAû¯,àæ6žþãö_XÀÝ-ô¹ÿ‹õö›ùõ¤ÿ&ý§î¿‘_ÿ³ô?p¼úçU4Ä÷ÿBÉþþGŽWÿSõ|ù/˜ËÿÉú½üNþ³õ¿ÀÕýý&âpõÏ­xÿË<,å€þ¹•Ï¿â³~žþ‰z=ô€þ£ôÿ;oÿäÇ?»Fù×úÿ|±ñnòŸ³ÿÓ‹Ë7,åÿyaå~ä?Yÿ§ký/ë¯.@þÌJæ¿i5€Ýüá(|†W¨ÿRûåÀZþ•¨ŸW‘ükõïðñ¿ûï_ŠŸžáè¿Qÿú‹À/Ëù×ÿ& }.ÙóoÖì¿õWAò¨›ÿ)*¿œ­R~ýÊš_ÿ¹û?åîo ÅµÏ¯KúÏ­}þ´þÿ/T™Ó6ŽjùWûÇßúéÿ­\~ý·5úo C}ØÑ>¿þ-åÈäêÿ¢h~ý·5úëßTõü?^]½i+ÿ÷Ÿ·Ô?»£ùãú¿Õ¿]Àjÿ×ú?¿6ù÷p•ÿs òçW:ÿÓrþíÜäO@ÅóxZGò?¤çßø"àá.ÿÇ äÏ¯lþ§Õü7ø\ÀÃRþ¤@¥xvEóoõ¿Àµï‡Pô¤¤Uþ­Üæ@á“6’rùwúÿÏ;€â'm$Åò?mç_ÀRþ¸ïT8i#‰®™µÿàüQ¨pÊÆR&ÞþÁ¨p¾†S$ÿîåq kùCPç„¦@ý€§ÿÒ Öû‡¼Tåd){þ´þù.•ÎÕ0.3ÕOÉ¿ÙÿGTÿíK@é³5œ›Rûõ#ò§õßÉ¿u	(~¶Æsßj3~Lýbý¿.W(zžFµXk-~rþÌý/ð6R§gxkÁÞ6°uã˜üÙû_-`Uø-§µÑlû–qý²÷ßë9•imV[½UlþýWË¦\*¦µ×.¡üâŠô¿«›p¡˜\rß¸üá¯ Äö\7*åÿ¤ÿÜý_­ç/0€b§n-ò¿X©¯mmòo¿.ýçÖY~ýkë+æd9Ccë­Îä8?Ã«™ÿ×¯_¿öŽGÿÊêåí_o ÙÎÐØôŸ\µüA×ÿlÈsrfP+(ù+ë+–d<š	ô•?Ã ²ÍúÊ¸Þ£™AWù ÷ÑÌ bþµW/©_[Ùü»?ûuKþÚªÖßËŸ:€,gbRÅòïÿäß"ùk+Tÿ~ aï¤~m…êoüàMòWW(ÿåbÞIýÚÊÄ]ÿ…üµåªÿûÍúþ}±?ê×v8þ{úÍü{açîÔ¯-1þu÷­\Ö™øµEÆ_K¿<€Åü;+¿¾À'þvüÈþ›éû³[ÿn ;ùƒ¾,ä<õãûÀPùÇæ·€¡ò_ ¬¿”?¥¿Œ“?­¿Œ’?±¿ôLÿ©ÅäOù€ô-9¿þC¨Òß ìï0„äüúOÞß·€†œ?| Á’ó{h©ùÃPùÁ ­þùG‘ÿø                                                                                                                                                      ·þ{×ú8hY?÷,ê|ù³l óÝQ7ÿ‘vYî„núÇµËµ"ºéÓ.ße„nú‡·Ëu¡ª¸þ.…ÞOÝD¡þWíï6 ÿI…ö_Ìÿ5 ùÏêPþý@£GE¸çnjÿ6ˆHûévòûæÏéíÛ¬¿4€ÒLgÄ€n<>¶>ZyüÔúHhYßf¯¯ÿäùóà9TŽFÆúGû—·‚>ó?ÖMocä?ßúÈŸÔ?S|¨*Sþ¬ñMàdùÔ7€*ú­o5ôyé7€jŽ~Ñ_²¾t¯p~˜<¿þsç7€ÉóÀäùõŸ;¿Lž_ÿr¾]ê4¿þ5âÇN b¨T?b5óë_¯~àªæ×¿fý è?rþýè?tþ½ÔÍ¯õü;ÐôüÛÐüü[Ð‚üßzÉ¯›þ«ÐŠü«ÐŽükÐÿ¤ôŸZtþ•È?K~ý'ï¿8 ý§É¿8 ùÏHÿ©%æ_€þ'tÖþ-ÎÕ€’ó/@ÿóÑjòß@þóÑnß2@þÉòk–_ÿ.ú_@ÿéò7ëßî”%gÿšùõï¤ÿÅ äŸ0ÿ·&ùõï¦ÿç ôŸ2“þmOÛ0¾e@ÍüúÏÝ¿õyDžüúOÞÿm òŸŽþSûvÒþ­ÏÛ(¾e€þgsÒþ­OÛ0ôŸÛ9û·>kÃÈ—¿æ ZŸµqè?·Söo}Ò’»Ð ®¤õ9IíþŸXþ1ûo†½úÐúÖo ·[þ±òoö_úèòØÿ>ëê‡—ÄþWY_ßðk_þût}ùÿþïËÒÈßT¡üŸ.êg@ùó1›Âý¯ó/. ¹þÿ÷ªØ™™CÙþwù—® ‡ò@ÇýïóÀr}è·ÿRþÔÜ¾‹þyÌÞ ù ÓþËùW¾Uÿ:¿þôßÀýõ®ÿêöòë?FÿÅ,ÞNÿlºøòïÂ~ü»üúÔÿÍöwzå?EÿÐoÿDÓ?Ÿ‚ù¿ýÍå?§ªý³±ügé;€¤üþýû÷ë·è–þ»?ý–ÿfògT6ÿ‹cþï÷ÐÿTýWý‘­Â‡¥‡þ¿	î¿<€è‡Ë¶ù#pùFõOÞÿïcýÉ'oþ§UËùw°ø	€>û¯×¿^ÀjÿŸ/®Þ¢ÿyúoç¿XÀrÿŸ¾ÞªYó/õ_¬¹ ýOÒ?ÿÂ Vóß ú™™D½§ÿÅ— ûù?àPVÅüW	¸´”ÿn •ÎÇlòô:Ò9ÿÇ ô/«ÞÓ?¶ÿÛ |(«^~ýí,h(£Û§¿@óïõÿzþ¯àÿ](qŠÆv°ÿÓÁþ¸éÿ}#ûµ²'l0ó§ö_¯oqŽä¯Úÿ{p~ˆÐöéÓÿ{x~W>ÿeÿ?~ü¸úð[ý¿/÷È¯°Šù|Jêÿ1 ý³*ÿé®þÕÂó@ÿ¼Zäÿ@Lÿ·ÈŸYBþèþ·ù÷°˜?øÐä4žÎG›&ù·°üô@ýSyF_ubëGäßè¿1€µüa¨~&Ïé¢O“üëxXï0€ê'ò¤.•Êÿ´•m [ù÷PÿDžÔõS´Hý½þK|ØÎ¿3€ÊçðÌn®Ñ-òß}/ðãÿÝê¿õ} J§n7•¶pÿNYú_à!(ÿú ŠŸ²¡ÜuZ_ÀÒ»çßìÿ#!ÿòKÅÏ×hJ-O`ù=²<ýû_¾,~¢¥§ê›Åø	ùCúÿHÊü1·ÌòÅ:øæ¡ù£ûåŠ¹•É¬ä
¼qóþ»Y£¯³YrËðþ;ùïœ3lì¥bFëOÙýÛçí“%mì…bV›Ù6oÒOÿä‘p,nh~ýûÕGÿ¥óë¿¢F~ýû5Iÿ&çö*äü@ÿšjäßíuDú×?ê€òWU#¿þýª‘?î ô¯ªFþ¨Ÿ ’Àþ¸ú‹ùõ¯¬Nþ;kùó À9J“üXx»üsô_%]åÏ;€'htUóÿúõkï&òÛÿ×‹½Ò¿®zùÃúg@®4ºjùƒ®ÿÙúg97S¨–?ü•5É¿öÏ?óàè)™Jƒükß |#]µó¯¿ðNþÊÊå¿+½ù
àù++?ô%àêWÖ(ö¯Êœ	¨ŸþôO@þÓ2‘üùC~ÿÛ*ùkË_ÿ]tûWêWW¤þ«Øø¯Ô¯­PýW‘ñ_È_]©ú‰Ô¯®£ú/Ô¯.OüßïVþøßW!w¤~}ã´_]À[ýÐˆß@|üëê[¸ÌŸºäF°Ðö«å—ûßå‚òÚ‰?€ü¡_p¢ú‘ýM`´ü7Øïo cåÿ™ßÆÊŸÐß ÊŸÒßÆÉŸÖß ú¦ÿÔ"òGýo ýÓn©ù#ú@ÏôŸ[jŸ ‘˜ß· Q¼“GE¸´ü¾<Œ¤ú/äDZþ€Ô|Ýþø                                                                                                                                                      pç¿w­ƒ–õ3À”NÿÀ
2‰vùúåÙÝôê—í"B7ý#úå¹„Ðqÿ?þü¹úŸ÷RëA.¤ÿŸ5;wÒê1a¿ÿjþÈf{ý7ò\ ä?³ô§ÿVÿVçal³_Zÿ­Uág+ß~ÿÍwç$VëíÕ¿@ÝÃ¦â@'¿´>ZÖ·€ÙëÀäõà9F®ÇA¶úÉˆ
oýæ¬ÜÞºªÝ?O|è%TÿœñM ‹ü-ëÀyò©oäÈ_¬¾œàé_²¾Ìžß Jê¿¾”t†üú—Óñ~PÃøÕòë_V“—yàôôŸZ½ü0y~ýû£ÿÔªæ7€r¾]8cÿ¿þú+Çi˜Óeü¨	<÷Ôß rÕ^@_ý _þ°è?lý<wÖß ræß_€þcçß@Gý}(‘g =õ÷7Àù·ÐUJäß€þãçß€þ'¦ÿÔ‚óo@ÿò¯@þÓÒjQùW ÿÔýkç×¿Qþ•ÈVúO-:ÿò ô?©sö¯ž•i •óëŸ‹þSKÊ? ùOJÿ©%æ¿@íüúÏÝ¿ÕéÎ·,¨_ÿæù/ûË?aÿ‹è?uÿêùõï ÿ× äŸºõüúç¢ÿÔŽåÿ€üg¥ÿÜ¾e€ü³æ×ÿÔôŸÛ9û·>kãø–g úŸÔ)û·>iãøvÆþ­OÚ@ôŸ[®þ5ÐúœDÿ¹Õí~KùOÖ?ë×•¤üaý¯>¬üãõßŽzóqõŸªÿý–¸þ«M?²üÃõ_lºú¡åï@Öü÷I7?¶ü£õ¿Núððð?¸ú£õÿjúpYeò7—;ÿ{Ô»úÇPç|Ì&ÿ·ù?¨?Oÿ#({&V1ÿ¯‹ž‚©5ïõº¹UÌ¿Ög å;Ùþõ×¡þ›(öÀyU&\ÿÈWÈ¨LþÐ/ÿ¿¨?wÿû	ä}œ,+”ÿn aG#þ0ýw¿ûOŠå¿ÀãûþêÀÐªoù- œLùŸžŠæ·€žû?}*—_ÿ2²æÏ<«þÐiÿëüGpß ŠÈýôÁß‡šþ5Ë¿:ƒ¿_Å÷7€ûïæ¿›À[þ€è_Cé§ÿí>òï@ÿªä¿ÀzÿŸ/.ß` 5ÉŸ­ÿÏKoÔ¿†*Oÿ¥¬Ôÿ€þ5ÔÉ÷ÀÃzþÜõ7€’ó'ö¿µÿm úWQ%ÿS\~¨¨F~ý»ó¥Çü¯¸ïo Ù\dI¨™?[Èå¢Kùü	ýê_Ôe˜vù£û@×eÊÖÏÚß ²¸NS8Öþ7øÊœ§QÝ´	¯Ÿ7ÿÑþŸõ- Î]Àú)ù¿úÿxsyñý¿¯ä×?Â}bõŸnê_/ ¡ÿ× ôOµÔg/~Zýû¿¨¹€”þ+¨qÞF±ø½^ÀöûÌ¿;€­ü‹(~ÊfÀÇvnßÿ.ÿç ’úß ôùÍâ“4ôÖ9òï`§Ä·ân=‹åNa7î¿˜s {ùƒ›FÏekÏÔý›Åç_ëÿ>€ÅüûýƒšÆ_.&±•kë)ý×ò¯ $@Õ”O“È”7$ÿnÿÛ¼¼%¨ÿvÖøO3©×=ÿò Âóo•»RÌ§¯þ_xˆË¿\7îB1¥.ò_¿ð%²ÂB¦×sÿìùõ¿×GÿUòë¯üuú×?»ýë¶þüú/¨“·ÿ
ùõ_Ògùk©’_ÿnuÒÿGñüú/«‘¿‡þMNî	è?·ù#ûË_S…üúwLÿÉ•Ïù@ù«ª?òÀúWU¡Ü€òWU!Ü è_Wùü;¸¹­üuUÈ1€›ÿ¹Ð?÷ jœÃS«ØÿîK/ÿË_Yùü¯ÁïÞ°Ò?ï Êœ²¡ÔÈ¿ JÿÌ§jLuûÿúµÓ?ç 
œ­ÕÍÿÞÿ} K·‘¿®Šù_ú_] –n#eõò=ÿ×¿ Ì6€Ü§i\¥û/TþQ| yOÑØŠæ_ê¼ñ òWV.ÿbçÍo¾¿²âù/Bï¼ðJþÊŠÔ_ø½wo)ðm€Â§jLUò¯Yx_ùkË?¸~Ö”>KkôäÏ:€Â§hpóGöÏ3€²ggÙêßÿ©ôvÿèd?ÊSëü‹7Ìð«€’2—²Ô³±õë«\‡úõõS?Ûï‚&J¶ø¿ÿ>~4ê7p¼þïKøï‡ »Ò¾…,ñ—ð™?x·?Hh•~y Wù£V@’o`)¿Œ[?ª¿	Wÿv {ý-`´ü¿ãò[À`ùãûÀHùú[À@ù“úÀäý`”üú(±¿BÿÉé?·´üþ0ý'—”?x M1’òûð@Rò‡ úC!I|ýê%.þñ                                                                                                                                                      ü÷¦õaÐ0þ‡£w”óÐ¨ž?1ažÑCþø„DOýã
f¹‚pÖþïn'êÿëÏº»Xý(5!6ûoÔÿÀ~Ÿ:¶õôÿ2€€Ë¿t,õé¿ÚûCÔ}pÈÛç#Ô|`„YKÔÿú½w?D•D¤å„Aù/ßyÿC}±($¿¶ Ð™Ç­‚fé?µ>Æ7¹,Õ?4€çX9Yê' :¼!t[?v ‡Û›@gù«·7Žê‡öÏßzÉÿØª¾t‘ÿ±U|è"ÿcÃüÐ>ÿcÃúÐ>ÿcÓüÐsþòõ qþÇÖù ×þ•òëß2ÿcóüÐeÿzùõŸûéo s?ýõo—ÿ±‡ü«ýÿzQîìTýŸ7ò@’µÀ]æßîo )Öëž¥ÿG~È®«¯þöû@v]åßío Ué?”oß¾};y8ÐþS·ý ÞúáÐÌú¡è£¿È4 ýÇÍ2€Núû@‰üè$¿þEòï —þ¾X$ÿî ºéï5€"ù÷ÐOÿ¯d?G3çß@õü›? $ÿÜý_ù=Ìžs ½õ'þ­È?uÿêùõo} úOÝ¿~~ý[ä_€üS÷o_ÿ6ù ÿÔýåŸ(ÿý Zä×¿›þMòëß®ÿõ äŸ-ÿ·öùõoÙÿr úŸÞ	û7<[Ã‰Ï1€6ùõŸ»Óó5šoG ÿ”ùõŸ¼ÿû ä?=ýç¦ÿÜ¾€ü³æ×çëßúŒåX?øwv§ëßú„Fÿ¹­ëó5ýçv°ð 2m¥ñÙO•þLÿáú‡4½øpòwæhþ€¢WOþÁúï½ù€òOÕÿîêß—£ù·‹.|@ùçé¿øå«ÿjÐµ)GŽç_ºñ!å¬ÿ}Ñí©~?rä¿-úò–ÿ{³üAåïGŽüWE/ê¯.@þÁú½Éø
PôÁsìŸÿ_úŠu™ÿè J=lr÷ÿÒ?î•CŠÉŸÿºÿúÍäïB³þ{ÈøY—=À—äo/)ÿÓ«µ»ÍŸðÍc²Kèÿ–}¡õ_¨ßØ‘ü[W`åëÿžÿ>‡q0Ž\Làò­ß/¸÷ƒï>ºÈþwù³,àÞUý#8:ŸÑÏ_`÷õS#¾|Œ.GþÜXÌ¯1ù7úçœÀrþ¤Š¾~ÎM©\ùó-@ÿ’nCå¸úgÀZþ„ˆG¿xÐ]¦¬ùsl@ÿ’îeºøgÛÀjÿèŠògèóŽå' Au
å¿Àß/Qÿ‚–êÊ;€¿­ÿ‘¯F×áÝÒð÷ò ~¾û|ƒþ-Æ)•¿ÿGüË¬÷ë(ÿ‚å:Ûõ“ó/|xXÏÿ±€LýÓ¯#î¿ü.Çú?l×ÀFÿ˜’ú/Y«³ZÿPþ§Èü» ÉŸ6Æ¶šg¥þ±üñýæº È¿d3Ï]û£õ7ûÿLêÓÓQÌóóxý„§ÿË 6ûÖÔYD¡ÃõËôÊ™ö9cÁ‰2ÔO¹ü¿`§HOýW„5Ê?¹ÿñ¤|Æ˜Ãn¥\éwòê¿WTþU©r–/Ü§©þ«òGÈÿãÃå‘¤þß‹w±˜KƒþŸõ¯p¬ÿFÖ¸kÅdê÷¿Ê±€£ýWÂÆ]*æÓ:ÿî B>ý¯·¹PL©rÿûüŸÈÑÿ*pèF¦Ö>ÿÎ ¢ó®ƒúý—ó ÓÓ_ÿ5óïô_@îüúß¨Ø-ÿÆ ²?ýõï±ÿÚ òç×ÿFù¿¾t]ßÓ¿¼¾úßü€Üùõ¿S+ÿfÿ«—.è?Lÿ	ýå¯ ‹þ?ªä×Aü	ýåŸºþüú/ª’¯ÿý ä©ÿØþùóë¿¬Fþèþò×£ÿÜ*äýü/E5òëß±ú×?«çQ!¿þ=+Ÿ¿uÿÚgô\ôŸ\ñü‘ß –¿®òùã^ Ö¿²òý£~ DþÊÊç¿ìû¿Kû¿ÒI<³âùþÝw­þåÏÞù•ïÿ‘ûþ-¥_þ-{æQ<ÿ{í…7î_ð¤¤tþ·Øý3 Ô	Léü—ýýúU­Ñ“6’Âý/CÿzÀò(|ÒFR4ÿõ§ÿÛç¹ .x¾FS!ÿÚ×ÅPèT©Bþ•¿ÿ•úPî\©BþÕþ%PîLª|þåïÿ•@É35¨òù¿:ÿ(;€¢çi\ÅóÿXËŸw eÏÒÀ2×_š@É34º:ùÃ>¤- Ð‰™E¾ú»_ãïþ-0e YOÆ”råßúð­Ô¯/Oý…ý7o¹ògò7¡þ{Ö£~Çëç£~Ä¥~½Ô%~êÿ~·ôgÿ~»+éÈyŸùÃ'ð5‚ðƒà°¤«þUü…\å=ºK¾Ñ1¿Œÿn ›ýM`¼ú‘ý-`°ú×ØÏo£åîo Cåïo#åOéo ÝÓj¿Ëö7€!û» Œ"-¿À0ôŸ[ZŸ †‘”ßw Æ‘’?x MQRò{`$	ùƒPý*¶þõ‡ÿø                                                                                                                                                       °à¿ÿþû¯õ1Ð®ý§ÖCËú©0 aò§<> ºÉpõý­âÜýÿ|¸xû·­ÝAŽO,¶ÑÿÏžÕ»Xy{«ÇÈKµ·¯åÛÍÿ>€õë‡œÁÑþ·w°qß-»²ößºïêŒ ‹ƒûïýí_ÿþ-$ÎÿõÞ­Žžî†÷gH÷­Õ€x¼Ôú`h×Þfo³×ïÿ|P™ÇGRü¸Moæ¬ßºª4€¼í §úûýÔ·€~ò?¶ˆo ½Ôßì_°¾t’ÿ±U~è;éúÐCþÇ†ùõoŸÿ±a~hŸÿ±e~hžÿ±i~ý[çlšß J8Qþ•þ½*|šFu¦§ÿò Þò@ùü­ó?oä·€âù{ïo ƒçßëo ƒ÷_€þµòŸ ¿Ä8ž¿»þ0ôÓÿy/¿þC?ý÷û@¨­Âúo§oHþû@ ½¼]öwÈ% îîô?¯ý¸—·y8OÿëFk®ÿi…äÿ¸Õêë?Pþo¯în¸u/úŸÕmþ·øËX×>¿/ ÓläX€þgµ™?t Õóoþ ˜dË8 ý‡è¿?h õó/ÿ°þÑvó Aþµ ¤ýü»h‘õ_€ègû“À šÔßø@úG	xúoôoû€é#$ÿê šåßü€òG¸ú¯ ]ýÿ©¼íü‹è¶ÿÇ 
ª!Å÷o˜ÿßËŸ7ÿÂ ºîÿ áþ}ç'wÿÛè?WþŽú7:I“÷¿€þÑjßâûË?]ÿ«è?ýçvªþíNÓäù¯ ÿ8ôŸÛ©ú7<O£Ònß ÿ8ôŸ[JÿVhxšÆužþOÒÀôŸ[Bþ¾þÕ=÷Ï¶–vghp	ýƒ“FÞ\ÿ±úÇÞ^þú‡½½þM$äêýò·‘Ð?¤gìíåo¥HÿèwÿDýw{F¿ƒüíÄçßí{{ý›ÊÝ?ööò7›;hìíåo.ºÿFÐÈ›«ß…ÈüëE#o.'bû/]¿ù{ñôîöíÛùïß%2Yíüß¿?|ãÆ\Àý»]Ü<²Xíú°]?`Kïwyó¸bÕóÀNþû,þw@¶Þ'¦W­úú‡æ_ÀçÖßïÀ1ÔÍo »ý÷c&½Óºòõ/òë¿—¿eÚj6×OÍ¨Lÿ§2³Ù´›ÿ"atÈÄw›5ÿS‰wÛ?®dênÆö”Trã½Ž.àz;õ#J&_7Æ–r3ÿá¼¸ý¤¿V?<¥þK’:îäÏ³€Ðü-“?mŒ-%ã~þÜØÌ3õ³Æè2†äÏ»€ü!5õ_]1°~ÎìæßÏ™rÉ˜BlÅðüùÐ§gÊcq£êçZ@Hþí¢ò¯
Î>Ûû¯G¾\L$5kÅ	÷_«ªÛþ'Þ¹kÄRæS©ÿ‘Äô¿/¾“)UëŸ¾€¸þ7mW2­ûÿ|—Úÿ"oÐD¦öÔÙ >â_N a û ³þ×ùß ÿýŸ¢ó¿@ÿIúßç€üsô_Ê_d •Îíôßÿ§þsô_É¯I3ö¯unÏ Ÿü«ýê_þsÓnmúÿxu}$ú·Ð"ÿ[ýÛÔêßà$w¬Aÿ¯üWÐ¿‰Úý¯ê_`5¿þ%5Î¿? ýÇîÿ9 —ÿšçß€§a5û/æßþàoÃ÷ßº øîiíóoü%PþòÚ÷_@þþhv–ûU-HÿË¼ü/ùgèóRÀ—Ìùõ_R«ÿæý+žÔ©”?¡æüú÷Úy ò×Q'tÿÜùõ?Uùk©“³ÿòùõ_5EÿÊçôLªäë/MúÏ­Fþ¨þòWU#¿þ½Ý³y>òëß³òù£^ ìþ7ÿSÿæÊçÿ
~÷†Âýkœ¿³+Ÿÿ3÷ý[Êö/~î†P­ÿÂ›Ê~û·ìyFéüïµj÷/xÊ†R<ÿkí…7-¾þ«u¥ûÿhÒ¿ÔÙOáü—ýýúõëëmEPöœ¥Bþðþ™Pô„¦dþÛþUú<Y*Ÿÿ¶ô²(sšÆÕUÿã(rŽ†V<ÿZÿ(r†W(Zÿc(pv&P8ÿjÿì(pn¦P þÆçùþéÈ{R¦’?ÿòï|Ýÿ£ôd9³ÊŸÿ õëë§þùëë§~ü JÊ<úÉü¿N‚nê¿P¿nê¿P¿^â¿R¿Lõÿþý{õÿý÷ßÃîFûŽÆÿýe%þ‡ »S¾º<ñp™?fÔÙþ&üÊ ò›Á¹­„_ÀF~0~d­þÍ vû[Àhùcû[ÀPõ¯úå7€¡ò'ô7€ÉûÀ8ù“ú@ïôŸ[RŸ †¡ÿÜôŸ\J~HJ~ý’Ò?p mqò‡ Åƒ!Elý T•wu|BÚ¿Ó                                                                                                                                                        Þý÷%Ëå:.
–^“ý®ó>
¶OïUfSÔÏUëÏ«Û»z{ëÕÛKlŠõ¿býÙ|÷Í8©ýò@ÿÎé?¹µ$«­þdìßìQ$ùé¿ü@»Bª»xqý?ß¿ÕñsØM¾¨üŒGþÉ-µVàD?µ>Z•7é,Ä7€Éã§àùKèívoKƒøqýŸ3(ø8‰¯:€é- Ãúý3¶·€îò?Ö®o =Õßî_"¾t•ÿ±A}è¦þzÿ’õ ›ümòëßIþÇ&õ`öüËøëEé³3¼ÇƒýŸ[õÍoó?6Ë¿4€þP+ËþÏý`üü›ý FþÇ–ù·û@…ümû?oö7€Ñóïô7€Òù;ïo …ó·îÿ¼Óß ¢dÈ¯ÿÜOÿÎú@åü½õ7€¡ûß@ÿÖù»ëo ôŸZ¦üýõ7€ úÏ-S~ýç~úwØß äÊ¯ÿÜùõ?¥¡ûÀ®lùõ?£Ó>ýõŸûé¯g}öö7€OÿúñõÏã`þ&áõï¤ÿsÿùõ4h(Õ¿m~ýs8o~ýçîš_ÿlù;Ê¯ÿÜOÿðþ°.(÷bþ¾úoå×]è“ý>ëþ×£šÀüKzê¿™_ÿóëŸCzþÖý#òë¿*=¿þ#HÏÿpžüú¯JÏßQÿ½üúxúë?€ùÎ“_ÿ5úÏí@þnúïç×¿Dÿ–¸<ýÓÉßIùåoØ?.¿þs÷/qæÆp(ý=ý8”¿]ÿ¯CPÿ˜õ#s._G ý1GêÇ½ýñüOÒÀŽÔèÿ‡òç9738R¿Óþ9NË<ÔÏÿ©ùž	¥ÇoÝ_üö¢ûÀ×=©?aÿ¯;R¿Ž§/Z¹ÿÅ©_µýÚZõW¿~üÅ	ÄõÏ•ÿ«¥³1—µö¨ØÿòÕ¯W{{1Ý²åí¿ÿÈ¾Êy¾f½€ˆrÙò?Ä´·€üõ/Úî¹VþÛôú¨5€£¶7€ù¿ÐKþõøP"¥K@Žøú—Èõe`ÛúP"ÜßKå‰¯™þ±ßjV_ÿ2ùï_(T)fp{ýËõ_xe0oþ¨Êú×ÎŸøÒðÎ3Ç7€‚ýã°wÛõõ/×?r KÇTðÂ¯ñþQ=ÌÌùõ/—?â‹À‡Vùõ/Ù?t íòë_´Ð æ×¿lÿÝÄ£üçë¿þE`ü1ê?FÿTúŸ°ÿSÏùõ/ß?Û ô/hÎþ¹íüžú€þ%M9€L6‚§þ ÿYû§-àç‡÷ÿ-ÿyûÇoà³þ×ô?uÿ˜	\ÕÿX€þgïº€»ü¯ÐÿüýŸóè_þ¤žHOý—ò@…³zO`¹ÿOýçè¿’_ÿ¢ôŸ[ÿýúÑÿ‚ôŸ›þsë&¿þmLÖ¿Æ)=•îûçýú¿Æ)=•^ò¯ÿ'g~ýoé?¹Îû»üÖKþ•xúOÓùõýëûçäŸ¨ÿí üÞŸÉú_/@þ*zÊÿâ3¾—~§ìÿEþ*ôŸ›üsë´Þüú¯“n=ö—¿¢áóë®þòWÕ[~ý+ë¬¿ü•õ•ßÕu•_ÿêFîŸõDª§ü^ö­¯§üú70jÿŒ§hhå÷ûk¡£üûç:;è¨¶d:5S¨˜ÿ×¯èß@Åü•ñäL`¸þÏÍ*åéŸc ÙÎË4êäøüŸc YÎÈ\*å£}å?:€|Ç1“Žò@Îã˜IGù ïqÌ¤£üÉÈ}Sé(â òÆ\º©ÿBþú:Ê?€RÇ1“~êG àÌ¤›ú/Ô¯¯Ÿú/Ô¯¯Ÿú/Ô¯¯Ÿú/Ô¯/CüßVþüß»w¦}uGê¶_]ÀeýðPSRû›ô+XÌo
o¿X~y ëùMàœ¶âß`»¿ŒVÿf {ù-`´úÑý-`¨ú	ý`¤ü—Ëo CåOèo “÷7€qòë?¢¤þ>£pè\R~Ïÿqè?·”ü¾0’ý[=&bÄç÷
ÀX¢ó{	p8qùýÀÂë¿PP!ñßh                                                                                                                                                       À¬þ»Wàž3Ý%¥ÛçJVlUÔˆ°X‰EQ9x°?þÝw‰ÇA±ü—Áþ\ÙzãÖ}×œdéÿ'Äî}·z°ì”ÿs úŸADÿ?Yú7|¬¬¨Ö¿ácd×Î36²ÿíÝ5{XDZË—ÿâŽ<ò‹ÍÏ`äŸÝziéáD?µ>š¥·€ÙÓÀÃìñ`öúÑx^xÓ…Ìõû?gRüÑW? ®öÐaý½þyã[@oõ·û¨o }å¬]ß zª¿Þ¿Xý•üõªè9™ÈãÁþ%ë/à-¿ÔÎÿØ"ÿÂ >ú[@ÝüMòoõ7€Šõû—Ï?€‹þ0~þ»\õ7€Zù[åßîo •ò·ëÿ¼Ùß FÏ¿Óß jäï¸¿Œÿf úg0Th¿§þP8ãþ. ýåïª¿LÞß jç¯Úÿj ú3d¨œ_ÿÉû?ôÕß *ç×ÿ”ÎÙÿy¿¿ÔÍ¯ÿé?µŒù›}°Öß öé?µ¬ù»ëo 3ô_Ï¯ÿž¬ùõ?›ó>ýÃú@Áþ·%å×¿Iþªµõï­ÿó9ú@™þ­ó~ú×Ð§¿þs?ýƒû@þ­ã‡ú×ôþ;ùõÏ˜ÿŒý {ÿçŽúïæ×Àþ_Bÿd©ù{ê¿Ÿ_ÿÉû@®üÝôÿzúOÝ?$¿þËôŸÛyûÇå×?sþnú‡å×‘þs;oÿÈü°(=¿þs?ý÷Î¯æþmðqòq$ý=ýIÉþéTùõ_’ÜþEl0ý»s ~\Ïø÷Èœ_ÿGêGåŒû‹É¯ÿ‚CõSúgÀÛ}ÉÔ¡úIýóàí®ô?êXþˆ˜	ï"yÇê‡ÇLx—Ý»“ÿ¸cõÃkÆ¿Çþ½É\`ý§w÷w—,æ=òå/zÏ- þGû•	´ê¯|{õoâ/, ¶¦üþ½WÑñï7€:ùk¾Ó[¯¿ÿn1Ý*ä¯yúÎ/%þíŽGÍþ«ž¿¿)}Oë®~@ú»TïTÿûµZgôl¾â‡§¿Y@ù×Ó[À¾èøðñá¶ë/Ç7€Üñ«/àóp7ê¯Ç7€üõ«àóxWëoÇ7€ù¿P-ÿMÿ‡ðúúç¯_i WÇœôÔ7€Bùk|¸9êð/ùô/Ÿ¿ø·¶Cx|ýËä/üÝÀLéõ/–?íÔúñÕ xÿ¤#êŠ®ñü‰?V?W|ýöOÀÚ;=¨¯µþØ?Ì¬ùõ/–?åðP;¿þûG ~~ýKö@ƒüúwÓÿ¡E~ý+öß@›üúí|;DýÏÝm ¡‡(ÿÉû/ âõ?[ÿû"š˜þ•þ%Õéÿ"¾üýÇèŸJþÁûÿý÷ßoü±þc÷É¿¹ ýÒníû¿àëþüòöùÇîÿ²€¥úŸÐÿdýÓÿp“ÿm úŸ­êîò¿@þ eù_ ÿ¹û‡.`1î@éóy6Oý`¹æ@ñz2ýôÿY£ùz2úÏí©›èßB7ùõoCÿ¹MÕ¿üé<ýçÖÿ|ùõ_ÐIþõïÿÈ?sOÿYú¯¼þ£a½ä_ì/ÿ<ýà/ÿ3õ_øù¯Œùõ_ÑOþ›øµ_Óõ¿XÀCÞüú¯ê)ÿù§îŸ3¿þ§ë/-òÏ­ÇþYóë¿Mþ¹u×?o~ý÷t–ßÓîþò×ÖU~ýçî/}å÷Wÿ:Ê¯ƒöÏyŠ†ÖO~¯ú7ÑMþŒÈvr& ÿäºÉŸm ™NÌ,ªåÿõkçòÜÿ×¯*ÈyjæP/ÿÞ ôo¡Jþ÷ìÜFþêõß=ù[¨‘?ü-t“ÿØ ²ÄlúÉd b6ýäO@Öƒ˜M?ùSù ¦ÓKýò7ÐOþ„9ŠÉtSÿ…üõõS?n %c.ýäX@áÃ˜J?õ_¨__?õ_¨_]¦ø¿ÿþ½s“_ìÞ‘úµ­ÿûÒFúk[÷¨}e©ñ¯Ò¯`¡þþ¨*ºýBú•¬æ7Îo¿0€Íüp>;õcû[ÀXõo°ŸßÆªŸÐß FÊ5€°þ0RþßÑù`¤ü)ý {úO-<¿þ#Jêï€aè?·¤üúCÿ¹%õ÷ q¤ä÷à‘$ä÷
ÐPâû‡ ÉC!QTýê(<ÿöê5y…Ä#>                                                                                                                                                        SûïJÎ{Íu_TŠŸi%öD­úG«å^Õó©–ÿrBƒþWÕþ¼¹¿‡?wRâó	Mûÿ	±qŸy”ÿs úŸI@ÿ?Gû7|xì*Ý¿áC#L–ËÿJÿvŠpû_ÞW³ÇC¼µçmdþÏ{jñ8hé‰›ŸÁ¨?;¡Çñø¡õÐ,½	<ÌžÞ fo ³×7€Éë‡ö´úÅGêôM3:©¿×?_|è±þæ 2ÇßXÀ_/Šˆ9Í_¢þÊ ^ó[@ƒú«ýÕ_ÀG~¨Ÿÿ±vþ…|õ7€Úùk×_ÀE¨œÿ±~þ»\õ7€šõ›äßîo ó?¶È;€›þP/£þÏ›ý`ôü; ¨”¿Yÿ€ž¯¿ÔÈß°ÿÕ ôï%7ý`òþÐ"½þ—Ð¿Eþ~ú@Yòë?÷Ó¿bÿÝO P?Wý ~ÿŽ¾ Ô¿Aþ®úÀÈý/ /ùÛ\ Öú@ý§–3¿þ“÷è©¿TÏ¯ÿÙŒÜß jçoñ3@ú0vÈžÿ²ÿu‡Fý·òë¿ã@þ¥§bwý Tÿ•úÿ£ÿjýO$gþÊû@‰þ­ãëß(ÿ[ÿçæ7€1û>ý«÷îÀçcÐêþ»ù g~ý’Øÿ¹Aÿ)ûGä×òþ5Oýƒòë?\ÿ‡ ÿÓô7€Aûæ×?WþNú<ý§îš_ÿ%úÏí¼ýcóëŸ+Ê òï%6¿þíú¿}°ùõ?Qÿ¬ˆÎ¯Þþ15?>œþSöÿúxóëŸ-ì'€‹˜µT~ý3÷oyñsæ×ÿ|ý3 !¿þãôOÉ¯Æþq¸üúwä¤ý_ïHþæýCc^~ÈVùõÏ™?ò_€fÍÿœ”_ÿ{Q­–ÞÛ?W~OÿÂÛß¾Ççâ WBã?½¸z§Ï»ˆÉ–£¾«FõŸ®,ÜGž¨qù}íŸÇ^ýëø+è?ý{ÑñÐsþ'õDÖë¯Æ_Z@ù›œÏ³IŠ¿°€ªùwûÕ÷µÏìI¤Å¿_@?ùïÊ[À†Ûú¡ñï&P/ÿÞ/ú^jokÒãß, }þíø°"=~Õ|~˜õúÛñõ_—ÿzUò?¤Æ7€"õ«\.6½¾þEò—ÿBðúx#?é@éú7,[ÿr qíõ/–¿àwÖ=2½þó@®ìP:ÿ±,¾c¾èúWèŸ>€ÝÃÌV_ÿrùSP³¾þÝõ¯›_ÿ‚ýðP9¿þóÇ÷¯ž_ÿ’ýcP?¿þõ8DýÏÛg -òëßKÿ #”ÿ\ýƒx„úUºÿÊ ÂPÿ¢Jç_X@ÜêöþXúÃ¿ß­¡þ§ï¿å#ÿê ä/Iÿ¹õÙÿçÏŸ??þýçêÿóËÛä¹ÿÇ îë,@ÿ±pé&þä:mÃè©ÿ]ý·È¦þ ÿý?6½†¥ü/ÐÿtýïÆœ?ï ðÉ<¡§n°Ò?ç ôÉ<¡§n ÿÔý×òë_Výþÿ¼º=ýçèÿVÿ~úW>³çP¹ÿWþ›¬÷Ï•_ÿöý/ó_@ÿFÚå€þÃô¿Í5 ù'ì1 ý©Ö!ÿîÀßþŠ«•±ÿÞ ä¦ÿbþ/½öSA7ýïàê_Cü+ý·à¥ßú¯ä¿}!à²¾ý¨£FþÐþ/>~ö[þ	ú/à!w~ý7uÙ_þj*äî/EýõÏ™_ÿ=åóGö—¿®ÎúgÍ¯ÿ¾âùö¯vÏ¬tþ˜¿ÿË?`ÿ ïÿ¾Ó¿¾Òù÷_ÿý"ÿˆýƒÉßB7ù½ì×D?ù½êß„þ“ë%¿ñÕF/ùs Ói™G­þ¿~íˆüMTË_c 9OÌ,ªå/?€œ§eÝô?<€Œ'e"ò]ÿýg¾©?àë¿Wò·P!(ù[è&ú rÃ|ºÉŸ:€¼Ç0Ÿnò§ ÷1Ì§—ú/äo ŸüÑ(s³é¦þùëë§~Ì ŠÅ\ú©ÿBþúú©ÿBýê:ªÿBýê:ªÿJýÚÖÿ}aí6ÿÞÚ¾KíëJŽÙ~}wõƒF@M±íïË¯.`-¿t&ôi¿Þ~i ›ù-àlvâßõßËocÕ¿@@~ª~B)ÿÕ ÂúÀHùúÀ˜ýCóë?Pþ”þÐ;ýç–Ôß'€aè?7ý'—’_ÿÉûûÐ8Rò{`$¥ú7z8D‹Î2€&„D‘ù÷Pÿ!pTDýê)(þí                                                                                                                                                       €¹ýw¡õ±Ð²þñ	ØÑÙójçJrþüÒå»ŽÐ°ÿEº?_nÞsá2~¡eÿÿòoX¾³f‰›ýÃò@þSZïšÿã ÿ)ï¿phúˆˆsðòÿ@»‡B’<ýßï¦Ù£à€…kwl~ÎíöÉ+ÿìÖk‹?ñx¥õÑÐª¼Le9¾Lß f¯3€çuE%óôß¿±û8Cý½þqíCv±ä¯¿2?pëoöÏs½*tæõx°îúkxËoMê¯ö/Qy Ÿý- AþÇšõpÑß ªç¬›a —ý ƒü%ë/àª¿T­¿Ô¿pþ»\÷7€ªù[ôÞìo £ç¿Àm¨—ÿ±IþþÐ.þÏÛý Rþ.úÀtù] ºÈßoHq<µþÏ;ý ÉÓ_ÿ¹ó÷Óß båÈ_¯¿@O€ÉówÔß †î1 ý»Éßä°Òß Âé?µèüú$cþß^ëo #÷ÿ€þåopXío AôŸ[ÞüÕÐß ê?ýõ?™#ù—ÿI^?ý àÓ!Åíè?nÿå÷TºÿV~(•ýé¨ÿý·‚TþW@Ûý sþõþ—Ðèþ»Qô?‡Ìù¿²tÓß *>ý¿ÂTë¿—_ÿìýƒÒtÓß ª÷¯1€‡ ‡ý_òè?bþÇÐ°¥œß šô/=€÷‡ ¿ýkü"@ý{í_v ù cþ¸þåðþôï·ÑÄä×¿aÿ¢¿	^ÿÚùcú|5(*¿4î_ê?¢ÿIúç@d~ýsöþà…þƒôO¼ d@l~ýóåOíŸs ow¨£þIŸ ²ÿÇ #ò@Æþ	ßx“7¿þgëŸm ñùõÏÚ?î%€O9óëß¬ìK@EúÇå×?cþˆÀõ‡l—_ÿ6ýK|øzWú7ìŸú	 ]~ý3÷Oú ÿ ý£~0k~ý;éŸ0€vùõÏß?øŸt_ÿÌýã/ 9ê¿ÝYB~ý3ç¸ äü9ð×#—¿“þÿcÇòëŸ½‹$ç×˜þògÓyµÕ¼~@ý3	Lÿôbéöïw#ÿIí¶ºqó.Ÿw$ÿ)ÅÅŸÀRÿš¿ëQý|bãß\.î©ÃüÎé™ÄÇÿøZàþ? ÐÓ¯úù~£ú‰=‰…ø{í¿&p§Býý_ôy›Þ¶¤Å_Ý@ñüIñ-`Urü•”­¿õßyÛj¯ÿ† Oùá(Y¥ÿöß öˆ¿°€‚õ—ÔÞ ÊÕ¿[@¹ø/¢Ÿ÷ú—®| 	•Þ Êæ?4€R¹õ¯—ÿz ™óçh¯Ùü©¨W_ÿûW¬o Eó_ Ïüú×êýªä×¿¯þûG¨ÿ‰úGà¡z~ý‹æër„úŸ¶ÿÞ ‚ŽPÿAû¡üEí¿ÿß~ó÷ß¯ þ'î¿ûˆ‹ÿfù õ?uÿ›Üÿñgþ•èòþÛ.òë?Nÿÿý/Wßý?aÿÿéÿóÝûÿÔ’çÿuýÏèÂþá®ó_ÖÿX€üCàm‹ù_ ÿ™ú'àÓ}þÌ€|§mÙû§/`!Þ@Þ37†ý·°˜ÿe úŸ·ÿÒþùçŸŽDÿðÏ§°üúŸ¾ÿÓRý»¬õÿégÿ‡éÿz úßÿ6ÿå Vóë?Jÿûü(ß¿Ùî\­þKùC ÿÔý³}ýßî÷­Rÿåü_ðéÎþpùo¥mþ€§ÿèý·/ úÏÒq òWÐ6ÿÖ_üâ—	ú¯@þ*Êçì³ /ýUÒOÿ‹øÉŸjŠçèÿ6×ÿ›-¿þ§êÿNþjšæ_@¾üúŸ°¿ü5•ÍŸÐ?c~ýÏ×_þÊŠæî/ÿXýc¿þ×¿º¢ù#ûËß@Éüíú×<ƒçÖ¬ÿý¡èßBÁüA¯ÿ‘¿…’ù÷þï’üMíÿ1€‘¿’ù£ÈßÄXýs•‰t’?Ë òœ‘ÉTÉÿë×¯_;Ç¡ÿÜý ãI™I…üAý Û	™Mùüaý ÓÉ˜Pùü/9ù›(Ÿ?”üMô’?y 9aF½äO@ÞC˜Q/ù“ý&ÔKý„”8†ùôRÿ…ü”ÏúbpÔ )‹ÊÔßÿÙEê7Pæ¹ŸPÿ…üõºòÇÇ¥~u%ê ~uÕ¥~mâÿ~•íˆ¤¯ëHüßWoòïÌÇÏaIñ¯Û¯à¾¾ô*°üB÷Õlä7Új¿0€ü0VüÛìç7€ÁòG÷·€‘ê_ ¬¿Œ”_ÿ!¥ôÌo #å×DúÏ-©ð >0‚è?9ýç–’_ÿ¤ô÷À¤ô@«GD”„ü^Jt~¯ &2ÿîê?ŽŠ©ÿBý!…Å£=                                                                                                                                                         0³ÿ>´>šæ·€Ùó_àÏ‹µ÷ºÿCóªÿŸ7ï±ø'®Côÿo!ÿ–›{i÷0HµÔ?4ÿç ä?¯ý}ú?±ôËÿúˆœˆþ³»ùúMþÉÉ?9ùg'õ@?´>…¿Ðú˜h×Þ f¯o sÇOÀó§2ÇKÕüýŸw•~ ”¨0€ýôë;°ŠÞëo÷lŸtyøëU‡?»Ç£ýóÕß˜À[~h•ÿ±NüÕ|ö7€õWú—¨¿8€¯ü0|þ…\õ7€êù«Ö¿Àu¨ÿ±rþÛÜô7€Ñó@Gõ›ôÞìo £çßéo õò·éÿ¼Ýß 8Cþ½T<]£9ÅÓß Ûü•ú?o÷7€*ùûío òë?Oþ–ý ¿ùõŸ;µþÏ;ý pþš?÷‘Òß âdÊ¯ÿÜOÿ~ú@Œ\ù@ÿŽžþúO‘ë§þ{éo Áræ×î§õ× Wû@ ¼ùõŸûé_{ ëý Hrþ»§âÍÛõùé¿Ôâ]/ý \ÿåïô?ùïÐI(ôôß
òJÿéú?wØß êå¿^@­þÛùõ/Ñ7Êý‡Ì¿Ýÿr]ô7€üýƒºÀûÑÿˆìOÿzìo uŸþÕ˜_ÿêýëàíèßaÿxío 9óÇö/ü» òëŸ·D7úÏ×¿ü Âû@ãþ%‘_ÿŒùCû—~=øínõ?Iÿìˆéo 9ûw1€¨üúgìßÇàí>õ¯Ÿ?¸ÑDå7€úçÀÛêß¤ÿC'ýÃóëŸ±€·»Ó¿Iþ^úGä×?kÿÔO Ùðzgú7êÿØºt~ÈÛ¿ñW€ñùõÏÙ?ù/¿þMû?´î™_ÿqú¿Þ“þ-û'ý@¦þIùõÏÜ?þ§Àr>ý£óëŸ5â W~ýÛ÷O¸ 4Ì¯æþ	hxõ×¿Uÿç¬õ“Ÿþúçî7€<õåïª½ÿØËÑüúçïß` Éùõ¡z~ýôßüEP…òëßYÿ‡Sä×¿Xÿªÿ¹ù{ê_s ‡òë_²½ßõ)Ÿý;ùMoúÇ‰ûôfíÖ—w'ÿÉl¶ºwÿ7wX¶¾«ní—'p{‡Eë'üªí7EÆ¿ÀÒ]¬ô‹þ¾ßªv2Ï(¶ý×V•Š¿ÿkþïÒ›À®¤øÛC8”{-ý›„ö°ãýJžqžèkRÒÀ¾#ñ3 âHÒ@Ùøw(WÿKDyý‹×¿@öüÑ± vþäÔ‰¯éüiýªå7€²ù/Ðe~ý«õOþå %óë_6|ÿºùõ/Ü?öÀCåþP­ÔªV~ýëõß@Ðñé?hÿÀã“ÿ´ý7py£¿ß-Ÿþ'î¿8€ë[|Ô¯3€b§ñ´Êö¿ÀÝŸ^ä_€þ'ìÿ¿Ð¯ÿˆýÿ÷¿ÿéÿóÅçMôŸ¤ÿEüËÈ¢þ?Ôÿ«þçô/ªmÿ¯<ÜçÏ>€ügïüžàm‹õß ÿ™ú§,àa-Þd=o£Èß?u?× ÿéú¯/áŸ7¡ùõ?û žê/M`¥ÿÏlýëžÖÓxª7€Ëú·XË¯ÿ0ýoò_/@ÿÑûßç¿@ñþ­Îoïjõ_Ê1 ý@rÿ<ùõ_Ó2ÿ× J÷oy†ûÖ¶ÿÇ ôºÿ?©ý]þ‹kÛÿ} žþÍ´Í¿}ðô/o‚þmOpïÚöß€§Åóõ_€ïýÌÔÿ¡T~ýw4Í¿ú*€üÓõ¿X€ü¨§pþ˜þä¯¦lþ´þ¹òëÊþò×T4Jÿlùõ?cù++™?¾¾üúŸ°¿üõÌß°ÝsxfóÇöÏ—_ÿpû~ÿÿƒüM”ËßªÅ“7€rùõ¯wêÆP®ÿþÏÿ]’¿rù/pû†¥Ñ¿òýïÞ¶xò7R,ÿkíðã¿‘rù/üúµwòÜÿ×¯òÈxJæR>PÿƒÈv:æS<XÿCÈt*æT:(ùÛè$ú òÁœjæ_ÿéßä}ø”È¿ø½¾õï ¾“¿‰BùoZo¼ðIþ&2×¿xùgémõ,L,ký¥ßûºóàù[Èš?ñ€}P¿…|õÃ~Èù[ÈWÿ8õè¦þ+ùëë§þõëë&þñ«ë'þéë:ÿ÷‡•?ÿ÷U®c¥ŒÄ'þgü•ü{#ç!ÓØuü¥Üæ·„«¯`#¿Œ–þ~ {ù-`´úÑý`¨ú×éo cåîo £öËo Cå×HúÏ-¥è >,é?7ý'§ÿÜòûÐPôŸ\t~¯ &2À š<ÒEåß@ƒãç¸àú/ÔU@üwÚ                                                                                                                                                          0§ÿþûïòþy·|ãÍ?äŒþ»ÀGþ…ÌÄ ýÿ„jzÈ4ïo ãX»üë?ýç¦ÿÜäŸœü³S•Çðx¥õÑÐª¼Le9¾Ì_ÿÉëGàùV¹ã¦JýÀþwá-aüÚšÁ_ýõWÚ£ãxý½þQñVñRßæ,kù- UþÇ:õWpÑß ZÔ_íŸ½þâ.û@‹üõê/àª¿Œžÿn 7ý vþÇºùopÛß *ç¬œÿf wý`ðüÐSþÇúù¯pßß šæ×¢ümúÀÜù¯°Ðß Úåï¢¿TÉ¯ÿ`2ä¯Óß z}úwÒß å¯? ý3É“¿“þÐèé¯ÿÜù;ù€ŒÝß ×ü½ô7€FýkÐ¿~þ3ô7€6ùk@ÿVýïŸ‹ïôŸ)ÿÂºèo %û¯åx¥ÿÈù—úWÀ~~“%ÿíôºÿf’W=ô7€šù+xÿ(ú÷Ó¿ê Bú@þü[a¯ï[ÿ¹žþUðþ!ôïèé_s !ù zÿjx»ý+çßí_k aý {ÿ°0ŸŠæ×ÿ˜OÿJÌ¯î§Â/smÙß Ú÷/1€·;Ö¿Çþ5š_ÿ¬ù÷¿ü[ìŸ} Áý ~ÿòÏ¯Þþ‰€Ìx½Kýë÷O¾ dÀCDÈ™?½ÎÄä×¿AÿÂ€×ûÓÿ\ýó *¿äÌø þ£öïá@\~ý;éŸk ¯÷¥«þÍ?Dæ7€¬ý›ÿðõ®ôo•¿ù ÑùõÏÚ¿ñ· ãóë¿@ÿ¹èŸú"p–þ	ùõï£ŽüúwÐ?h ÷²U~hÑ¿ÈO¥å×?sÿ¤@†üúŸ·Ãüúçî?€–ùõoÒÿ9sþçÔüúgï7€,õÓŸþúè_é7}çÈ¯þþÕp ¿þùóïü"˜®òë_ ÝÊ¯¡þÕp,¿þ%ú¿ýpùçî_í—=ëß[ÿÏÿHçùõ/Üÿ¡ïüú—îßþ÷¼é)sÿ²¿çËÓ¿ÿþå~Ë“§ÿ)úù/oäÏ. íÓÓÓÓÖMoï²P|ý‹Xú´`éÖ÷w™+÷ùóM¿¶…»,?ø÷<~ÿpñ%ÎÜ nrn¶¿ÁÚ]‰ÿb'ý÷%OÕ˜BŸø›{¸R*ÿÊ VÂ›@”äö÷(–ÿf»á- Rýëä¯24»ÔŠ}È›?¡¶TÏŸz¨”_ÿÒù/Ða~(ž?¥½üú—ÎŸð	à¡b(œ?úðP5¿þõú§þj˜;úŸ³ôn…þ'íñßþûïÔÿ¤ýWpu£¿?¬ þgí¿¸€›[|æ_€þçíÿjëóýEþ
€œçmåûo¹ì_þpülç©é –òÿ|óyý'êÿÿjòŸ§ú îò.@ÿõOÀBýÜ(pöÐz _îó¿@ÿ3õOÝÀÏÂýsŸ¸Aé¿1„^÷€þ§í³€¾„å€þcà¢þýô´ÿÓJþëü,Ý¿É¹=ƒZýïò_@ÿaû?­å¿ÀFÿ,ùõ_Õ°ÿ?Õú7<¿½«Ò9ÿ× ôo¦Fþýå/­BÿµüŸÐ¿žû»üÐ=ÿÞ ä/¯xþôþžþ5ôÐåõ?ù+(³ÿÖ |ïg¢þ÷põ¯¤pþÀþeòëßºÿfþÕ—å¯¦lþþ×?ð_þŠŠæêÿ%O~ýOÚ_þšJæOêŸ)¿þçì/eóÇ÷ÏU_ÿÉû×=‡§V.Ì7 ^Éß@Áü‘ý³å×?F«þw"åò7ê_ñÜ¡Xþ6ýë¸Qëô Ÿôo¤Xþ«þKÿûŠü­”ïÿ–Bý/~®†T(ÿgí½·½‘¿•Bù?Z/½méÛÿò·R£ÿ¯_o¼&+Eò_¥þõë} ý è\‰ü›Ïÿü(wrfP.ÿMéÍþPâ¤L$þþ™Pà”Ì¥Xþå¿ÿe@‘S2—bù×úç@‘ó1Rù/Cùð2§c>ùê¯vþ§À Šœ‹9eª¿žùŸ°Ä, Ài˜W‘ü—•û/ ÷	˜]†ú{s ßçÍáúÇ¥~ëoü¶ÿxê·p$~vâ7ÐMýWâ××M|Z9Öþ÷«•?ü÷ßÿÍqˆ”–ö´‹¿²€/d:J:ri —ù`ðø÷¸Ïo	#V_Àf~-}|¬þõ úÀ`ùcûÀXùGæ×¬üÑýàôŸ[BŸ ¢ÿÜôŸœþ“‹Îï@c‰ïï;Àc‰ÍÐ¿Ñ#!QTþý4yžgõ\Âê¿P`{ñßh                                                                              ÿ?{÷’ÖFÒpkTm»°'qüM ª[]»ç^y"õÏÿ<ºä%"2n™±VËÆRzw
Bœ                                                                             Ýï–þ±þaQ9ÿmê™s0ÿ…j} ´ío ‡¤ÿØô›üƒ“pòOüƒy:k}´é~­õÑ,½œFo ƒÇ7€ÑëÇô~TòÐ©P?°ÿDú<;øò%ù¿’#ÿÓæöé+ør‘zùØ\­xüøM¼ç·€†ùŸŠÖ_\ÁUh•ÿ©Bý™	Üô7€&õçûç­?µ€Ûþpðü¸ëo ò?Õ«ÿ0€ûþP?ÿSÍüwxèo Ïo å¯Þÿy¹¿<ÿÍ &ú@Íüû@vÝç_½0€¶ùkö7€–ùõ_½0€–ùõ;ùþÏký`”þn ºËßC(ž¿Ú÷ý— .Ùò÷Ðß Úþú¿êW€sýàÈýÝ t‘ÿ!Æ»ú@ñþ“=Þèøü³EÎÚ÷7€¢ý’ÔÀ|~ý‹åŸì¿€æý TžüUðþNôorú¯Ty£ÿX§Í/Bú@åÓ¿â Þßþ]õ¯6€ þP;ÿã}eû/ç×¿zÿÊÐ¿zþ•þµÔß VåÎ?õT-úsúW@X~è£þ¼½YýôlsKÿƒäOì_äÙÀÖó@ƒþ5p~‹úï©Öœß þõó÷Ñ?8¿4è_~ ç7§ÿú¿¼¼¼¼ÿ9kÿ°üúçÍÔÿù6ÿÇræío -û¿ëš_ÿÌýc> ¼çÏ<€×7¥“üqŸ ”é•ß ô€þÛsÿˆüúgÍŸøàí¯¹òGõ7€ÃõÊ¯ÞþOýo¿þÏÒÿõíèß²Ü]€W÷ÿåê—_ÿ¦ý¯5É¯æþMÐß òæoÙ?%¿þ™û|8ýNõ?FÿÄ6Ê¯îþë7 “ï³Q~ý³÷OºØœ_ÿ^ú§Ü 4Ë¯þþñ7 íò@þþ±xn™_ÿýŸ³ÖO¸ß_ÿ‚ýÃïÎÛé¯‰þžç;S~ýô¯;€Mùõ/Ó¿Þ¶å×¿DÿŠØ˜_ÿbý«,`k~ý‹ôÿ-0åëoÌ¯Ñþe'!¿þeú×@Žüúï_òi7ç×¿|ÿ†Ïò(ýK=ÉŸÓ'ý<Ã×™þ#õ<Rýßá@·ç×JöüéX>Pù‹ÈŸ?±ÿÚê_Ä\Óof^÷ñM–¨ïÎßRBÒÏ`ê-–Éúk¾~ýúuâÕ3^cÜþj¯|ýåŸÀGó	Wÿ£ÄwQíço>Êÿæ#çLôÇ`[üÛäÎXÚÖ¿@Þüë[@ú©ý+ä·€ù“°~túï%BÿS­þP>ôg€AÇ—©¿”ï7€ÀãÓ7ù#î?@ýwÙ?ü×Ãÿþ}ñ`—ýgp÷î¿_,¡þ;íÿjå&ÿ=d¼Ò¤pÿeŸù— ÿØýÝ´—þß¶÷¿ýMoô?hÿ‡ÿŸ¿)æzòï¥ò ëç@Þ«í02÷Oü0™ÿs úïh 	·3ù? ÿ¾ú§ì`*ÿû ôßgÿ‡	ü¿‹Ðüo¿ý¿MÔŸZ€þ‡ÀuþûÌå×ÿ0ýïòß`¶ÿ‹/ÿÑÿ!ÿÍ J÷otÝîÁ·*˜È= ýÛ©‘CùÐ2ÿÕ œþCöÿ@ÙÓ_ÿEåûÿ¿¶ý›^»ý+ž¾ÿû ÜüÝn ò×Ð°ÿò ä¯¢t~ýÇî¿ñK@ù+)›?¬ÿÄã¿rä×7ýïàsÿzŠæ_ì?÷}`û­©hþˆþ¯r>êKþýõ¿¿¦’ùSúg©¯ÿ^ûË_[Áüñý3å×Ÿýåo \þØþò·P.dÿ\ùõS®ð€gò·Q.“þõ®¸£(–¿Eÿj×Úè?¶Rù¯ûÏ¼àŠüÍïÿø’2_ÿ¿¦ªLþ‰þS/z'3eòO>ïCÉ”¼ŠŽ­HÿÛÔ¿O¼ð–üÍ”<ýÏ©ôß6€ÒWÑ±åÏ¿rþç@Ù«çøÊåŸþøŸy Å®—Q”ËÓ?u ¥®•äÍÐ?ã 
]%c)•?®Ê Ê\Ã)”ÿ¶óú bPâªT¦úù—þéƒü­d©÷¿¥;ùÉžù5æDý66×_ýïú—þYý6¶Õ9·C©ßÆ†úïýsŠúM¤Æ¿ôÏz,â·¿íè%>í$·ÿs1õoÿ¾Étˆôç½þÔ .õm`€ø¸Éo‡¯ÒßŽÚþa KùMàPÙ“ú[ÀÁâß`½¿¬~l8XþØþ°úMÿ¡æ×ÿ¨ô›þƒ‹îïÀc‰Íï ƒ‰í¿>€V—„DQùWÐæ2°Mxþ•´8xòË¿4€úÇLf«õ_©ô                                                                                                                                                            Œì¿OÁÿÂaü¦õaÒ4¿”þcÓlúNÿÁÉ?:õÑþ8ž®´>Z•·€±Lµ7€ÑãÀàñõ;~Dÿç)ežòùŸRÓo]Á—‹¤ÿL¦úëý×â'Žà=¿4­¿Ö?´~ì
®ò[@ËüO9ë‡/â¶¿4ËÿT¶þÜîú[@«üOòO,à¡¿9ÿÃû@‹üOµòÀàùï0Ñß ªçª˜ÿv SýàÐù ·üµû?¯õ7€òWéo ãå¸0€jù[ô7€’òä×ìüEû@'ùûío mó·þ  ’|ùkÝ Ìõ7€¶§¿ cçoþÀ ÷¯4 ýÛæŸ8%ßµío úÏD¹Ðÿ¸ù_û/dyÓ´¿ÔÎ_o ŸïAÿžú×ÀB¨ž¿Ú >Þ¾þú¯…y§ÿóÏ÷¯4€ þ*_þJw|¼mýû:ý'X³Ü ó@ Œùkàò†õïìôŸùimýÕ? Ì½&ý Dþåþu–_ÿ ñù“úŸZô7€~úgÀÛ[Ô¿¿›ÿ:Ì¯OýOõû@öü‘ý_Î.Éš_ÿ>û?ßÇ¿Z@Îþ!ùõoÙÿ*ÿe Õû@îüáýoòg@x~ý›õ¿Ëÿ6 ýßÿy:¾€ˆüúçÎŸÞ?Û@L8dÿàüú·é?‘ÿ<€<ùõo–Ë ²õÏo }õÏ0 ý‡î™_ÿÌùŸžRûŸšô7€ÜýÃîêäô×¿QÿBw êß:ÿú€Ë{(qóŸ_ÿìýCð˜¿E¨Ýj ——4È¯îþºË¿½|~ýö?OàóÏ›óëßCÿµÏ gßi‹ü¿ÿJÈbùõï"ÿÚ@‘üÉ§¿þùû§Ü ´Ê¯þñ?Ö,¿þùûGß l¬ŸþÁ_ÿ"ýãðÜ2¿þEú‡à¹m~(Ñu mÌ¯™þµ°5¿þ%úŸŸ~ùõ/Ö¿üNÛóë_¤ÿýoé6¿þEûÿ][óë_¦ÿõoê9¿þåû—{šßíùõ¯ÐÿÔo~ýwØÿ”/¿þ5úg‚¿3ý;îŸÿàþ0³ä×ÿQþüÛúÏ¦þCôŸ=Lùè¿p˜ú—’¿ê –ŽRÿRòçOë¿|”ú—’?RÿµÃÔ¿”ìùSú¯¦ü…L'ýö`öU”Èï»¿ÅÜõ|,»‚™×¾zƒeò?,àý¥_<¾®üKÛ¯-ãC‘ü_#ÝM Ôuw[âß {þØö(y½ÂÖø7è%ÿÛ¨R?ñàT¸¿	ÔÊŸ2€°ãÛØß êäîz€[û@•ü×_þz€@°»þÑ¿¾h¨ÿ¶ÿôÒŽQÿ=öµ–þû›µƒ4€ö_qÉ¿: ý÷Ðÿ[zÿâH¾~Ž®eÿÏüú¡ÿ†\^ððLÑúï¢ì îòOü¦€ý÷Ñ?q o™þUAgúï¤ÊÞLüª¨Ïè¿§þ);˜Êÿ1€Íùõo2€ˆ	¼,@ÿ½öÿ¶-ÿ[ù÷Û?p úÑÿÿ…ç?`{~ýÔëÿVjKý3ä×¿‡þŸùP¸í«tWjõ¿Î? ýªÓÿ6ÿÝ úgÈ¯‡ýoàô?zÿ‡ü7pú·T!Ëþm®ÔiÔ?` NÿŽÝ¿Íuº+mò¯@þaúOÀ'ÿµ”ÎÐêá?òWR:HÿÇÇÿÉðþKßòŸš
çíÿ¾€×?É?bÿ9òë¬lþøþòÝ_þÚŠæìŸ¥¾þQŠæë/-úO@þ&JæéŸ)¿þ±
öÿõû×ºÖŽ£\þëþ·8ù[)–ÿ3øý&ŽBþfŠ÷_zÉ;ý›)•ÿ½ö©Vÿ²WÓq•í?ñ¢2ýK^EÇV&ÿBÿ(xý]Éüw©‹}XìÊAñþ¿ÿþ}ýÂü(}[üÑýýÊ—†Šå¿”¾ä_ì¿a ¯™AäÎ?Szé>À-¿ó‹­2çŸûLo±â ²_#*“?²Ò r_ƒÊš¾órÿ„ä¼Æ–1ÿBæåü±ÈtÑy•­þü“¾…¿•\õ7’¿•.ò‡. àûWõÏÔo£‹øgê·ÑGý3ñ›è¤þñ[è$>íljÿçÏŸ?3ÿôïY–C¤KÞÍÖ·ãÇŸ\Àu~+8zý‡Lä7ƒãÆéo+?1€åüp°ôXío G«Ùß Ž–?²¿,¿þcçío »¡ÿØô›þƒ‹íïÀƒÑpqùÝ|<yû·ºlžßw +,¿‡ ÚzþùT?XŠXŽ¦>Ê                                                                                                                                                           @¢ÿ{×ú@Hõßµ©—}¾x¶¾ìÕaÖó[À‘ûÿßÆê?±€ê‡OËþ¨{ì´ïÏ¾É?8ùG'ÿ=…¿þGjéQþ]ë£¡]{½½þc·7€ÑãG÷~•á¨¾|ùò%Ã›acýÐþÏS6Õ“ü&ÈR?¤ÿdû-+øÌoë¯ö_‰Ÿ²›üÐ´þJÿ°ú‘¸ïo ó?eª1†‡þÐ.ÿS‘ü‹Cxìo ­ê—Î?9‰X@›üOåó?.`ª¿7ÿý&û@ƒüO•òÀ¾òçïÿ¼Þß jç¯wúÀžòéÿ¼Þß ¶Ê“¿xèúô/Óß ö’¿Pv’¿a8pØG~7 ‡Ïß¦ÿs@H“3Ó h~úë?Lþ»*7/oÔß *õŸ)Sg ú7Î?j¾i×ß Êæ?÷_Hs¡ÿ^Äç_nsÑ¬¿”>ýWâ¼+8 ý³É”êë€Fý èé¿ç“þc÷/öH`ý»Ë?ýc[Mú@7ý3/àýêß&ÿÓBÎ¹÷Q ÿJ~hpúÏÿØ®þ#œþ?¶­ÿýk ´¿ÉŸÚ?Û Bóë">Lÿ—WÓÿè§ÿó}û‹&ý aÿëúyœ_ÿvýïò¿/@ÿ½çëÿ˜?Û Âó@«þSùß ÿÎó‡ôŸÎŸéàüVôï´ÿóBÿ<7 ù Iÿ¹üú ÿ–þ9•_ÿEú-©ÿSóþáù þõ/ Jö}úç¡ÿØŠô/û@l~ÈžË' 9úÇå×?ÿõ{ Kõýÿúï¶ƒÓ_ÿìùW> œßx7§¿èð°¹ü[ûGç×¿Iÿ yýÿúwÐ?ìG ¦òŸªç×?þÀ™Èß ¿Ôíóð»ú-òëŸ¿âÏ€5É¯ÿúŸÿ»þ½ôOùðFùõï¤ÿÆú©ù HÿŠÏ²1¿þúG =þöüú—é>€:?î¯ÅüËxÎ“>üÉžôoÑ¿ØoyÉš_ÿ"ý'Ÿ¾LþMõ dÿ’8eÊ¯‘þ7¿¨çüú—ï_îyž·ç×¿Fÿ2Oòª¿ýËÝ œ²æ×¿Jÿ\¸y›9òë¿—þ‡™%¿þ{è?y˜úÒÿT0¿þ½÷Ÿ;Jý‡è_8¿þ]÷Ÿ?Hýè¿pú—“?þþ>ý?~ÿÅƒÔ¿˜üù“ú¯¥þ¥äÏŸÒõ0õ/%{þ„þ‡©)¹óÇ÷;NùË˜JúíÑÔR>_óæ-Éq]òë•Û×Ð?ÆcÎyï¯ÿº×o¯`þ¯¦7ù:; Õö«ÃxW&HûÙ¸¾Že[ýÔ”©Ù€üõê'}
s„ñý?or_[G“¡þ]ÿ€DcJÿ›Ï)š?| i™ØßõŸœÀ†ƒLîo uò?ö?Û^~khÙÙ÷³Âý FþoÉùƒ ïý¿¥÷7€v:ë÷L¡Yòë_¥ÿ·Íý§ž*øBÿþûÇ/à&ÿôSÅ_è¿‡þñ;˜9ùï°)¿þµûÇ®`îwÅäÉ¯›þ1˜Ì¯ÿ(˜Îÿ>€ùõo×ÿ[†þ[óëß{ÿ¹üçlÎ¯ÿžûoÏ¯ÿ"ýÇvøþÅ¯Á}ë»¿Ó¿8ýÇÖqù+hž_ÿ¶š÷Ÿ€Ïþªhž¶¿Ó¿Šæýç¾ý'ÍóO@þZÚ÷Ÿ€[ÿjÚç€ücõ¿]€;þ«ê!ÿ«ú9òë¿»þä¯Kþ±õÕ?G~ý£È?¶~òg©/¬^úËßF'ùõo¥þò·ÒE~ŸûµÓC~_ù7¤ÿØ:ÈïÛ>-µÏïÇ=›:@ÿL×Ä Jçÿýû÷ï•Cìþžë¯¥²ùƒú{¶ß–ŠæëïéÞ[*™?”üµÏŸ8€|ï~líó§ýÊ'2é ü 2¿û¡u?vùßýÈ:¨5€"ï~dÔ%+=Ô¥~+=Ô?S¿‘.êŸ©ßFñ/Äo¡—úŸt¯¬`üÿý÷ßLoŠ’ÒÒÿy7ÿC¶#¥ñgp“ßŽj “ùmà˜ñ0ŸßŽ×þa Ëù-àhí£ûÀÁêß`½¿-d8X~ýÇÎ¯ÿqé?6ýÇ¦ÿà"ûûð`ò÷owYH—ß=ÀÇ“·«KÁáù}ð¨ó/ Åq“Q@þùÔ?\
XË?³€ÊGIQóíßh                                                                                                                                                            Éþï¬õQ$o«ÿ»•ííRBZªÿÞ,¿9èÞb©ÿ,¿=èÝB¨ü÷˜îo =›	–ÿn úïÒT§¤þ> FZÿÊÝŸ=“pòNýczzþêï©¥?Fùw­†ví`ôø0xü&ý¿\ÔÏ£šßb ïùM }ûðþÏ¶ç·€æõúO¤ß°»þÐ¶þZÿ¥ø)¸Ïomë/÷¨9‰þ°÷ü˜êo Íê/õª¼è*ÿSþüËK˜ìoÝåÏÒb3ý Iþ²§ÿä`¬ü0€þóçí; ý{É_­¿ì,îþÏ!ý ›üÙû@wùëöéo åÊ_¶¿ô~ú7»0€>ò7»0€>ú»;³þP#ÀÃþZ äut`©ùÒÜýKõþP¯ÿtœwú;ÿlòXêo ¥óŸû/žïÚô7€hòWÀçÛÕ¿ñé¿œçS“þP4ÿÓ\ÖzÐ¿¿Óæ‘ÛúrúÏ<r¿A(Ú5Ï-ýÇ8ýgr§~hpú/üäVîèß,RÿÌ?´šß ÊåOêŸi —7¦§ÿ}ÿ—WÓ¤þ/W./ªÛß Êäê]?ëÂóëß¬ÿ}ýÏè¿ûüO«u¦ò_P³¿´9ý§óç@L~ý›ôŸËŸe o­»üú¿dê˜ß Zô_ÈŸáàüôo˜Kÿí7 ç£ÖÏý· .¿Ôï¿˜óÀù õo™åëÿòý#òë_¢ÿ©YÿóAëŸÍáû@þü›>x}·óë¿Dÿ±%ö_~üW¹þ	ùõ/åñ=þP·ÿÚ ^ÿ¹j~ýKôO½8¿[ýwžõàå×¿Aÿ™¼ýSÝüP¤ÿê€É¯'ýC~ t:bÿôüúÈöàõ7å×_ý?&ðù÷úùõ/Ñ?ê	`2åOìo ÝôßT?5¿þ%úÏ`é=nªŸœ_ÿBýŸ pKýùõ/‘æ ³Æ}º_ýô~Ø÷ønÎo åúß§Í×>ø·½èß²ÿÒÀ—ÿ}Ÿú7ì_ôw¿æÌ¯Õþ™ãoÏ¯ÅþÙëoÏ¯½þ¹ãçÈ¯™þSÈ]?G~ý«õÏ?O~ØAÿ™£ÔOý;Í¯ïýËæ×¿óþsÇ¨ÿýKç×¿NÿÌùõ¢ÿü!ê_þcë¥ÿÂ!êüþK‡¨AùógïïîŸÃ÷_9HýËÉž?a «©1ùóG÷8JýKÉŸ?¶Øqê_Höü‘ˆ8TùKÈ]?n iÇüõÓå%ú'ŒzóŠ——|;{xÅrù¿.xýwùÓ\Š~1ñZo¯~ýÏèŸ$¨ýÜ$”¸áÈÙ€ü5ëO ð©a
äŸ˜À–kfëOö˜ÀÖƒŒé»€­ïùè¾êŸW\ÿÏ	Ô8¶ÁóW@tÿ/é´ÿ÷³rý Rþoò‡ ¥¿Têÿ-[ÿ›gŠÜšß vÕâ©b·ö7€:ý“pÛú©¢7æ×¿Vÿ”1Ì×¿[@r~hÒ?fk¿+b[~ý›õXÀËbÿ-ùõoØÿÛ¶þ/Ûë@Óþß6å×ÿ`ýüøÕÿ%C~ý{éÿã"<ÿ‹üåUêÿ^bú¿ÿuþû,ôßœ_ÿûß@ÿ¦jô¿Ë; ýÞÿGZùk(Ÿ¢ÿõ ôo«Iÿøì¿Š&ùú;ý+iÝîû?ò×Q8ÿtÿÕ8ý«iÞb ò×S6HÿS»~õßQÿ»È_UÑüý¯ãû¾òï®ÿ§íõõR2À€wä¯­hþµûÿîÉ__Ñþ+ß º#Eó¯< $~ý£îLþ6ä\ù}ðoç(ýó]#cé!¿þ£¶«c<íó{ÌGSÍóo@žëaT»ïŸçjWáü¿ÿþ½vò·Töìé¿a Ù®…µïïÙ¾Z*™ÿu !Ç C%ó‡’¿¡öù=ÝwSíó', ï{[ùããù´¯ÿJýf:¨ÿJþVz¨ÿJþVz¨ÿJýVz¨ÿFý&:©¦~Ä§}}ÝÄ§•ÔøÞÌýó¿×²,eÄön­Õ·‚#¹‹?9€Éü6pÄöS˜ÏoÇ‹ÿ8€åþp´úwXÉo‡«Ûß –ÿf ú—?²¿ì‰þCÉ¯ÿqé?6ýÙß “¿»ËB‚ÈþëhvIH•µ«KAº˜þËhtØ,4ÿâ š9¹åŸ@ƒ#&»µú¯Ô?¸¥øgâOz                                                                                                                                                            ` ÿ÷ªõAÐ0¾Œê3è þ{WúÐh9€ÿ´;j²™î’ß aªX~ý"åÖ_ÿãÒlúNþÁÉ?:õ™Aë£’<5y×_¾|ùÒäsÝ¾Ñ¾|¨þ®¹mß` Ÿõ- ƒøµp›ßÚ×êÿ|‘¯¿´ØÿyR–þÐ2~Hÿéø)˜Ìo ã¯÷_¬9™þÐ®þÓÖú1˜ëo ­ê¯ôÌ¼ è-ÿSžü˜ío mêgÌ´è+îþkC˜ïo GÊ?;è¨~®Oþ"&°Ðß jç¯Ðÿa°“ü¹ú@¯ù+õ¿[ÀRè'Æþ°Çþ¥°Øß ºÉŸ³ø J^5#xÚy¨”?à…°Üß ¶È™ßg cŸþÅà }þþS'hÛþP/ÿL¡²Ð¿“þó§è‡ý Ëü…?\½Mýç?÷_LTt ký BÿåSôŠþƒäŸ{ÔVýþP4ÿÓLÓ¹7®ÿ±òÇö?Uïo q²ä_xøvÖä×¿Áé¿ôðýÚý \þ§¹š‹ïDÿ¡ú¿|x‰þGÉ¿Úÿ3þõ2õÊo õûÏÔÏ¶€ËÑ¿mþµ›ÿ‰üy×ß šôŸ¬ÿ¹€íýCóë_(bÿíx{ú÷Ü>ÿæœ"û@™üsý×òoÀå€õÏ*!ÿÆþ©ˆÍ¯ˆl§ÿójþ7 Ñý DþíýÓŸ_ÿ2ýOÉý·Ü ¼ýWý[ç×ÿ@öÓ?!¿¬ÒhO;ë™_ÿýŸZôûúwÑÿÔ¨l~(‘éÑ¿¥ú¿ý?ýwÞÿ´©|~ýKôŸÀùMöuúë_"ÿâ”8ý“ó@õþ§Rùõï¦ÿÒ€ù´È¯‰üËýgðþ¯‰ùõïªÿòÿçËÚ–ß ŠôŸ¼¸yã3õ“óëßYÿÇ’÷oÿ1þ†_	–š_ÿù'Ÿÿ'à}ÖÏ¯‘þS7 åêëßcÿ»ž«ï0½þ†üú—ë¿úìŸ™êoÉo eú_ž 60¹_ú¦›üŸÏÿûy?Nyóë_¸ÖøSÚ˜_ÿVý‹ÿÆWý»íŸÐ~úÃÈæüú×ïŸ­~†üP»ÿs_ùõ¯Û?_ý<ùõ/‘ÿ©B~ý÷×¿¿üúWìßa~ýëõîîƒ¿þÝ÷Ÿ9Býw×¿ËüúOÑlÝôŸ;@ýw×?g~ýËÒlôŸ?@ýÇîïë¿²ºè¿t€úï­ÿö‡úÝÐìþ¾ÿSRüé?Ü9Cÿr
äßöC“ô/¦uÿÀÃÔ¿ùcq¤ò‘¿~Ä ’ŽXÿ¬ò×U¬þéôõÓùïúoS þ«éoâ_¯@þ-òÇ“­úRý l~Ït`>ÿeòoñ-^Où&Põ0‡‰_{ ý§Pó ‡ª¿y ß¿çî?1m‡8‚ôü›ðý,wþûl8ÀA|kÓÿ{±þWH?¼q|k:€•'MÊÿ~ßÐð~ÏŸ¯ÿÌ“§å·€W¿~ý*Þÿf ‘›¸Ê?û\á©ù RÿKíÅ]¬Zx²øÄúP«ÿÊ0>ýøñãÇô1,ý²ˆÔú6€ouðãÃã!Lÿ²—­ùõï¦ÿgý‰¼,ôß’?x ?žªmÿoÓùïð²0€ý·ÿ©‹þ÷ùo0›ÿek~ý4éÿ£¯þ§‘ï?‘ÿz ý7æ÷	`ý'ó_@ÿ¶ô\Ùüsý¬÷ßš_ÿúÿHî¿ùô×¿çþ«pó_IÉüéýþï¿2 ý«i“ùK ùÇé*‘_ÿ`åòö?e¿ëWþÅò‡öxøŸücõ¿^Àæïûê«Tþˆþ×ä¹ÿöúòÇ*”?èëÿüùõßoù›(”?º¿ümÊðÀò·Rªÿê nÈßL¡üs(•_ÿD¥òß+ü¹öëe•ú/‘¿¥æù· Ó51¦ý÷ÏtEŒªyþ:?ðÉœÖùýÀwcEûÿþýû÷êÈßRÑÓ?¨ú r]C+˜ÿu !‡ Kó‡’¿¥æù=ß_[Íó' ë{\ûüÑÈýÞÇÖAþÈgü&¯æõ_ÉßNûú¯äo¦ƒúgê·ÒCý3ùÛè"þõ›è¤þñè%þå++ÿßÿý7ß[£èö®-´¿’óxiç&ýüîê[ÁaãO.`&¿	1þã ò[ÀëÇõ·€Ãå¿ÀZ~8\þÈþp°ü7Ð¼üúWþ°#úMÿÁEö÷àÁè?¸Èþî <š¸üký[]
ÒEõ_@£KÀFáù}ø¨óÏ Á1“Y@þ™Ô>RŠYŽÿJ|´                                                                                                                                                              ÷ß»ÖB­Ò³Z!-ëÀ‘é?6ýÇ¦ÿØô›üƒ“tê#>Y|¹h}4Œo#º­oüuÖI}hÐþ¢‹øÐ¨~å,Ô7€å¾ÈYßÔÿ+9ý•lù °­õ'âo $¿õXÿéÍæüëËo %MÇÀbþµ	„ö7€bæâö_Í¿8€àþPÊgýÛøaýò/.À Z›>õû‡å_Z€ô`"~Þþ9n²^bÖêç»ùÏµ€œ—™•úÙûgø<0ã¥f¥~þþnr^rë—è¿ýóÀ¬—~xOÕûÏOÀ úªŸëÞŸàèßSý\÷þ†/À@Wù÷7€Îó—îÿ8 ý{Êøíßç|ìo åÏyÚß *ä¿ê?ss}ó¯9 GùßûÏž­ùÜß Êç¿ôŸ?[ó@ÿ®óÏ ~(ÿ­ÿB¬üˆÈ¯•þK'kþÄô7€Âù_û/œ«÷ô ÿÒ8j÷7€¢ù£ûo@\~ý‹æŠÿ‘¾Êý dþÕþ/ŸÞ_¤ÿ‘ò/õ¿Š3ªý \þéÓÿy¦þÆ\þ¯þýä_ê?•ÛÞþ§þýäŸÿð?SË N‰ý «þÉŸ¦æ×¿nþçåüŸˆ\ÀÛÿÑ¿Ÿü³ýó_àT¥¿Tí¿vú§àí?èßOþ¹þkùÓÞß úíùÔIùõï­ÊÀùµõï*ÿNú@½þŸþ%àí•õï'ƒþ‰ùõ ÿØŽÜß 
äŸ}ðgTÿ˜üú¥åÓ_ÿùgü¿ÿÛëêß]ÿÉþ(túoèo 5ûgÿÐæüúÈ?9€ó›+’_ÿÝô| HäÓÂëßYþ‰¼¿ÅÎò@¹þ3Oþ)ÿç«ëß_ÿ‡\½Ñ•úAùO¹òë_¥ÿÝÛ]¨›_ÿóß?ÿËãÛžŽ]k~ýËô¿}þ¯à÷s(Ú?J|ýíùõï¥Hý‡[ýûÌ=€çFùõï éçüÖ¿ãþåŸò_ÿ^û·Ÿþ""GhÕ?&~¹üúÉÿ”·~¹üú·è_ï7~éŸ¨`þçŽòë_½Wùõ¯Ý?K~ý÷Ú¿³üúÏè%¿þ;>ýÿþûïÎóë_®ÿßWoVÿûÿ;ÎþÐsÿ™£ÓWýÿÎ|úë¿‹þ7 ¹òë_œþcËÒÿ} ïÍ•ß ;éÿ¶€¿è?\ÿÙò»p—ýã°|€ú—Õ{ («Dþ­ø¼¥ÿîúG?±ÿ2ùË)’ÃÏzLÒ¿œ2ýÒkžþ…”É´€È#Õ¿ˆBù×v°úgW,ÿ«láÉŸIÁüe|½xý³þÛí*ÿ{üÏè¿Ý^ëN áïJçõ§ó, å1ïTwí—ú¿N@þ	¿~e~ƒß¾}Ë÷Æ¾¿Ê“ÿë×¯ú?øõ+i ßÖåëÿ=Sþùœ†Û? |Î<ôŸ~ºÐàþ38ÝÿW‰øðù·ù§¬?½€Ó¸búÇæÏú™ÀÔ3†'åüLð4°ˆþ	ù°ºŽ?~Ì¼ÿå§‹¯·€ÓÐ~ )ÿmãµyüø0ñþ_@\ýó.8®tÿÏÄ«óøÌ?±€Å_ŸÿòÍBû§æžÇMý‡¼,õOÊ7€Ÿ?žŽ©qÿo3ùïð²0€ÄüQøyètÙÿGHþ—ù#pàü
÷ŸÈ=€Býƒ Ùþ“ù¯ÐAÿÓàzí¿%¿/Â5Èÿ9 ýÇìÿ> ý›ë³ÿÆüú‡+—¡ÿÚ ô?@ÿÉýå¯§Xþþ3Ð¿¢&ýo ¶æ×?F©üAý'¿ý/ÿ8ý§þ£U…òö|øŸücõ¿^À–ïûêŸ¨Lþˆþ—	œÿ ÿý/6××?A‘ü)ýåo¢Hþ„þò7ÒGù[)‘?ìàkú7ÓCùÛ)‘?à 7äo¨Dþ€G€]“¿¥"ýßpó—RŸý¾‚Ž®Dþûg¿BS#ÿ«Bwþe¼&U©ÿ<ùÛjœ¿ÎÏü1«hþß¿Ž@þ¦JžýAýküÌ?óÊå%KÍó' ã{]•üó_¾’¿¥:ùs`ãæVü‹ˆYÀ¶Ë£²õ?¿	°øZò·Sáä_Ëº€ôÉ¼Rõ×¾|Gýf²×_ýæÿ$ù[)vêÇˆúä¬ÿ*%þ…ú-äŒ¿öôŸV6ÄÿSî¨¨)2ýŸÓ¯óï•|J[·åçp]ß
ŽÜ~r Sùà ñ0Ÿß™ÿn ËýàxùÿDä7€ãå¿Àj8\~ý+ØýÇ¦ÿØbûûà`²÷owQ¨Ðu Í.	I"ó»ðpâú/ ÑE`“˜ü‹hrôäœa ›œ‚òÏ úÑRÂjýWâO{                                                                                                                                                               `@ÿ]i},Ôí=¡õáÑ4¿žß Mÿ¡ä×ÿÈô›üƒ“tòÅ_÷ÿ_¦ú_.Rìñ#G°É—{5Þ)õË/à¡½	tU¿äæÚ[@Oõ`9¾t”¿À Öë[@7õ³÷«o £ç7€.òõ~~~ÎžßöÿùVÖüÐ{þ»ú«ˆío »Ë¿¸€èþ°¿üˆïo ;Ìo =ËS1ÿìú@—ù×ú@Ÿ2Õ_ïŸo ¹¯‚‘ÕËo =Ê?¬¿t'WýÊý \ñû@grÅío ]ÉÕþlCŸ41ÿéMµþÐÂrüØÔîo MÖ¿Š9€ þn ú±|êW¾0€êVNýþûÀõïú/öÛrð™þuÔ¿ÀzÁ€,üg7 u-~Üè”pS7 U…œüŸýÖîo ÉBNþÉü›>,ý_ýk
9ùßû‡7Üß ª
8ùú¯àþ5oÿ¯þåë?ñåÃÇ‹ûOm)¥¿$:ïiKÿÏø7ê?y‹ eOAý§#Þ×ÿ\Àzÿ™[ý{Ë?Ûª~ÀMÀÄ?oío …óŸÂó¯/`îÖäLÿ¾êÏžþóù??œ½˜@Z(–¦ÿRþ«¯¢ gù“ú_à¢p(T²ÿjþ‰L¼ý÷™?¤ÿä ôß]þ:ýŸ7÷7€2ù§û¯çŸÀzÿäüú×ërúëŒüéý_êö7€"ùëôÿxý{ìÊÓýô×¿·üýOåúoÈo ûíÿñú÷–âÑ_©ýËÞüë_$ÿcÿóßËœþÛú@¹þ÷?û‘óôÏ•_ÿùo ÎÍxú_½ŠþÝöÿÈwùk¶Óÿúuôï/ÿÝOÿ½ÿ­ÃüP¤ÿçÿÞäÊŸ_ÿ.óÏ=ÿCæýòë_¤ô BëgøÑ/ýÛõŸ[@hýû"Ô¿ÏüKÏ ´¡~þüP½ÿÝNáõ~„XÿnûÇ=	hPý"ùõ/“ÿ){}ýÞÿ¹E~ýõÊ\ÿñùCòô7€2ùs?èãÒÿýâÌ¯ÿ‚òùƒâëÐþÏíóë_$ÿSÆø“Ï§ÿ¾ûGÔŸ|ê@ýËë$ÑÓ_ÿý£ê—=ýõŸ×o~ýw|ú?÷túÀ¬íùÿ~Õ÷é¯¹þçüÈpúë¿‡þïùo#¿þ5l=ý§Ð[~ý«öÏrú;ÿwÑÿs Ÿo4K~ý÷Ñâ3@ýGêÀÕ²ä×/ýdÉŸu ù¯¸ƒè¹¿;€ßùèôßeÿ-ù¹¥ÿ.ûoxÈßýÜ?à õßcÿÔ|OÐý7þÂ÷úT*Ô/|^£ÿû?ÅK ùK)Ùÿl[øOúQ:Nú°£þoôÏkgùßèŸÓ¾ò}±ÖÇ»;ÉÿõJàN£úõ+öôžÿº~ðNƒúõ+~ ¯jÕÿþýû÷mùƒp8Ú >=ñ¿?öŸ~žèÅþ_¿®à4¨ýËºë¿ôTáù×pÕ¾ú¯=YüBþ¯_¿ê?×?× ¾]9å·þÛê/Ýœ†•«ÿuù•	¤Ndý	ã—ë/ÜœÆµ­ÿdö¥¬üûwñ¿1`=þìNKì¿~²ðÚ¿ÔŸÀËâ ëO.à4´„Ç¿J0ëüxYì‘ÿaa—ùçÏŸ§cŠíY?hùïð²4€¸ü·Ÿ	†]èŸ¯NÇ×ÿ[¡þùoð²Ô?:ÿç]‚¡—úÀùãäÎÿ>€‰ü×ÈÞÿüÍÁpú÷Û?-Ü äoÿj %úÇ@þ&ýôOÎù!€rýçòë?xÿ÷É¯´2ù[õ7€îû¯`[~ýc•É¯ÿné¿ù3@ùk+‘±ÿÒ 6æ×Oý§þ£m%òö|øŸüCõ¿]Àæüú§(?¼ÿÇ^ÿ$ÿˆýßm­¯šùSúËßJýåo&þ°;€òæ×?Yþüú×º²¨}ù›Êž¿zÿZ×Ô1eÏòÀkò·U¶ÿÝ&Þ¿üåÎÿ9€»¿êß¥ìù/Á^PâóÿrWË8rçëýð‚(s…¦Dÿ‡é_âÚPîüûWù¡/æeÏ?þç@öëaXÙóßw^þ õ§¾É%{þùþ¹ÿJYîü·™WïŠ_@ë`dÙêO~ª÷#û 
\cËžÿ*sö‡•¸F—¥þ]ëÇ—, pE.?ê/?ú+` (rÙ	ÀòÛØ<€µd¿Ô|Ø\ÿlcÿÅä»¬LÙ^?õÛè£þñ[è$þékë(>m$·ÿóçO©c¢k®M½Â¿ïêõÒÏ-à#¿:üÌ îòÛÁ¡ã?`.¿5D8`þ›,ç7€#æéo ;£ÿÐþäîo »¢ÿàô[dŸ Lîþí.	I"û¯ Ùå Q\~w OTÿÅ4º lži MLóûðÔ%þ‘­Ä#>                                                                                                                                                                0Œÿ®µ>ê7¿×úàhšß Ïo ƒç×ÿÐô›þƒÓÿ`þº}}ù—þÆêÿ’ÿ¸ñƒ6#ÿ—kÛ/ë‡Ü$Ç¿	oÖø| ÜLzè°~î,··€þêgìßzËŸi Áñ ³üUÏo=åÿ«A~<¿ô’¿UØCþçÙû@÷ù?ë/O ­¿ì+ÿÂ`ˆü0xþÙ$ö7€½å7€1òÏ÷7€^ÕÉo ä_ìo ‡ÏŸÒßÇÉ¿Üß@jæ7€ƒçOìo ÍäÍ¿:€¹ÿ¦ÿ1ò§ö7€6rç¯Ýß úÊŸÜßÀ!ò§}xf ÕÈ¯ÿ~¨Ÿxà™TV¢~Êw€.ô¯+)þJÃ·WIëo u%Õ_¯ý€ú×”p»?ñåìñÕ¢û@Mñõ':¾ÜxxÅ¸üúW´Vÿéìú<†¼­ÿ¹€Äüî¬h±þ[ü•þõ?–ß@=AõopŸr:ÿì ‚ŽÊ@-aõ§û/æŸùvTú×V¾ÿ|þO£ë§÷7€Bù?ûßÖ\Êõµ`LûWúWX?±ÿõ§*ý Nhþ™þ+ù“ ¡õ'û¯Ÿþúw.8ÿtÿÕü©Hïo 1‚ó×í¿!¿þ1îóÏÕŸêróŸ8€-ý BàÉ¯ÿèùû¿þYÿ}®¿§þ,<ÿÃý¿ç?ê¿oÁõo¾üygn¡þÛòë,<ÿÍ >è¿soõòO Ïþìíñ}Oû§•þ5ÕOý Ð"¿þò'Þ 4éo ò'Ý ´É¯ü)H:$ýûÌ?Ýi Kï9ûs€é_8ì ÞïÒ£Aõï5Ü fßëò£sä7€2ùgúO`æ5×@ÿŽûÏà~“¯s÷ƒ úï/ÿlÿë	ÆŸîŸ'¿þõû/˜Œ_´¿ÉŸ4€çùõï¤ÿl|ý÷˜ÿ¦ÿ?ÿü³¡¾þ;ïÿÏ«äø%?û×¿}ÿµúeOý‹ç_ê¿_ÿÝ÷?¶Ô/{óo +räßR_ÿýŸþ[ê—ûÞŸþšç×ÿ€ýÃë|ì‡þZç×¿©NOý+i_ÿ÷ÿ»H~ý+i|úÏ¾ýwÛ?Çéïà!ú/¼ýßñÍè_ƒþckÙåíèìþk‡¦ÿ>ûoø®ÿ-ý÷Ù?h !§ÿ>û§=äo‚þûìŸôˆß)úï³ÿ†ßù}KÿÂJõúY¿úïµÿ«míßè_TÑþYè_Tïùý€Âúïï÷€•µƒþÉhv¸ûÒþWú—Ô}þ3ýê?ÿ+ý×ýúõ+ð5ßõÇ»:ù¿ÿ¾å¿Ë¿ì×« ×¼úÍO×
Ÿüß_Ý¾(èi¢¿^„.à4rÿ_Ñ¿ú­šïw{®è÷úá8Ý?` ÷¿ö·–›üO|ÿuúgï_oŸýCŸ3ø.ÈN£Jï_ó£ÀYàs†¤ÿbÿ_)ýÓðíUäÿ	|Îøéü+7§qmê?·€ù¸ßnEhÈ/˜‹¿vp×ÆþXÊ{?j Óùo°Xé&à4²œý'_OþËÔ ~üøñ#"ÿKhü¥›€«éçÏŸ§cJÿð¶ÿ·4÷ñß÷‰È?sr%ý<nÿó ¶öOŒÛÿ3ÿÃ VúæŸ\Àiôþú§×¿îÿn/ËýÃó?. 8¿þ3ù·Ô¿ê—ÿf Ëý£òß- ì²Ë?3€­õ?û?ä¿ÀbÿØüço
œ7|ÑåU"ÿ·ùüWÈÝÿ¼€òŸ=äß\¹ÿþIùcÀÙ]ÿoµú/}ýŸØß ’TÍpœß ÒäÍ¿Öÿ} ùOýSåûØÞn òë¿IÖüëýOÙóÀú/Þ ÈøüKwmùà¯ùãúŸòæ×ƒ¼ùûß.`k~ý[çê÷àø[ëË¿Aæüý?lÍ¯ÿ®ûËßRæüñý7ç×‹ÌùÃ?¼¿­Ý÷¯uEUæü‘ýåo-sþÊý+]I¦ÿØ2ç¿î÷×ý«\C—7ÿgð‡L@þæòæÿÈýø’ì7 E¯–qdÍÿ^ûñ%ÙPð*JÖüõú—»BS"ÿMé"(vuŒ'cþ©þE¾,veŒ(þ˜þ)(tE*þéÏÿ³ Ô1ªüùgûçø6P±ëaXÙó/ôß|PêJÙöú³Ïúñ#ï J]ƒÛZþfþ±ÿ–ºøl«¿ôQ>x ë(p¹¹ØRé)ŸÖžæ–úÍ¤×_ý>ïÃëÌ¾ÒÂÿRZjý÷¶ëï!d Sˆ½$¤I«%t*+È÷®YW6þ›°ü´Q8>»RþÏ«"GCçþ\›ø÷ß586jÆŸÀG}8zú©Üå7ƒ#§ŸÀL#8hü»þKù-àùo°Òß ˜_ÿ#ËÛß Ž—_ÿÓpú-®¿O 'kÿvƒT1ù×Ðê2°A¾þ­.Û„ç_@›ƒ'‡ÐühqØd”nÕ–VãŸ©?<í                                                                                                                                                                8¼ÿîµ> Út·€,Ô·€Óèùõ¼¿›þcÓlòÊ_WÂþ‡þGl1ù\?`Yòù°ý¢5þúë™•õÂ‘!ðç!æÃ›@¯õ3- $½tY{ÿˆøÐ_þˆ¬oÝåÿ«r~è+ÿ_µóÀQò§ö7€~ò7éo‡È¿¡¿ì$ÿóóÒ¿À‘ó?Êßß :ÏU~0Hþ(s-«pþ¹À(ù gòÀØ§¿ÏÏo Cä_èŸ} E®ŽáäÍßß 9ýÜXâ
L½Óß ŽŸ?©¿ ‡ú¦_|h%{~ýÇÎŸÖß ÚÈŸ?áë¿38Æéàý’?±¿ÔW$ì7€>è¿Ïü/oÚõ7€4ò_ÚßM )¿€Ýå¿­ÿ¹€´ün :ÎÿWHýèß¿2ùgrH°ÿü3:&ýë)–r §Âý Ÿü=(ý«Ù–¥ÿí—áµ¡¿Ä)yú_ßEÿcœþ©Ð¿–Âùô7€jùú§@ÿJ¶åï³¿„Û–_ÿ±ó—ê¿-¿þÁ6æï´¿ÚX_ÿÛš_ÿ}ÛX¿Ûþ&$ÿÓ«ºý7ç×?L`ýùtzúë$¸þ†4É¯ðú³èóô7€ õÐ*¿þ!bê'õO:*ýk‰©Ÿ2€vùõU?~ §†ý @\ýØ4Í¯€ÈúQ_¦“þõ<Ô_Éq?`ëüúˆ;ùp³€‡”­¿¬‹Ï?ßÿc3ÿø3@úWwÛ¿>€YÁ?š/¿þëbOþÇþÿüóÏê{‰yýkJÈÓÿŸ³„øúw!!ÿDÿêø%0úÇ‹Ïÿô˜n Kñ+ô7€uqŸúÍœþÓýWêëßƒèü·ŸþÍç_­¯¶Üú¿šÉP_ÿ.l:ýgÕ÷@7òæ¬_âWëß¾hþ
÷ f¾šŽª¯ü¾¸çþÁùk|(ëµtXÝå×¯ýóä7€ªZä×ÿ€§¶ü|ðþ«¥ÿ‘û¯”þîrTú¶ÿÍÿùûï¿ÿžz[úï¯Ð êO@ÿöÀ)°¿Ÿ®&cÿÈG|-ä÷»ì÷+ŸõïBÖþ1÷_Êï9 êÉÜÿq3¯µTßs VñöðÏ’?ùµþ¥}üèßæý,Bÿ²®øs}-ŽPÿz?þ»¶€&‡¨9Oþ±8VG©)OþsÖYÿô´;âö¿z²÷~ê¿Ò¿Rþ™œš“¿fÿ›tBÿP¿~ýÊÑ¿Ø¾ÿþ=é?êâ×Y–þE&ðšÿz 1Ï§íþù'pÛ?öI#õëÿ+_ÿÜ¸êó¬¡_Ï‚p¼ÿ¯œýsàò‡ˆ§~«ÿ6ý÷Ýÿ]ø³†_ÕÀiTÇë[?l§q _ÿo×6æÀ×Iú÷Ñÿ¦}Ô fòß`:~ÀMÀi`ùû¦@@ÿùúk7!ðótT¹?X+ž2€ÙüX®¿|p ?w ç¬½NTþÀôû¯æ_¸	xÿ?Ý?DDþ˜úXë’î& äýëü€ÈúYú‡åŸ¹	Ì¯‘ú9úçŸº	y÷ò ¥~†ÿùvÑåéŸ”¿zÿ›^tù_•¨¿¹|þó÷IP"à@óýò[@¢fùOYOH5—?µþæo ¤æ7€$ÍòŸrç×?Iæüwýü¸úãçŸÏ2ç×?MÁü?ÜüsÆþúoë3¿ûþùW°)¿þÉÊä_ïÿøï-õõß Wþõþ÷ø˜@Ü½þúgV+ÿcÿóëŸÃ·fýå?VþÈþ[óëß<Pÿ™Èßƒœù¯ûßüyŠü‡ËÿÑüöoúÖÿþï“¿Eó—ì_öjFÎüý'^òAþäÌ©ýø’ÉÈßƒœùãúû¾_òç¿´þ]p %¯ÁdÌÓÿ÷]ÿœ(y}Œ&þÛÒ%î(sM*{þ™þùPæzU®ü«ý3 È•0²ÜùãúÇ Ä50¶,õg;|Xþ¶2çŸï¿} ù/<Q˜y‘CúÔ”±±þÊ|®ä»¼ÜÙT?àc|À Öãb2'Oþå÷±þJâ·“ZñþÉW]|õ[IŠ‰üNÂ^Yú&Rês(âO{¢ýy7ù¯ÿžU?(*ÇŸÀ[} þÔ®ó[ÁÑã?ôŸÈoGMÿ8€ùü&pÈøwXîo GÌÑß ˜_ÿ±óëhYûÀîè?6·ÿƒ‹éïÀã‰É¯ÿEô_@«À6áùÐæàÉ 8ÿÂ Z7ù„åŸ@ý&»õú3¨|œ´ÔþB}                                                                                                                                                                  Žë¿­ˆFá-`õ§ðš-uûÿ7ßÆÈÿßB}8 ýÇ¶©Ãã¦zÿÛ4;b²ŠéOßþz°þä?lüÀÈìøëH©ÿe^îÇæú±·IÝM çúAŸ,	+oÝæß´€ÈúÐaýôþñõ- ÃüUÍo ½å¯Ýß úÊÿWåüÐWþý`÷ù·õ7€½ç7€Áóoìo ýç~7ýÏpèüõg` ]Éšÿ¦þÜ`˜ü%PîºPéüp°üÑý còÀ ù£úÀ0ùK Ô52–¦ýàXùëö7€íòæîo ‡:ýãûûp¤ü	ý ¡Üùõûô_Àü1€ãäOéo Èwÿß…þ‡9ýg°ø …Íù_®½¿Pÿ1òßÄ¿ž@|~Ø]þ‰úïÐÿøý§ó¿- !¿$ÿÜ VGÿÊ
åŸÀ©l¨zú¿Äö8ýrúOàT¼¿ô“ÿüE@l~7 Çé7€À#Ò'ùÃú¿/ ø¶õ7€(EóÞCÿ£œþIý7æ7€[òë?öé¯ÿîmÊßk¨súë¿wÛòë¿wÅû7Éo eòë0úmcþÐ»«ç7€:ý¾ýMÿ^óWéŸ'¿þuú¯>ü+šþ»ê¿òðÏVù VÿÅ‡·Ë¯­þsH:"ýkÊ’f óë_ëô_úñ¿†ý ^ÿ‡¤‘þ5åË»€©zpÎüú¯Ê™Qè€è_U†üÿüóÏÚ{‰ø	Pý«ÊQÿÕÂ»˜úùïR¿JÿH›oúÿYÀLüÙäío k‚ë?ÍæŸÀBý2¿Jÿ8qõãú/Ç×¿‘ùû ¶~• e®µãˆÌÜ? ¾þˆÌ?Ñÿ}Ñõ«|PæZ;ŽÈü“ýæ/ó ôÏÜ?6hý:÷f¼®Ž(.ÿSÎüu¾íš:¦Ü·þáõWŸ	Dÿ
òžþõ‹? þ!¢Nÿ§ªùýÐ¾úÇÔ¯òpú¯Ë÷á¿@~ý÷Ó¿@}ý÷Ó¿D}ýwÓ¿L~ý[÷_¿óÿlcý¿ÿþ{úíê¿‹þ›ëÏõ÷,@­û¯|ó÷Í¶[~ý{î¿ôØŸ‹Mõóëß¾ÿÂcÿ.6Ä5_ßÓ€vÑ?ôW¼O½,òþúwÐ?`ÅPÿúoúÉ¯môï¢»ÈßGÿfÐ¿ü{@£#>hÿý Ñµÿî>	hu¼Gí¿·´:ÜÃößÙ ZíN´ëÿýû÷Øÿ¢Œ_¿~éŸg ßÏ®^òœaò‡ûõªHÿ¿ò÷~Ö8ýcò¯à¯¶¸ü9æyõéÿ«ÛþWŸ D>o¨þùú·@úÇêÜ¿ã€„'Žþz¾€Ó¸Šöÿ«pþ—Ùö8+ð wÿoo6æÀMýàœV½ÿ%}Ü^Bð?p §¡Uì›~f ÿû_Dþ—•úA¹–~ž«Ü' kí'úÿï,¾ÿlý€¬_E?þ<ð Î(Ú.þÃ Þò?àem Kù¿~ýºõô?xÿ éù—Úß÷Ï?€µþ+ù—oÂòÞ?ñ! kñgûÿ/0ÿKPþ¥›€€Ë.ÒC€âgé’ö& à¢;ýSV?¨ÿòíXþ™›€‹.ÿ«¸ü¡õï>ÿ/Úê& ä’ËÿªLþ‡¯ÿ#ûÇäŸX@È—ÿM‰úw .ôÊ·€âWÙ±4Ë¿tÿlÿ×ïªŸ¤@þÍýãóŸ¿1LŠüQõ·~0)¿$Ë|òGô?eÌo ÉšåŸ@r~H–ñ¶?²ÿ)c~ýSe<ù#óß- å3ý·Ë˜?ºÿç‚ïõ×?·\·ýIù?mÊ¯ÿ™Nþmý·å×ùG·ý¶[ÿùõßjóÉïôß¹úòëß‘´üNÿƒhß×~cçw×ß¡óÿþý{íÝÊß‰2ùWûûÎßaóŸû—@¾ËNbÿ•·”?u ™.7o2Öÿñãã¿'_zOþöræŸ,½Ð?é‘¿ä•1tÿø‡þ“[¦ü³ýWÈßZ–úçü)ýc~ö²ä_¹_$[9êo£~Së¿R¿¥ÖõÏÔo§}ý3ñ›é þ…ômôQŸvÔžøDûs1óÏÿ¾©|PÔ?³€oµ8BêÄŸÀ]~38tý‡Ìä7cÆÀB8`ü»þ‹ùà€õo°Òß ˜_ÿ±óëpûÀñòël9û7¼¤ÒláùÝpHÙú7»lšßÀšßw€+,ÿü 2™äŸ@õc¥ÅøoÔGz                                                                                                                                                                  à þ»1ù*ÿw¥úñQ<úÒ®Û›Àáëß`¢¾¼ÿ«ùàÈùõ?8ýÇÞßÇÿÁû¿Rÿh¢òs8òÆ_ÓVþ—üGŽ²‚¤ü_¦e¿\dˆ¿~CØ~¦ºô_?àCÁ’°ò&ÐsþäDÆ·€>ë' ¥¾t™?e ©ù ÃüUÌo ýå¯Ûß vŸ[è+ýþ°ïü›ûÀ®óoïo {Îo cä>›ü'8zþ·ø³0€ÞdÍ]¿Ð J^*™r0P~¨ÿs¥þ°ŸÓß †ÉÜß zQ!¿/Æ>ý§ï2€Ãåêo È›_ÿ±óÇõ7€ÁûÀÁòÇö÷h cåŸÀÜ«»h)þØþn v|ú¿|h×ß Úäÿl;Øþn šÙÿ¡þçj÷7€ú§ÿdþË"óÀqòŸ ÿ>”È?;€¢ý êé¿”ÿu ‘ùõo¢Pþ„þ> ì)ÿZÿ©¬‹€ãœþ“Ÿ¬‹þ:ý'úŸŠ÷7€nNÿÇ¬Œþ:ýïªÑß ¢$çOè¿~4úïæôíÿ¹€€ÃÑÿ€ýßt89ú@/ù¯Hÿžþ•óëßèa½ô7€P[òë¿eûÇþ}ç/Ü?S~¨Ò?àÛ‘ô?RÿøãÑWý—Ð0¿þ…òßÿÐO¯ý Nÿå‡ÿ¶Ë¯¥þ‹ÿ¤ÿûÏ åpôßcÿÉÜ¿NÇ~@éüÓ?ô½R?ð@úïµÿíîþ)øÀúï ÿü³>Å_@Þüú×èÿÏ?ÿü³ðê>ÿ—þµû¿æŸ]ÀLüÙdîo Åû_òO`¡~©g€Õ¿BþÉþÿÄÕ×¿[ó_õÿ'ª~©ç€×¿‡þõ«Ü ¿þö.cÿÈúú¢ÿã'€õ«|XüúÛ»Íùï¿ ­_é. ÂWßÞm?ýïlÎï[€5eÎ^¿ÒOë_±Dýj?šñº:¢®ó{&°=õ/P_ÿÒZä:@ý÷Ñ¿L}ýwÒ¿P}ýë=¿þ{è_¬¾þ{è_®¾þ‡éŸx€úwß¿`}ýÑËêßUÿ‰Œ¯ÿýË¥£ÿžÎÿü‡¨Wýn 
£þ}÷/Nÿ±ûo@ƒ£=xÿ}Ý Ô?Ø]ÙGÿô48ÖÃ÷ßÓ ê®ì¥ê Zêáûïh -ŽtWšõÿþýû÷˜××?Ö¯_=ß |¿Àê3êç×«BýÿÊÔÿ} AO©tþõüÕj sù—näîÿ«Pÿ,· —?„?o¬þÝôÏ÷E@ÔëÙÿW©þ¹ûÌÑú÷Ò?f ÿ»ËŸi §‘ÕÀ_±ùðÖÿë•ðœFV¥ÿã ¾]Ìå¿ÀKÀ ®ã_& ÿºýßãßà&ÿÍ ^Öû?Ö@È•ôóçé¸*÷¿®=€ÿmé?™?lëWÐÏW§ãªØÿ.þUÿûü×xYÀ\ý ¬_?Gï"KÿÇúKýÿÚ!ÿ×¯_óä×kþ©øŸýÿ—Þ9ÿÚMÀúE—?Ã=@3õûÿ/OÿÅ¬_r§ÿÙ¦ü³õ3ô_Í¿ø1`ý‚Ë¶!ÿBý÷þ“ù?°Ô?$ÿüMÀúå–ÿ¢dþäþa§ÿìM@ÀÅ–ÿâÿ³w/ÙmãŠFÕ.kÔ(’Øítíž{•‰äÎÿ.ù)J| $@ÀÞSeç”)~¿(Û’óºü³õûÏ|ÿ/4ÿè% äfËÿ)cþµýÃïþc(v&ë´¢þRþÐþ“ÏÿÅä¿]@©óX­Ôwþ™oþ†] bó_?-Xê$Ö,uþÅþß:QþË X+[þ©\ýDù`‹ˆüËõãúß-`e~Ø"áîÅcù‡ˆûÌß RIwçæŸøÛGü-ùõß Ùÿ®œùõß"Uýrùõß$M}ý«%çÔß–_ÿ²&ò‡×—¿rÛîüóë_Þ–úý_—?ºüåeÊÿz±ô±å?‚¯ø	ïüïýó áÍçSòüÙú'¼ÑdÈxý_;€D7˜lùCû{íÇQ$­RÕ ¶ÝNÆ¥ÎNþ#(–?r É?:oÊåZ@ŽNxÿL]ýâJæ\@¾NHÿÌG ~Q…ë_¨_RéúïÄ/æ õ?H_Æ1êSŽúÝÓžH>¿û¿¡½Ž]ÚO-à¦¾4\d ãùM Éø÷˜Îo -Ö¿À\h°þ°ÿ|~h¯þp ú÷—?¦¿ÔHÿ®-ä×¿qú÷Mÿ¾éß¹àü¾þkSpÿ¥»lša …ŽžíRô/tè$”ßÀM[¬!Óæã¿ñ                                                                                                                                                                  €jüß§ÒBÁøø;eù¿—ÿàI\ÿ¶Údý©Ì‰ÃçD›Ë?:€…‹	ôÿ¿Àü€o
k¤ïïóÉêL^´Wö§Nw÷Yýû¦çäïœü8Ï˜ý?®¬ÿÏ@Ê[BÒøˆˆÿÏ’·ŽÍõ—/s£›Àñë¯\@d{8pþø¬ªo­=€Õùà˜ùÏ{å·€Cæ?ï—ß ˜×þp´ú;÷7€Œ²çOÐß *ÎŸ¢¿Ô›?Í , Úüiú@ùÇÞ¨ÿ1%Îÿøéî=Ð~þ¯ú#HÒß ªÉo ç7€ÃË›ß zÊÐßç€}Ýý] ú¾ûgº Àó÷7€ãJ›?°¿OÍÚß ÚÌ¿o¨¶¿@“ùÃû@õùŸÞío …ú?­èïPoþ›úWˆèo •æ©ÿµ ý›ï?‘ÿ} 1ý ©üoÐ¿éóO gØóîÿ”²¿@[wÿË öïo ‡É?q˜<
ýë?~ÈÜß “_ÿ:¬ËÔd “‡¡Uwÿ•ýgÄ ŠÈ–ô{€3¢[wÿBý ÊÊü¡ýo0w$úWt÷×¿ö7€ò‡}ú±÷Ã¿þôïÚ–}ê_¿œýOÅúÀý—Ÿþ}§—ýO‘ýæ×?[þÁ}¬èŸýéØ¯ÿÂË?ß…~ÿWÿúúÏ¿ü{,î—é¿kÿÙÿÍŸ÷å¿úgÎÿ3¿‘ù³þüþÙû‡ Ø€@þ·X¨Ÿõ'Àõ/ÑÿzËõõo¦ÿïß¿'þÓ3õ3þ
ý³ç¿êÿûCt~ý+î¾Í?€…ú˜”èÿ;²¾@cýÇÕ×¿Õþaõõ¯8ÿ\ÿÐü;|¸Ûiì¶ÿÝ' Áõ÷øð^g±^[ó_ 2ÿ.Ïîq
;ïÿ9€Èú~ •þßÕÿ¤~eò‡þÝýSÇ¿Ð?¯ýóG þ•ôÏR_ÿZúgÊ¿u 	NQÓvÍ¿êõo¥ÿº#Ô¿‚þùòë_Aÿ|õõo£ÿ†CÔÿèýsÖ×¿úþQÿšû'8FýëìŸêõ?xÿàŸî_Iÿƒ÷ÿ@–ƒÔÿèý3ÓÿPýw€þ}÷_?€Ý´2úw®ŽèßwÿÕØý@ûèŸd ?~„ÿYý›ëÿã"øOËïå%[ÿsšü×ýo~sÐýc½¼ÉÕÿœ¶ÿØoÒUÿ—\ý7/àªÿÔoÐMþœHõuÀô¯Ž¼¦ÿñúÇMàçø›ç~uì5ùs`kÿÀüüt÷žù_= ÿû‡,à+ÿÝ Fó'À©g/a8ï0€«úwˆê·€SßvìŽÈ?ÀDþÁ ®Ä,àÔ¹ý †øßÅLÿŸ1ý¯ãL ]ÿççççS»vìÖ¿À]þ«LæÿÀ}þðåoz ïØµÿgþ¯üÜÐ´~è –ÏNûýß°KÿóMýÙþ?7öZ@`þÆû/KØÿ÷ýGó`¾ÿtþ€,ÞnùS÷ÿ_Úþsù—°x»õß¡ÿDþÏlèÿð ©úGÜýCú/åŸÀâ­–?qÿÿ­è?÷õÿrÿ™Ç€å[-ÿ—|ù§û/] BòÏ\o³üiûÿ/mÿÀüS—€åÛ¬þ•ù ‚û^
žÊ*åÊÐÿ´5ÿÈŠÇj%ÎÒn qùoŠÅz%ýÔoþ¹Ÿ»þ§Íù¯Ÿ.tk—'Èõäõ¿ñù/`‹ÕùïêÏ?÷?ÖÿæõÿkòÀV©îüƒü¡ý/>Ÿó_—ß 6JuçäéÿIÿ2ÒÜù‡ù§<¿l•¢þ]ÿ¯Œý[Òüúo• þ]þXú´¹þæü.ÿEm¬¿=¿þeÄŸ®¿”ÿõuù ô/kõ]1ÿëÅâÇ—¿°Lõ?ú/@þÒÖÕÌŸíêÖ3±€ùúËŸù…ö_7€47œwéë_ÿ×`ûMf üsþÐüïúƒòÁwü…ú	¾ê¿%ÿ‘ìž?n 9>>ßö¯!×ùƒï ¸(TÿBý(—ÿBþâ
Ö¿P¿°¢õß¨_Táúï´/¨x}
KæeŸô`Øÿ¿+Å‰þ|›ø×ñm Õø“Éo-Æ]ÀD}h²þý fú@{õo0—ß ZÌÿ'<¿4˜?ª¿4—0 ýûËÿ'"¿þÒ¿oú÷-¼¿Çÿéß¹àü¾þoSpÿ¥»lšß÷Úßó?Í
Ê?7€"GMBËõg°ÿá’ÁBýõ»'>                                                                                                                                                                    µø¿‹ÒA©òWJ%ë.àï˜"‡Köú·o½ôŸÉo ½÷7€ºmÍ¯í–>å×¿oú÷MþÎéß9ù›r¾·ðÿX[ÿŸén‰Ê‡® ®þmx+8|ü°+ÁÊä&PGýUˆ*oÇ®»€uñàÀùc°>¿µ~ø 6Õ7€Ãæß«¿3ÿy¯üPqþ$ýàxùwío µæOÔß *ÍŸª¿Ô™ß :ÏŸ¬¿ä=¿tž?]8zþÇOƒ·@ù¿ê@òå ]8lþ›þ™ÿ¬ô#k~è<¿OzÊ?Òß§ ‡–6ÿR€îò@?ùúÀ‘$ÎÒß Z¹û?=…õÏ6€Ü§§uëó?]‹ío ±2ÿ þpú÷˜ÿ{aý ÊüçÉú_ìo 4ÿÇ ôï5ÿû Bû@{ý/Ð¿ßüQý ÂüýŸôïùî?}=híî?y=ýÊ“_ÿSïýG·¿ì“?q€r2å/Ôß r÷×¿9û/¾ô‹þUåßÐ?÷'€Eÿ®¥yÑ×T~ýNÿ¾­Íàþ°ÃÝ?àé¿2O éôþyŸÖ§þ‹/ÿ)ò
 ý÷ü‘ŸUù³÷7€}úŸVöÏù`ýóöÀ|~ý[é?1€…ü9Hÿ¼ùï~æ{ªþ\þÜý`¿þwX®Ÿó‡@õß»ÿp§ üúWÛÿj ¿ÿþýýoË?ùï€–úÿþt÷Ÿ]¬Ÿý°Ã¹ë5ÿù6ÿÝ Bò{ h¨ÿïèú šêÿ;:îoívûëžéZ?ûs ;žÅz%ïž?÷sÀ;žÅ>ó|QâEà~
¨¢þ·_$Èa µô?åÈÿFÿ*úàò	ë_èŸßæüïxûß¤ñßèø»ÿ·Äíßè_MÿõõÏmß»ÿŠÔ?«]ïþkPÿ:úç©¯3ý×¡þ5ôÏ–ß …þŽPÿÃå¿ïŸ­¾€êûo=Fýkî¿ýõ¯¶šƒÔÿðýïð õ?Zÿùo ¤>HýkèŸ‘þÙèß7ýûv®a ú÷Ýý ö=Ì
µÝß£ì© »d•
öÿñãÇÀ?ªÿáúŸSä€þ«¼¼x wý¯sÐýWxy“¯ÿÆûßÿò¨ù×öÉØÛ®òÿîÀ+ú¯Í¿4€ý“|!0õË#¯è¿ºÿKÞþ¡øy1úžÉß{EÿãöYÀ[ýñ	Ìüòà+òy çÐú÷˜ûåÑ×ô?rÿspþ›Œçý*@ÿ8»öŸYÀMþÁ ž‚ú?<¼ýOúþÏÏ§†íÛÿšÿz OKx¸·€åóó|qjØ>_.,`KÿëúïHØÿ¹ùþ§ûàÿ›Ëÿ=€§ùþwùc°xr:èÿ¾€½ûÿï"Aÿ±üÁÌßzÿeçÔøßuÿÑü_˜í?ž?tùõO}ø_HÿŸ[ú?<¤»ûëŸ§ÿBþ€þ3ù.K7Zþ#ô?­í¿4€Å-ÿ·¤ýù§û/] ò/=,Ýdù¯¤ÌðÉ¢þsXºÅò¤î
îZŸî1`é«Ÿ­ÿé»þlÿŸÛûO^–n¯ü7æXîÚ’b ‹7Wý[åúŸ¶ä]ÀâUÿNžüAýO›òß°ï‰kE–üaýo0û¿ÅìxÎZR´ÿõ&Ÿ÷™Àç+v;]íÉ‘?¼ÿµèüï`›ù¾þO“_ÿÒç_þþo¢üBúüKÏÿŽÐ¿˜ù¿póï©óëŸBúúÑô/©x~ýËÊYÿõõõuùOé_T¾ûþ%À ô/+WþÐþ¾þ/,KüÏüý×`ímeDŽú÷ÿ5Xs3™’£~Lÿè¬8æ¤¯X?z +‡iêÇ‘¿°¢õc°×u§\ûwòW¬ý;ù{§~ïÔoÅâK?¦¨_¿ ×þLS¿rÛò¿“¾^	òS³‘üÿ})x\¤÷çÊ×oòÇ7‚fãpå¾¾	4| ù- Áú#˜Îo æ¿À\~h¯þÍ æó@ƒù£ú@{ý¯ ùÿDä×¿Bú÷Mÿ¾éß·ðþ>ÿkRp~ý›”®¹ÛÀ¡ù}ÿ·U¡ýçPèàI ,ÿì Š7©„ÔŸÀþLzKõ/Ôïú                                                                                                                                                                      @uþŽ*}T”¬o§Þó@ïý ïüú7Oÿ¾éß9ý;'çVçÿghŸ£eÆyÒìÿ-ºþMy#8vü¼û»*º	?~øÖU·€
êG.`M{8týˆ¬¯oGÎÞ¡¾7Ø 6÷·€ƒÖêŸ ¿4ÿný ïüpÄü{ö7€*ó@çùÓõ7€\ræOØß *Ìo çOÙß êËo Ç–=ÒþX†ú7o0€~ò?~¼QÿÞòß,À Ž)cþÁ Rö7€:ò@çù=\âüwý ïüÐSþ¥þp,kó?}‰ìï™ ò×¿ÀH~h'ÿy¤þ`ûö7€mRåÿ@@€öò-`´¿´Ÿÿc Aý½°ÚþOëo GÉÿ>€°þp +òÏ÷¿@ÿnïþ3ý ‡»ÿe úwœ?âÀ— …µÓß vÊ¯;Öä_îñ	€•åî¯çwýO½÷/ñ	€ì‘?èá¿Èw ôß¥Ðçÿú7—?ªÿD~ý¤¹þ°Kÿ€ç&ûç|€þYóëß–ÕùW¿þCÿFúÏ`¾Ößb ùò‡`!¿þMôŸ}ý÷\~¿¨þx{—þô@@~ ô¿À)$ÎŸÔ?cþ‘ù_•_ÿJûà÷Åû?ã‡äÏ:€ýN`Çýßò-` $¿þu÷ÿÌ¿€ ú¾¨4ÿHÿßkògÀng°Ãþç»üƒç÷ƒÀ5÷`Eý¬/ÜñÖ,yÿÇmý“-`¿SXµÔý7÷O4½N`¿ùÇ>|LÒßß]iÿÇTýL`‡³×{ÿÛï ¤Ì¿y ÙÏ]6öÿÀå_’Öß<€¬ç­[û.àí“D¿¦ÿáó_I_ÿºú'¯¿q [ÏMvì¿êøô¯¦†úÛ°å¼ôb¯þ«Ð ’þYêëßBÿðÃIû„ð¶SÓ…s²$¹ó§ý±ð-'¦çÜý·¢þì6€$‡¨%ýHxŒú°ÿä·€Ó£þõÏ@ÿ#ößo úç£ßôïÛ¹‚èŸQý×`·#¬—þ}Ó¿oçbøqô'åo°ÿ[þ°è¿ÎËËËKÎþ›pÛÿö·Ç\ÑuþÅœËàó_îyÔý7ä_ÀÆþ[ðô—Ç}ÓÿÀý|0ñÛ¿È¿©ö-àçÅè{¦~yè7ýÝyoõÇ0ýËƒ¿è¿©ÿKþþóøª?²€ÑüIpêÜ¾ýg&0È3€‰ü	6ž½ìù 03›üÃ<e@À	z~~>5¬@ÿsHÿŸù·¸xzžßœZ¶ÿûüÜÒÿáKìó·Ýÿc ó&oÿ‘üW˜ïÿ]ÿ}úÇ[~àœu úßäZ@hþæû/ËÚ4ÿ÷ "û?<¤êÿ™_ÿ¼ ?ç0×,ð%`é6ëôþãù°t“åß§ÿÏýC°p‹å(Ðÿc kò,`éË?-ÿbÿÓºþKX¸½òß8\ÿ…ü_,ÜZõ÷ê?a Ëýg°tkå¿“'HÿÓÊü3·UýåúŸVæŸ¼,ÝTùGdÉÖÿ´6ÿø%`ñ¦ª?¦`ÿ›L}ç/l;Ÿ¶fäÈÜøãùï°ãkL†üý¯Då¾2 ÷9jZ†þsH•ÿ2€Ëëƒòžœ¤Ï¿üýŸù?ÀVéóïÔß ÒHžÿ{ ·o˜<ýJžìç¾fóë_TòüÑô/*cþ××××å?¥YÙîü—ü¹àvó.Wþàþk°ùVó%OýˆþñØvƒ¹‘%èãÿ…üeå¨Eÿ²
ç@®cèYÙúò•·þü· ßÉ_V¾üKO|’¿¬$ñG¿ýÖyñ·‰	îúñ¯ÿ¿°Í×ýMùç{ l°ýá~]ý7ê×m[ý7âWmk~*§~_þ|¸zÓMýÿ®•8D2·¿ŸÀD}h6þø Fê›@›ñÇ0•ßZ¬7€™üÐbþ›Ìö7€óÿ	Ïo æ@ÿþòÇô7€¦û/æ×¿Bú÷Mÿ¾yüï[x~ý›”®¹ÛÀ¡ùPê°M¢þ¥ŸÍÂòÏ Ì‘“FHýõÛj {*M¥ÿ >#(}                                                                                                                                                                       êï·Ò‡B±ô×J%ë[À©÷üúwÞß úÎ¯óôï›þÓ¿s[òÿóe—CeÙyÄüÿcUýF¥½)$h4‚ˆúãáMàØñƒ.§µÍM ŠúñˆoG¯³€µñàÐù°¥¾¸~Ø ¶æ7€ãæ?ï‘ß›¯þpÌü»õ7€Jó§êo Ì¿g¨2ºþPcþ„ý Âü)û@}ù óüIû@yó» tžß -{} ç7€Û#¿ô”ÿñÍÍàrÕ¿[€þ‡”1¿tžß :Ïo MöºÓß·ZÈ]ÿv·ù ùüƒ,õ7€#Y‘¤þõ îû» ´Ÿÿ{ ‹ý ÚüsýŸ¦ûÀA¥Ìÿ9 ý;Íÿ1€€þÐYÿœ(qâÚ:ÿû öîo kÅç_Ýß ‰»ÿRÿ§ý`ùõo:ÿ†þ ºèÿT¢¿¬±"¿þ}ßýƒú@Öäßrÿ×¿þ»ÿ¦þžè ÿôå_ÿCY•Ã÷ü0Hwÿmý3¾Hÿcô?Eô÷ Paÿ…Ìæ÷:ÀZó_ÿÈÇú»¿€úÏå÷£@ôŸÀå½ú7ÿ#ëó ýç~ $¦¿TÚúÀ–ò» ÔÙq §ÀüúW™ÿ»ÿï‹Ë?Ü×ÉŸo ;ŸÃ>û¿Õÿ\À­ üú7Ñdaù âþWùïš?Û— û¿þò`¦pþlßÞñÖ-Qÿß+óçzpÏSXµý£òß½ÐßYeÿß+óÀß[Eÿ‰@lþÑl_À~g°¿üsýãó`ëö;…UÛ8€ù³`¯ØsÿSªþö:•KÕcþÑèôþßxÿ·°ÂÁÐÿðý¿Ÿ¼¾{‡-@ÿCæŸþ¥ï÷ ß¢Uý#êOþñÁŸÐ¿þ3~éoèo ûO ²þÄÿåúÝú×Ôá/ûûÿè_Aÿ@è1Ì@ÿƒöŸý ö(ô¯¯ÿš¿òušþ}÷,àúÍú4ò|-`ðFý»é?Jÿœôï›þ}Ó¿oú÷Mÿ¾éß·óá VåúÿøñãGÀÓ¿Íþ—üƒ\ýækò¯õò&gÿ-æ¿ûå1_ôß”i ç’øüÇ±_õIÿý_röOò)àøoû ÿÖþ/9ûoŸÀÔ/ü ÿÑûo›Àô/}'ý7Œ`æ·Ç¾Ókÿ½03‚ŸïBóëŸ@‘þãøÈ¿€‰üÛäÖ­PÿóLý»„ô_5€€óóüüü|jÙ>_.`8€Éü›¿ªßú >°sÿó\þÁ ûÇ 4ãýßp:VÿŸ!ýßðð.~‹'¦“þ—	,ý¼ý®ïÿQÿ}iû?÷Óÿt¸þ?Ãú_ç\@p~ý3	8–ÿ{ ù£°t‹å¯±ÿÃƒ»ùúçÀhþÐKÀÂÍ•ÿF¶üÉû-`éæÊëpý'ó‡`áÆª_¾ÿÒ ¦ó//`éÆÊ/SþåþÏÿ?lÀÂMU¿þ“ùç¿´þ¥›*ÿ˜,ùƒúŸVäŸ¹,ÞRõG•ëZ‘ò°|Cå•#`ÿÁn¾ï{	Ø÷¤µ$Cþàþ_8…ç½ìwºšS¶ÿ·ðüw—€ìç¨iéó‡|ý·%ÿÍrŸ Ö¥ÏŸ¿ÿ÷kC2Ÿœ¤ÏÿÝâß7ç i$Ï?òºÿÄwH)uþÑÚúWâüƒØ¯¯_o›9ýKJÿÒÿãŸ^_¿0Gÿ¢ç?ò‡ô@²ÛNŠ¿pèûZ¯ç¿îõæ™Ð¿¬´ùÇRÏ8r)n2×RÕŸúZé€¨¤¸Á%Í_úgÊ$¹ÁÜHPò›½ÏF¼€,Ræ–zøBý¢6Ö>÷·ôÖQòµ1ÿÍs¿Óo›!Q[êÏ½ø'°þ…úE­¯??€˜cP¿¨•ñ¿miÿAüÒÖ¥ÿ¶!þé*ðçËÄøïÊÎÇÆ^í'p]ßZŽ?:€‘ü&ÐjýûLä·€6ëß`:¿4YØ.¿4™0€ùþÐbþˆþP%ýûÜ)¿þæ¹ÿ@\ÿûœ_ÿ&éß¹Ðü¾Ô(ý;˜ß Í
Ë?3€MJõ/äoÙBü7â#=                                                                                                                                                                        ppG”>&JÖ7SïõàÔ{è;¿þ÷7€Öéß7ùû¦ƒÎW–þì†üÿ¤;|’”ÁšúÃô6pèúËˆˆ?QÞ?ì±`er¨#ü"Ë[ÀÁëG-`e|8tþÐl©o Ç­8€ù-à¸ùÏ»ä7€£æß«¿3ÿnýàù÷ëo •æOÕß êÌŸ¬¿-ÿÎý ÆüÐyþ„ý Âü)û@YëÀáeÎo ç×ÿÈ²×7€ÞóÀqí’ß :Ïo ç×¿©üOOOOSÿÑÇ‹û7Àñ¬Êÿte¢þè …ü×õG&ð•ß úÈ3€«þ÷Ð¿öþ#ùäÏzØ÷Tµ(Yþ«ûç¼ Àqòà¦¿G€ãJ™ÿk HØß Žs÷ÿì—ßà¨ÒæÿÀ}h%ÿBÿ§‰þŠœ¸F¤¾û÷7€6ïþ“ý] úèïÐtþõý] gEþCö7€cõÍïÐB~ýÛ±wÿÇlý {~ý[³*ÿ¦þùPàôU¯¥þ9ÿ÷+¾—óO÷@ÿ6ûOç×¿þþó8Í÷7€Jó_ÿÄþÈÓ)ÿp úWÙz §åþ×Ð¿ÎþS8Eö÷€Zâw}~€ú-àØÿj ú××ÿ÷Åý NÁù3] ö>ƒ}å?_×ÿXÀ÷®þËýó\ v>ƒ}öÿÊÿ>€{!ùó`Ÿ×ˆýoèo Õõ?ßõÿ½>–Ov;yHÒÿ÷êüY¾°ßÙë1Hÿðü9°ãù«]¢þ¿7ôOÿZýN_õòôÊŸþåÀû¾êeé™?ýO„íwþºíJÙ?õ/†ÚëìÕ/Gÿøü©/û¿óß}xûÝ?õ ö:}}öÀõs®lÄ ô?zÿáS@ßæîÕÁ/	ß4€\§«9Ûúàæ?:Ý~øþ…èÔþëéÿ‡ èØþGÀÖÃëÆ¹Ô B~3€þÇí¿} Ë¿FÿãæOÐñ·ƒêàþIpÊÔß *é?û7DèäþÉp=Á›õï¤ÿÅ]}ý»ê?BÿÜôï›þ}Ó¿oú÷Mÿ¾µÚ?û¡5Bÿ¾•ëÿãÇõ¿Ýýî€7úoñòòò’µÿ9Uÿ‘ßòFÿù°­šG€‰ß£Šü8—ÀÔ/Ò¿‚þÛ0ùËãôO’~ ÛûoÃÌoÜÐÝ9kJ‘þÑÍ¯ÿný`<ÿ× ô¯í rýW`Û©kCý§òo¾ |ìççSãŠõ?'ë¿r ËùùÍ©m…>¨ ÿsý?pÚ½ÿykþßÌßþ NÕ÷_³€ÅÜOÿ Gï?€àüúçéú¡çû?|ˆ]ÀÒG•è ý?ó_ Åý~‹è•?nK7Wþ[»å¿]@pþ˜,ÝZùwí?Ì8€ûüòçr´þ#wÿàKÀÒmUÿ^ÆüwýC0ž?hK7Uþ1ùúßå¿ù0*À –n©ú£råé¿8€™ü‹X¼¡òÊ•¹ÿ).ÿüçË7TýqåúŸB>õ»ìwºš“)Hÿ«	\þy¹ÿä%`—3Õ¨<ù?úþmþ8BòO\²œ—näëóï	ò. ý)éJ–ü‹½W÷¿@º3Ñ©ùOÙòß, ÙYèX†ü±¢ú?|½8$ÁGæ?ü= ÒIŸÿûêÿš£¿¤•<ÿ×ÃÿëkÐ ô/+yþ«þ9ò¶“ú¯ƒö;ý‹Jÿgì×„ú—•8ÿHë¥ïë_T¢ú_ÏüŒ¿cîô/+iþ‰þiè3” ÿÕ¿ãï™?ù‹Ú\æ‡>&?/¿¨„ù×< \È_Ô–úóùƒ©_Ôúü‰úÏ,`Ë”P+ëÏ}òKý¢VÕOLü¢ÊÆÿ¤|IeÛ•ùs1ùÞÿÞízDìÚþÃL}h=þè õm éø#ÉoíÖ¿ÀD~h4~xh3ÿ` sù Íüáý Åüú7/Uh0¿þ­Ó¿s¡ùõoSªþån›„ö÷€6…æŸï_êèÙ.,ÿì Ê8i„åŸ@‰ƒ&¥€úžnÛbýñ‘                                                                                                                                                                         8®¿·JåÚ›@G¦ê[À©÷üÐy~ý;ïo Ó¿oú÷Mþ¾éßžóÀÂÞ˜ÿŸO©ž”ñC6°2ÿ?#ßRÄ¹ÄÅKoG®òH°`.ºTÕ‚«[ÀñëÇ.`U|8rþˆ¬¯o Ç­ÜS~8lþÀlÌo‡Í¿W8fþÝúÀ!óŸ÷Êo Õæ7€Îó'êo GË¿s¨3²þPe~8¾œõö7€L²æwè<¿[îú:Ïo ç7€ÎóÀQí”ßç€-åúP¤¿”Íÿ?vÐBþaý¨è_ÿûü0€&ó@çùoðøfì#ê$éòðž|ÐäÝÿz _ùÇ¬¿l–4ÿ÷ ®ú,@ÿ6ïþ_ýù ›üŸx\@²þ°ItþDý] *½û/öíïpHñù×öÏ7€ýÏZ;rõ¿Ï7€dý`Ïüú7d×þÐBþýo iú÷mïþPþMý‡Ð¿ÆþAß Ô¿Ûþsù …—üëß„µùçûŸæû •ý—_ ô6€tý`×ŸøZÈÚß µþ§åþy. »žºSïý—~ à1p ú×’ÿî'~gê/õ7€
ûà÷ÅØ ®þãú·Úÿ­þÈ†ÿñÇý°ïÙëµÿWþ·\ŒþØßcð ô¯$ÿ]ÿÏŒyÜ ;œ³–¬ën ý Úþ¿7ôO?€]N[3òö/1€=ÎZÇùÇúj {œ¶fdï÷9€¿ìøýã .b°}yOXcvéóÀÈw¶Ú³Wÿˆçý±ôþÀµÐþþ†èC÷úàPè ô?|ÿ‘§ Bì0€¤'¨q«ú<.ÿ#@º³Ó¼uù¿^°"ÿ?–èÜô`mÿ¿÷ÿBÿ¾ûüZýÝ?f ÿþ;òFýëî8€?Ý¿+Û'€IÎL2÷ÿª?¾€ÁnÞåþðþçÈücý/Fëë_ÿaýÉþô¯¼ÿm~ýÛÊÛ?òÐô¯»ÿ¦øú·Óå¡éôþ³Ø_ÿÚû¿`Ë¡é_wÿ­ôïªÿÝêøþ©0úÃãúoõò’»’Lüîý·yy“¹ÿû¶laò—‡ÈŸ ÿÒ ¶÷¿Cœé_¤ŠüHÜ?~Ó¿;Lÿ4ý=€™_§•ýÏÛóë_sÿ˜<Í@ÿ=°Wÿ_¿~…çßxHu
«V°ÿý ~½Û§ÒÓX¯‚ýÏãùo0™Û@À¹y~~~>µ®Ü' ç‰ü7Xè¿v aùûÀ©pÿ_Gëÿž¿›î8€¥þëœ¿ýþoXú#½õî©€Ìý‡ùXì¿j K·Wÿî¿b áùõ—5ÿºþWÈÝ¿­þA¸¼óá]ä–n¬ü÷Ùÿ#ÿeYúg9“•Ê˜¶ÿôóßõã°xSå‘1ÿÜãÿôÓÿÃüXº¥êÊØÿf7ïï—?t‹7TýQ9óÏÍÿððªÿúÓÔ®RùÇ^ÿ;‘?àçÜô \ÿ›Œ<ö_rœ˜^”Ë½€Á×}±—€äç¤+óÌ÷Ÿ[@Š³Ð¯ƒô_Ê?ý ä,t¬–ü—€$ç kÈÖl)N@ç?´ÿí³B	>2Gøe ¡ý‡Hñ‘ÉùÛÀ^___Óöø|m@ªOÆß¡ÿe ¤•+pÿÈ ‰å©Ÿ§¿d'ýË*œ?îK Ò+[?f É?2Éòÿü¹òô/*ÑÿçêþOI¢kÿêüAØðgIŠüÉ_RéúKÈýÁ)ÿBý’J×¿¿¤Òõßh_Réú§=çÏŸ™wþw±ãÁ°§?ß&ãØÿàØ¯þØ ®ëÛ@ÛñGpŸßÚ7€ñüÐlýÐþÐfýá fò@£ùƒû@“ùÃû@‹ùõožþ}Ó¿oúw.0¿þ÷÷`£óûP«Âòûp»‚ò{¨a!ù=Ü´¥øoÔïžô                                                                                                                                                                          Àý(}4Ko}™ªo ½ç7€Îó@ïý ïüú·Mÿ¾éß7ý;'ƒÎßÿ¬üíÆÚÀ†üÿ%¼¤Šx¸›A\z8rýÀ	šJoGÎ¿z¹- –ú+ßÞŽœ?nkëÀqóG`C~8lþó.ùà¨ù÷êoÇÌ¿_8bþû@ÅùSô7€Ãåß·¿T›?M¨5¿tž?QÈ(c}€Þó@çù=ôß :Ïo ç7€Îóû°üO×vîo iÅçÔY€4™?|úWõ«o ÕJ”?tiú@±«ÿÓ!û´ô"ÕÕ?â!À $e~ }ßý‡x¼ý úW›?¸ÿ[ý‰¤éo Û¥Îÿ5€¯ü°ï©jÑyþc0€CˆÎÚd iúÀÞwÿåþOcýï ÿÄç_Ûß Ú¸û¯î; ýË[‘?°ÿ}~€Îû» ´pùßÐß fMþåœ&ûß@ÿ
ïþÇëo Õôwh ÐÀ!Ð¿Æü‡ëo ûöyÐcÈ ô¯³À@÷ÀŽ'­×üýOEúÀÎý— à1h úWÚù€vÀ.'¬1+ûÿ¾¸üÃl}€ÆòŸ¯ê.àö¿ÿ4 ý«êÿ•ÿcý »`ŸsÖ’Íýß0í1h ú×‘ÿ|—©ÿ®€¼'«A	ú@Åöè6 ý«è¾ï¤d>]ÍÙ§Ø÷õo·Øú>ÿÚþaOëøþ#ü`ý áþ»¼(ÇYj×9Å ">^@ÿH}†Ú¶¶ÿý3 úû‚Þÿf ‘r¹ÿ¦$;5]8o@ôÇÔ¿úþŸ¯‰ÿFÿFú/ø÷ÓÝ{æûo@Š³ÒµùƒðUl Ù~-\‚³ÒsÆ\çÀý«ï?Ì9 ýßÿ—_ÿ#Ò¿oÙúoË¯ýg öê{\úWÐn [âëßNÿ•Ç¥ý·üõ¯w?<¦ý“`ìgGå¯£ÿöŒÿì¸þUõ_¿‰_ ÿf////{ö_µ€©ß¢‚ú8—ÀäïÒ?Mþ¥¤í»€ÑüúWÜÿœ ÿe ú§êÿ²oÿÑüzšSÿt§°jåúŸ'ê,`ªÿ“þ{õßa ßùo0™Ë ý©¬SÁÀy2¿þÝõä`ºÿ†€L§³>ûŸ'ó_à©Tÿç‹SóŠ=þ_õÿuÀþoù;À±úÿ
ì¿r Áù;èÿ±€…?“³ÿ¯ãõî©ÿé´ó3@ýíÿÜYÿSÉþ£ùC. oïÖ{÷¸ ¼¿?k~ý?eË¿µÿŠ,ÝVùGäê?‘ùàë¤ÎßÛga2åOÐ?v K·TþQyò/÷ŸyýÇÃ‡¨,ÞPõÐa Wõ#°xCå—%Àý¢ÿuþˆ,ßNõÇeÉ¿øùÿ›åüÁØû¬5$Kþ þ§åúòç•¥ÿü÷¿L>ôG]ö;W-Ê’ÿk Wÿ2ññ?¿è›Ê¿¸€œ'§YòÇ›é?ÿ âtíøùç.)Î@ßŽ©ÿä|èîÕâA Á‡&ßï‚9^_“õ¿¿$ºùdÌÿ´€ þ·Hvó»—+pÿà|/ ÑMç"gþ”ýÞþ°öÉeÉqÿ Éå¨ÿ>€ÀÐ¿¬,ùc@Y…ó‡ ù‡åCÙúÁß —ÂùÃé#1€|G Y…ó/. ë‡&h ¹Aþ¢
×¿¿¤âù/Ä/©týwÒ—S<>Å‰Dùógæÿ½ÛñpØÏŸo3ñm õø£Ö7¦ëß`$¿	4ÿ~ ý- Ñú7ý'ó@›õo0Óß ÚÌÿ'0¿´™?¼¿ÔJÿ®Íæ×¿yúwNÿ¾éß·Àü(vøl¥çÂòûp»‚òO È1“R@ýÉì´d°XÿBüîi                                                                                                                                                                           ËßO¥„Rå¯•>(JÖ·€Þë[À©÷üÐyþAÿÿ{SîXÙì.àßð¼ç7€z\Ñß jußo1¿þÙÖìòAåbúßö@íbòSó»€?)£í?-ÿ¶ÕÿçÃæã&}üàË@¼ÆdùHlªŸa£íMà¸ù7Nà»ë\y8pý•èm•äÀªúpÔü±X›ßš?n òÀ1óï×ß Ž˜ÇþpÀü{ö7€ºóoîo UçßÞß jÎo çOÐß *Îo çOÑß êÍo ç7€Îóëßw~h*ÿÓ—ðc µç?ßÆ›€´ÿ¶~øô? ùC` Õßý'ò@çù÷@îSÒ“„ùÃ ¿´ÿ^È~Vº‘6¿G€†ó‡ô÷P—ØüIú» 4{÷wèûîÕÿñÍøÇÕ¿Î»Dÿ÷üHÐß ¶‹ÎÞÿ+ÿøô¯òî¿®ÿc–þ°U|þàþƒüÐÊÝmÿûè_eÿåŒ÷7€6ò¯î7 ýûêo ³*è@ú·y÷ßÐÿ1CØ½Ø@wÀn§«9úw-*ÿðg~ò÷Lßß VZŸ?èÀÐ¿Òþ!? àÐêåÿb1¿@‹ý¿¹üÓBýÉþƒè_Uÿ÷úã¸ÿú7Öÿ;ÿû ¾&0ñ! •üçÛüŸ˜¥ßý÷@®sÔ²Íý@ÿ*úŸ×õø&€Ôÿ|—?Õ ô¯¤ÿÝ Â>Ò€L'©aûõ_~%€þôy þ`ýýÍ÷7€úó âã-ô÷wUØ?î#Î÷÷—ƒ¿ÿí b?æ\~;`ý‡XñQçúûëAkèÿ½€Ùÿü¿ÿþ;þŽéüú¿ÿ×« fÿÛÿ~Š<&ýß?ä7ÿå€þÇïŽÉ9 ý+èŽÉ7 ýëï“·À¶³Ñõù óýÏùõï»ÜQé_Eÿ™lÊ¯%ýC{TúW?€¹ø?†ÿzÿƒCú×Òþ
0ñž×ûÑ1ý«é¿í/½ûáÑ÷7Ê_Sÿ˜øÉqýëê¿v“¿9@ÿÚú¯ZÀä¯ŽÐ³—7;ö?§Éÿ6 ýÓä_À¹Ü &òëŸ0ÿâ RöŸ\À¯_¿~…÷Zß?Å©kB¡þç©úcÐþ/»ö?Oç¿]Àdþ§'ý«íž®¯ýÏÓù‡Ð¿Íþç™þ×Ð¿ÅO ‡ýM÷ÊÐ?×É¬Q¹þçéüW(ÕÿùâÔcöÿÔå ë÷5€rýÇòë¿£½¿<ìÿëxýŸûêdçþ!XÙ?<¿þï¿j ‹7UÿûOäÿÀlþÌý³žÐÚäÉ¿Øá¯ÊÐßÝ¿Šþïv÷ßË¾ù¿ôùî\ýóœÄŠåÈÒé¯ŽJœÿ£òÓW½CõÏÃÃÃCä–o§ú2äê?²€Ïøï"Pà´5#CþÀþ#?ÿó]?jûŸµ†¤Ïðùÿ‡¹úáØ÷|5'}þàþƒ¿;î>Øö;SmJŸñû¿cFó, ïÉéAúüw/ü^Ÿq ¹ÎJGÒç7Ý~	>t÷ŽÞf	>2ù~Ðéôúúš ÿÔ R€ÞåÌ6€…þãHvû»—§þ{þ ,ö¿_@²O®_Ÿ´ÿÃðIT·œ79òà”l _Hr›¹’#øãð È%}ý8PXÙüaŸ’QÑúP^ÙüÈôaùP8ÿò7‚É«pý¥dýÈ\Î?ÿ\0ù%¯¿øäÿ=ùKJ—?ìµ?cÔ/)Ñ?ðµ_S´/(Ù•u~JÛü9Ÿü}“¿7þüüû þßö?22ûseìýWõM åøã¸ÍoÍÆÀX}h¶þÝ ¦ú[@›õo0ß ÍÜß šÌÿ'4¿þMæïo µÒ¿k³ùõožþ}Ó¿sú÷-0¿¯ÿ[•¢±ƒg»°ü³(tä¤”ß€É?5€‡KrËõ/ÔoÜtúÚ                                                                                                                                                                            PÚß¡Ò‡C¹ö&Ð•ñúpê=¿´åÿ.¢ò@cõïð7²ÿÈ‚¨·ÿRþ»è_«Uw ÍË¯çôï›þ“¿{ò7çü-òÿ¹¶ý?‘‡Ú¯Ü@°îäúH¬¯Ÿe÷éMàÀù“.`º½µþ–,õ6€*ò¯@t}8hþUX•ß ŽXÍ Væ7€Cæß±¿0ÿy¿üÐ@þMý-àhù÷îo •ç7€Îóoío uçßÜß Ž’å· ëü:ÏïÐw~è<¿V|þ§k»õ7€cÜýõ# ùïê‡/À Íº ¨7ÿy6Ø ô?šdù ƒ»ÿ\þ}ýŒt%ÝÕ?t . ÍÞý=t~÷÷P™*û@©üËý] ÚÌ¨þFtþDý Ò»ªþŽ >\ÿÇÇÇ©íPåÝ?¦ÿã»‰®q+òGôÿÈ?µ €ïþ«úçÀ>'©aûõ€@akò‡?pt úWx÷_Ûß Zéú€ÇÅè_cþõ7€ý_ ö¸8 ýëìøPh%ÿÝÏ|…ä×¿Ýþ8Í÷¿€þUõÿýáòÏ‹õC. ÛûÀ~ý?ó¿àvcÃ üçaþ\M`âƒèßNÿëü_X²4€íý Hÿµ¸}¿þ5ä_ßi úWÒÿ&ÿêÜ¼WÿÖû@çýopûNý«è7€˜¦ÝùÇ. qpº¿—öÐîÅàú¿ÿý V|Ô©Ð¿¾þ)Æàøýoöpô?|þ›Ìþçÿ> ýßÿê‹À¹ÿö¿ïâHÿ
ú‡üæïú»`íYè×9× ¾óG@ÿúŸ#òÇ@ÿ*úŸsõß2€mç¢Gç<æ×¿ÅþsÐ¿ƒþ3Ø_ÿjúŸWôÿñãÇáŸ½{å°þµôŸÀlþAÿ‘Ð¿šþ¾ýÇp £?9¢=ýçîß:ì?þƒcúWÔ?ö/¼î?ñ“ƒú×Ô?~Ÿÿ0ùƒÃòWÕåß;þƒã—è_WÿU˜È¯ýÏéú?éŸÀË»ã`2¿þéòà¼Ç ~ÅôÒ?]ÿ—ÝúO.à×»üýÓœº¶òïÙÿ<Sÿn úïÓÿeÇþç¹üÃÌä×¿Úþw¸Î?€þYëžÉ=€¹þOú×Ûÿ\¬¦SY§Cô¿Í5€býŸŸO](òÀp ¿Ž×ÿùÍ©»(¤ÿ× 2|þZ¿“þ(×ÿ×¾ýOáý{@}ûÿ
é¿j ùõ¿–©ÿxþ@öþOf…zéïî¿gÿ‰ü ë^ ²|;å—%ÿbÿ¹×¬Àòí”B™þ3¯ÿËÚ?×Y¬WŽüûG àfÊ?eÏüKÏ|¾3Oÿôç®éóõŸÿ›£2ôO{ÖÚ‘>Xÿû\¿/q~¦%ÏÚ8€Ë¾Ä,`çóÕšôý>ÿû4^ÿmòï$yþˆþW†ùƒûìt uþUýïò‡- ÷¹éAêü÷/ü^—?dOK?Rçë{õ[@†“Ñ£ÄùßrGÀdþù¤ºýÝKÿËëëëë¶þ3Hvó»—3ÿöL, Ù­'×ï‚NÔôûA©n:9êGô_ÀÝ’Üh¾åÈŸ°ÿÃðY·˜ùßøáCð1M7“)éëÇ	 eÍ¿ô@À'd–¨þXéåg€–¿$·ùÇ¾Ûôàâ7‚È.Á¥ÿîù¾Ð§€ßÈ_ØÖü3¯ÿ	{V@ÿ²¶ÕxØ$ùËÚ–z ‡ ~Q[ê_l¬ÿFü¢ÖÇ³9?å­lÿNýÎ©ßŸ?þ\ýÛMþÿ¾•9:2úseìýWõm áö¸Ëo­ÆÀh~h´þÝ ¦ò@›õo0ß ÍÜß šÌ=€ÙüP-ý»6Ÿ_ÿÖéß7ýûš_ÿFéß·Ðþ¾þoT`~ßÿkUXþÙ:rÒÊïù¿våŸ@ã%¹åúãØû8Éh®ýñ                                                                                                                                                                             €þÞ(}<Œo=¯o½×·€Sïù óüÐ6ý»¶œß Z¦ßôïœþ½“Ÿê7äü®ôaP,ý—|éŸù>+ãçšÀmz8nýä˜ŠoGÍ¿y ³É-àèõ7- ¦½5ÿy·üpÄük°&¿0ÿyÇüp¸ú;÷7€&ò¯ïo ÇÊ¿{h ÿ–þp ü»~ùg ÍäßÔß ªÏo -ä/Öß ²Ú!¿4–ÿéMÌ‡1€Vò?„~ý«Î¯1h ÿHýà@õý'ò‡@ÿfó@ÛùÏKù ï»Ø ôo7¿4~õ_ìŸ} ¹OHgRçwèûîo U)Óß#@¥ùCú» 4˜?q€CˆÎŒþPêîŸ¬¿ÀÄç?H(t÷O×ß ªìŸê@ýË[“?Í7 ß@…wý;ïŸâ	Àý LþÅÿðãôèßbÿáŸ}||œ^€þUöŸÀé¾ÿä \ êÈ÷3_áþsÐ¿ ù_¼ýSø§~ûÀ®ýßê. 4ÿì@ÿŠ.ÿ_ù§.È@ý¯ò`°€¹å þþƒüŸØLÿ¾û{ ¨!ÿH€Êéß·ƒô÷ PAþË ôoÊaú@çý=	XAÿû¤;ý+ìŸòXô?|þ»¤<ý+è?@Ú£Ñ¿‚þ×˜ù/ÿû&òp ‚þ_ß:-æ]€þ5ôøÍß_ù#¯ ú×Ðÿž¿À–ÓÐ«•ù ãýçðoLÿá«†ô¯¤ÿ9MÿÛ×é_Kÿs|ÿ×päe£ú×Òz sù¯0öºaý«é?9€‰«ÿmÿÑŽë_Oÿåœ¦ûOüÜˆþõŸ¸}Û ÿäÏé_Qÿ¸¿p±ÿ–@ž3Ô¶sÌå×¿ñ|šÈ€þuõ?§Ì¯}ýÏ)û¯@Ž³Ó¾s™èŸ×Ë»½úŸÓå×?]þ€œ‹`®ÿ“þéú¿ìÕz ¿.nÞ¦ÿNù÷ëž©·€ý“¼é?º€¯üƒÌæ×?eÿ²¸Ê= ý3+Ôÿ<—_ÿêžÉ5€ýóœÆjíÿàÈ &ûÏ ßÝÿùùùùÔ‰òýoó‡^ rõ¿Ôïm .Û öìž¿ŸœN!ù³õ¿Ïÿ=€ÿöÒIÿ¯üúïÒ,Ð Öô¸™úO9VÿUOÿÜJùwí?ž?à3ÀLýåŸ”#ÿbÿ¹¿7$çÝ?Ï)¬[†üSý/ ™ûç9•ËÐ*ÿÒà”·–ÓW½ôùCúàã=éó¿ ñikGòüAýïpÊØŸiÉóöûñÿ7òï+uþÐþW¾Uÿ]¥ÎÑàáSÄòž™N$Î¿®ÿWý·è¿£Äù×ôÔ_@î3Ó‰´ù¯úß¼%¢Ðò‘¾¤Íÿ=€Û·ÄäX@¦³Ñ¡´ùµ_¯ÞÙéÁL'£GIó_Å~½¸y[xÿùK@¶“Ñ£”ù¿[¿öŸÀôr‰NåÈ×?þ0¹€\ç¡[Éò_ßÕoû¯Àýòœ‚¾%ª?üìï3ÿÈ×1¸Y@Ž›OÊü·¡—¿	´0€«	$½Ñ|KP*ô¯ ·”ù¡Ã¾l ¥m¬?õCß¡OÌ|#€}$Ìÿ™zü­ãô/m}ý™gþBó_è_ØêüAý@þÂÖÕ@ð¨_Öªú)â¿¤Uõ?$ˆÏ¬ŠÿA|ÔçÚŸJüù6ßšn?1€Ûü&Ðlü±Œå·€Vãß`"¿4›ÿOX~h³þp sý Íüú7/´ÿl~h3¿þ­Ó¿oú÷MÿÎæ_@¹Àú—;~6
Ì?;€RÇNú÷.(ÿô Ê4	ÔŸ@Ã%¹€ü£Øý@Ég®ýñ                                                                                                                                                                              €Ýýýû÷oéc PøÒDÁø&Ð‘‰úpê=¿t^ß zÏo ½÷7€¾ó@»ôï[Xh–ü½ÓŸqâCÎ?Ð??ëÚç[À0½	·~†ŒÇ7ƒÖO9€¹ôpÔü	°Þ[ë "âÀ!óŸwÌoÇËÞ5¿-ÿÞýàXùÏ;ç7€CÕßýîo ‡Ê¿ó§°Ÿãö7€&ò¯ïo -ä7€Úóëß¨5ùŸ¾„¨9ÿy,~ÔÖ÷7€ŒbóßÕ^€Ô÷­º ý›Í4 €ZóŸó-À š½ûç@î3Ñ¥¤wÿ¸ JâüÐ÷Ý?ï òŸÎDæ/Ýß *èo }ç÷Púú@Áü¡ý] êPcØ?ÿÂ3+ú» @|þ#ô7€rwÿtý] Š[‘?°ÈGw¨ðîŸê@ú·Ü?ìã@…ùCx ú·Ùÿ”¿¿”ë¿ý@ô¯#ÿWÿß¿¿ýošüúWÕÿ÷‡Ë?§¨o e­Ìÿ¾€õõ¯èî•ò}ú×Òÿý“€›¬9†-ý \ÿl§ùÏwùÑß ÊõO5 ýûîï ý»v>H¨ ÿYÿÎûçúúÏ“À…èßµ¸üwHz,püþ7Hz,úWÐ0€™ÿð¿‘£ý¿Ÿ8-å€þ5ôùÍ¿ù—0|ÎPÿ
ò,à+ÿÒ nž5Ö¿Žþçàüóýï^6 ýçÚÿþu#. µô?Ç÷ÿqqõï#¯Ó¿šþ3˜É5€ÑWê_OÿsTÿü_Ù¨þõŸÀÜÝÿ³ÿÔ«Æõ¯¨ÿÂ oöÍ¯mý#þ¨Aÿñü—è_Uÿøœæû¯@¾SÔ´=ûŸ–ó¯¿ d;CmÛÞÍß8_ÿêú¯€þ-õ?'Ìÿô¤ÿžZéŸçìTìååe·þç¤ýW`ÝIjÖË»½úŸÓå×?]þ€œ@ÿ½ò/à\` ú§‰,ô—¿ÊþáÐ¿Éþøõë×Í[ôÏ­Lÿ±üz3|›þÙ•éžÈ3€ôýÃNÊóóó©Áý³à3Ì rõ~wêDhþœý¿ó0ÛÿŸ<ýŸ;ë¿ów€G°¦ÿ)oþž&_ÿëüƒè$¹úó‡^ VôÊ¯¡þa€5ßý¸òïÞÿ6Ø ÷å?Ãù«Þ>ùƒéî¯ÿÑú'üñŸ›(ÿŒògêtÕŸ³SÿÅ§Nyû§=iIŸ?¤ÿí >Þš#?óöÉÿkù×¿è_Dêü¡ýoý×ùw—:ÿDÿ±ÜÓ‰óoê3€,'£C‰ó_÷¿þ÷ùƒxx³€|g¤3ió÷¿yËrý÷È¿³´ùÇ^÷µÐÿ*øòœ‹.åÎ¿töx@ž3Ñ©„ù÷¯¯¯Woî°€|ç¢Kéò_÷½¸y[Xÿ¥ä<=Jž´ÿ¯ˆþ³Ÿd=]J¼Ô ¦õLt*IýÛý<üOý,Àò Fít-mþaè_+0º€7žè¿vÄä·{mÀpéo7RæûúÅWïøž@ê›ÌÀ–ú3¯ù¿yOÜ×ì(]þëÊ3ïÒ¿¸•õGžõ{_Ä÷‚ÙWªük0\@ò›Ç¢øúA/ùþÑùCP¿¨Èú—ÿÑ?þ I)ª~À·xùöîe¹[aÛ(ÇþY%ÝÅç=we’”§V2ÑÌžä|¹ÿú‹¤<ôèÐh`­ÉÎ¶e²ÅçeK"%ê°7õ¦ý<Ùú Èå×»ñøoŠ¥Ú,àº¾´` ù- ÝøÌoíÖ¿ÀXh6ÿ¯ üÐhýàþÐhÿ«èßaþÐþ°Wú÷Mÿ¾…æ×¿Miúoø°N`~ý;ï?5€Ížõó{ü·YAùs=äe}+’l «®ØË:W" †ï ‘¿&3ñÏ’~ä÷ªî»”ì“>ùû¦>                                                                                                                                                                                Sþû´õ¡°]{èÍ@|èÆh}è½¾zÏo½ç7€Îó@çù ÷þÐ"ýû¦ïägœü;w<·>6q¼–õš¾|Êz=,‹ŸqWém Þøy0ßjÍŸx ãñ- Êú	0ÓÞ êÌ,ÕÞj¬Ÿb áõ ¾üÇ¢ù ¶ü¥û@]ù…ó[@Sù—ô7€zòoÒß ªÉ¿Mh%¿À®ó?öÿöíÛ·¨ëqh¥ÿ·[Yû@mùïê‡OÀ v›ÿ8Y?pûÀò-@ÿ½÷ŸÈ° '€¦ó@£ùùç Ëwÿù8´}÷Ÿ]€´}÷Ï5€7GoòÜýgà°Óüýs ÈMÒ•Œý ü‹úO@ÿ*Äæëo ­ÝýõoJt~èûîÛb úoný`ÓüÛ ÿíÒ‹ý'®Þ	`'ùï¾í7Q~ý›ï?s úo*:ÿ÷ïß¿Ÿþ7I|'€}Ýý¿¿@Ðè¿ŸþùCxKû@ñþWùç~úï2ÿÔç qÇ ÿ.ûŸð¸€øcpØGÿïCýÐùkìo ›öß~ © [ú÷mçý XþŒÿ öÐÿq ë®ûú‹Eý»ëûpþÕçÀºë¾}¼È	`wý×]õý†ú×ßÿæ!à©Ë}~~~ž¹êûGŒõßAÿ«ÌÔŸÀãSúï ÈK¿¾åŸÀãsFúï!ÿü>òO`èICý÷ÑfËúsØOÿÉŒôzzúü?Ãß1¢ÿnúO,`°ÿÓÅDÿÅ'€ì·R»Ž90‘ÿ} CùõßWþÑ,í¿t Enª&ó` ÿÓD~ý÷Ör ×pÛ$ÿ·oúï¬ðï
ìï×Âí¬ÿqAÿÑüúï¯ä “ý—} È{µ¬`ÿÏÇ&ò/;d¼—¢ô¯Ô¿­þÇtùõï¼ÿ¢O rÝ:í;–Àt~ýSx9+×?f úÊ2 ýÎ_ç ô/×ÿ¥XÿðèßdÿàèßfÿãfýWß`Ù¨à fòë¿ÞFýÃàôŸ_ÍýgÿÍ”ÿÇÙ¡Á_ÿÕvÈÔÿ’¿£œpØ]ÿL§ÿ÷ü= Pùþ‰¿ý#äõ×AÿÏüúWÐ?é·ÿ†\ŸüûèŸë‹ý§”ï?úãyòö_s35«|þ„?þtmò×Ö?Õ‡]™ü“6ÈŸêå?Â®KýI[äOóúO×$ÿ´mú?¼þ_¶þLÛ&ÿÅõ/‹‘#9òÿ_üaè¿‘ùô@’w“ù—ô@Š÷›‹ùõ@‚w›wió/ï>€Õï2WjÉ>€•ï0·Rçëÿúúx ÿï"tIßy’¾ðmÿ÷ÌœÞú. ýûß»Äùú_ýátÿ d¹	ú–¨þ[þáþÿÒ?`Yn€Þ%ÍÿPz®ÿÍ fôÝæ]Êü#ýc0º€”ï3WV×ÿÌ?Ö?j ÃH÷þr']þÑþ“_<àq©ÞU†¤ª?9¤ÿÍÞÿHý’åÈ6€›>‰_J’úËÿ=yÌOAêÇå_»2[›îòWŸ!È,ªþÌg~cÿ í“Vxý©/û§þEª#%“°øAî±Sóñ!ÔÏŸ?·>2úu1øw???.Šµ[ÀU~h;þÐ îò›@Óõ0ßÚ?€áüÐnýÀþÐjþëŒç7€fóö7€Fóëß<ýû–¤¿ì–ûßóëßy_ 6*AÿížõÂòçz Ø+{n.,ÿø V\µ—u®BPþ‘¬¹^/ë]‹üÉ¿@þªÌÕ?Iý¡_ÿÝIõY¿ü}“¿oò÷M~                                                                                                                                                                                fýw²õA°Uùk[Ûµ7ŽŒÕ7Þã[À¡÷úpè=¿ôžßzÏo ç7€Öèß7ýû¦çôïÝ\[ùwíx²þb´ßkûw™¯ëË›ÌWÃ¢øYðåA®kbyýLxŒouÖÏ0€±øPcýÄ˜ŠoUæ?¬o õå?–¬oµÕO6€ÐüPYþcáüPWþcéüPUþú@1eòÇö7€¶îþÑý –üý¿]É×ß *É³øþP_þúXÐß *ë?V?hú·œ~N »ÌÎ?· h¾ÿä–ô7€}åO>€"·D—ŽyúO,À	 &¹òO,@ÿîþ°‘ùãú-`I¨áîÛdúï*ÿšþP±èüú.@ÿ}ÞýõZ€ôÔÿqúï2ÿâþßô7€÷¿_€þ{É?û?‹ ÿÖå_Óß èŸl úïêôÿýleÿëè¿­¨ü—úI°¤¿lÓÿ#Âè¿›ÓÿU~è¯ÿMþtÐ·ý“| ÿ.ó_úLàîZ&°¨¿lÞÿc Ùïÿ:å ²Þ*ýH×Öè œ êÏŸ ÿèëßIÿ‘èßKÿœþÔ ªÏ<Ž~þÅ	`·ý¿þßp ©oŒW`áU~
 ÿîú6ïo Eóß>4q©ÏÏÏÏ±è¿ƒþW˜®?¹ ýwÛ?àµßó Ý	 õÍÑøþ³XÖÿ›þ;É?³€çÙþƒù vÔjÃýŸN&û;ìªÿèûŸó¿@ÿ&úÃû¿åÀX/º«üc¿ûO÷_t(uKµé˜c ùÏË¿èPðÆjÐêþ£g€›ÿØß	 ‘þ÷nòëßRÿÈL»¸ ûë5€ÓêßVÿðfò/ú ùj[¹þôo­ÿ1Y~ýwÙ?f ú7Ø?b úç÷rRgÿéüú§ª¸€céè_®ÿKÁþÃøzvý'ú—Ë_´ÿq¬þí ôoµÿq4ÿõô/ØÿeËþ_ËôÏpîÜVýý?0“_ÿVúßæÿ€þùmôñÿv #ý7zøÿÇ?ÝØâ€¹þA'€LwÿSýpØ°ÿCþ@¦»ÿþúŸ&ôVôÿÈßÙ *íØìî¯ÿ€Lý—œ ²÷Ïqûí]¦üN îþ-õýpüu`Ýý·«ÿý ®ÿª`þN?û—+ÿÙpþäûÙOùgdÌñPÿq ‹^ÿ/ìÝ“ëþÃnëg|âWý›ä?ùˆŸµ?3¶ÊMþmŸßó¾[Ú>¿þ›Ú_ÿï5ï6Ï=€WÉ‡ÍóGöOr•|Ú:ä ]'ïòä}}}?ù7”åÎ×?x kßWdÈÛ?t«ÞO†eÈß?h +ÞIÆ¥Ï¿ˆü[IUÿÿV‡üI’ÿÿþomÿÉ¬¾lÆ¥8õ§è?¾€Í¸õùIò- ÍE3jmý”ÔßB5ùÏÄ/®¢úlBýî©ß»¸ú‰>é§&îûhO*?O¶>²ùõf¢¾	4_xŸõM ñøC¸ËoM×Àc~h8þÃ †û@³õo0’ßÎÖß ZÍØß Í¯ûôïÚd~ý›§ßôï\ý½´ß†óg{ È+{n,0žþ^ÙµaýG°âš½°s‚ò§ÐËº×# ÿà V\¥ßêP—¹ú'	?óóK]ª4Þþ"ÕW}ò÷Mþ®¹ûwNþÎ©                                                                                                                                                                                Lûï¿ÿ¶>6ðßƒ­ˆíÚ›@7Fã›@fê›@ïñM Yáù- ÷üÐy~è<¿4Eÿ¾-èo Ñ¿sò÷m¦°þ­h+ÿ®ÇãÔß‡…U¯íßm},l?ÿ ¾\Ë{U,¨Ÿs7íM Òú™0ßj¬Ÿ¡ÿh|¨0êL×7€êò‹Ö·€Úò§@P~¨+ÿ±t~¨*ÿý ¢üÇòù ¢ü›ô7€jòôÿv+G(#>ÿ]üðÄõ7€*ïþÃõƒ&Ùß ªÈÍ?» ý÷˜ÿžnP™ôù'Ûß êºûåŸX€þ­Ÿýg` =ÜýÇÝß 6Î¿¸ÿðôïâô?¾ ØíÝ?¾ÿÀôïåô?² èèî?° ý{ë· ØgþTÐ¿¿þ×ˆîo [åOØÍ Šß:í+ßÿs N ûÊÿýdÓlu35+¦ÿ9ÿeëú@ÿ}ä?^ÕO9€èþ°ÙÝÿªÿ÷Õýß ÿÆÝý·ÀÖ7X¯§ÿÛü	>\à°ÛþI>Ðýïò¿`ýã@úïòîÿÞÝõ7€ºúŸÝÝ«þ0å ŠßJíJÖ”@ßýg ÿòþ$õ 2Þ"}‰è?øõ_0'€¾ûO@ÿúó? úº| Ø{ÿ»çÿb¥<d¸-zt\:€E×æ°çüWOO\äóÙðß9ì»À‹¿]ò-@ÿ÷Ÿ[ÀóÂþ¾	`/ý§'ð<=  È?±€çÁþO'—ÿÔ¿‰þcÏÿ6€„'€B·QËVô^ÀPÿ·ü—èßLÿéû?Mö÷r€{ë?5€¡ü“ýãO o§F­Ì?>€ëÿÓ<¿ ;ìò» ôo¸Ô æ^.\ÿýõ@Ð§ÿúï´ð`&¿O ÛíÿAÿöúÇ@ÿûÓä×¯ýƒ ////…û‡@ÿ"õƒpÌ9€¯g7¤©üa8æÀ¥þÝô/–?h ùúæ¿€þÍö?Žæ¿€þ}ô¿Íÿ9€éüú¯·]ÿãxþèŸÛžûÇæ×@ýó¿ íÝ_ÿ!5÷?lÐÿÇÅ¡÷ÊpÈ›¿«?\¼Ò— ˆÊß× ìÿu› ×R¹ü3' ù;é?< wÿnúJ¾ü‡þ3’çŸï(øúoòï?ýùßY±ü}~õ#}þ€þ÷/-‡þÄJž?¨ÿûÎÿõ%wÿD7U“’çÀÄ!äËÀòÛ¦éûO<X:?³2ä¿6›_ÿeÍ@þm›ßÓþ[Û6¿þ›Û4¿ïúÛÞ–ùõß^–ü¯¯¯¯A×.ÿærÜû_³ Ñ;Ì­ôù#úÇ É{Ëƒäùcú‡/`ý;Ê ÔõÏˆ¸~ù7–<,ù·µmýd¹VÞmœv¹®•7×?‘S[çŸX@æ«ålëúgêohóúgêo¦†üÒo¤ŠúlHýî‰„ûõë×ø_þ|Sò€(æ×‡ÉúÐvü‘\ç·€¶ëà.¿4]ÿa ù- åúwýó[@»õï0Öß šÍÖß ZÍÿ+(¿´šÿz ú·)Eh4¿þ­Í¯£Rô_y^Ümý§°ê ¼¸ßJÁ¿'xX`þLý½²ëjá¿(zX`ÿ, zeßŠp÷féó{]÷*ú=û7:€å×**/žý@’üúW`6ÿÀÒÔ—¿SñÏÒ~Ù§§äï›þ}“¿sêwO}                                                                                                                                                                                 †ýw¶õQ°Qø[[Ûµ7Cïím yõMàÐ{}8ô^ß zÏomÑ¿kò@Côï›þ}Ó¿sú÷MÿÎÍæ•¿m!måoYXYõwéøfëã`Ãø&Ð£ÛúùðåFæ+#¶~ÖÜ¶·€ëgÀP|¨0–ŒÖ·€êòËÖ7€ºê'À\}¨,ÿ±t~è½¿T”ÿX>¿T”¤ÿ·[‰û@5ùóñƒ'œß ªÉ«4ˆþPkÿñüó0€ÆóÏL ¦¿Ôÿjúï¼PþñDõ7€Þý'&` ]ÜýG ÿ¾ò¯ê?´ ØqþèþÐ¿£»ÿÀâúÀ¶ùSô¿[€þ=þà°Û»ÿòþËPøVéÇ’þ+ð¹ '€ÝäOÙÿc ú× "ÿ÷³Õý`—ý/õßð-Å ôßÑéÿ#ºè¿ŸþWù ï»ÿe ß@ÿ]ÞýSœ ÎÐÇý|ˆìo ÛäìŸb §Ðý¿÷_ý8ÀÎû¯|.@ÿ=äŸî¦Wý.Û ê?üùÿýÛÈ¿´ÿüôßIÿÇÇ94Ðèñÿ`N »Ï?ðü_„¤'€L·E"ú_@üé¿ûþoß4ÿùùyðÏ} Øÿù—z¾ú+'€ÝçŸÀ[þÁ$<d»=z³ ÿÔ>òG@ÿ=õŸÀpÿ§§§óÿú ÐLÿcxÿ§ ZÊ?²€þoùg ÿîú`üî@º Eo¥v`à£¿þÍö=†òOöý Pð6jÙÊþ¯ž©¿TÑ?f ¾ h/À Bûû °ËþÁ8ý§þíõù —‡ÿôo²ø¯„™È¯ÿ~û@ÿ6û‡@ÿü^^^^Š÷€þ%êŸî?4€¯_¿Þý‰þ¥ò _ÿ¯ï®ÿPÿfûGòß@ÿrý_Êæ?ŽÔ¿€þíö?Žå¿Àdÿ¸üúï§ÿÇ Þýõ¯¶ÿCþèŸ[ý¿.éŸñG€üøqèGÜ ¥úÏ [ÿ‡~lÜÿë’þñù¿Dåïj —ªê?3€\ý?ò÷5€CùÇ§Oÿ3ýäï«¨ôýGòO~	¸ ¿þ;ë?1€%ùƒúË?+uþùþ‡bùõ¯²ÿÝå÷Ù_"Åòß~+ÀUý|ù¯ú'¿Ýš‘6hÿ+_ò÷OrC5*qÿ ó¡üïHp+µ+qþ"ýƒß9õç¥Í?ûõÉ»?ÒæŸ{üïžü›K›úù¿{òo/qþ{É?ùO~ô.kþòW`»ü¹žö'Ævùõ¯B–ü¯¯¯¯óW-2åè7€dï0·’ç¿ôO}Höþr'uþàûÌ Ò¼«Iœÿ<€À«–¿‰ëG‘¿Ûå[@òëäÖvõCãJ¹µ]þÙdºRnlWÿDþÍmXÿDþÍm™dù¯•+Ö?kIêO~ãÇ,é·µú¾?ý]ÿÔoÕyæ§>hÝcÿŸ?nw8dõëÝÇŸÜæÿùi£#$ü›\÷¿ÊoM×¿Àp~h¹þõÇ€±üÐpý‡å7€vë‡õ·€fóß`,¿4›?°¿4šÿf ú7)Eh4ÿ¯°ü)ú{…—žû{…Ÿ…b~Käªþ9Ïÿ^ß«Ì¯	š?_/ï·BÌo	ÍÖÕ{àÅ=×ˆú5±ƒ¶íïµ]×‰û=ÁƒÂòO`ùU{eïª»ÿu~ý‹ü¦ða!ùG°øZåO!EÿÁ<¾Q¾úúo=€±oÿº•-¿þË%ê2ÿ,ùçýò'$~Iú÷MþÎÉß9ù»'>                                                                                                                                                                                  þ»²õ±°Uy+èËX{#èÀl|hXh}8ô^ß½ç7€Þû@ßùõï¼¿4Cÿ¾éß7ý;'ßôïÜtbù›PWþ–µ•¿eº´åøiëCaËúåðåM™k#´~¼§7*ëgÀ}{¨0®Ç·€êò×7€ºòK×7€ªò§Àl~¨)ÿdÿoo÷7€zòçÚH—ß êÉ¬:°þPuÿáúAìo •ä?ÆåŸ€þ­çŸ^@h¨µÿ|þ©	÷7€ò/î?¶€ðþPAþãâü#Ð¿“»ÿØ`×wÿØþÐ¿³þwˆèo [çOÓÿvú÷×ÿzN {Î¿´ÿç ôß]ÿïß×÷7€öÿþfmÿè¿—üÇ«üéÓß êéŸj úï3ÿû ¾•À¶7RÃ–÷_= '€}ä?Þåÿø*@ÿ>û~¸j Qý Æþ°å­Ôwþ©þ«ÔŸý.fá | h¤ÿ=ý[Ê?öõß$h¶à…ëßJÿáÇçÍ@ÿ]ä|þ'„@ý¯ž Ž¼
ý›è¿üå| h!ÿŠ$<¤}÷»×vÏgîÐHÿÉ\ê.À	 •þãøÌuÐgùÇpÕ?æ ÿîú/`°ÿÓÉé?|ÐRÿ¡Œæ?/À	 ©þÇ þïùOg ý[Ê?0€‰»ÿä	@ÿ]öÀÕŸèßpÿ€‡ƒúG~Xâ†éÄ1÷ ûÀ>ûÏ èó?ýwÛ?t §ÿÔ¿½üa.ÿ¡‹ýÃŸÖ¿ÉþÁÐ¿Íþ¡Ð?¿———òý f/ïJ÷€þ…ò ’þ~
4uÿ—ÂýïðõâöSÝýõŸïÿ²eÿ·ú÷Ð¿þWùo ýoò‡À«À$REÿ»ü×Ht÷×¿©þ‡ŒýœzQAÿ‡ü³ˆÎÿ%®~O8lÝÿktÿC¶þù{@Eý'° ÿ—èüõ[Àa›þƒù§¾(“¿«þRçé?>€%ùõßsÿÃêüNÿÉÊ?ò<ÀaYþ°þîþ!
õ¿À§lùÝýƒ¤ÍÛIýøþ‰nª&mÚ?gþÏ¤¹¡Z•4…ý“ÜHKš?®Þüç$¸—4]ý	‘2à×òWAÿÎ%Ìôøß;ùë2ÿÛ îþoº¯þ3ÞýJ™?†þ•Ø&¶'~‰”#ÿëëëëÜõÊ_‰÷þþ¾ë»©ëŸó'@º÷–‰óÞÿ£æeXâü§þA×+%’Ö %¶É¸€ÄWÉ€\õÇ|#òåŸî?»€ÅïQrÕŸí?¹€…ïñçŸþö¯;ò× Aý°§¨_ƒÕ÷ý…õOÔ¯ÁÊ3ÿâúgâ×`ÕÇý5ù©Ç²Ïøoþ ¨Ò¯_¿~}üŸü?O¶94ò§÷öGwý^Ùð@É\ÿs£ù- åø78ç·€–ë_0–ß ZÎÿk>¿´[ÿ~ #ý Ùü¿Bò@³ùo0Þß 6õ¢ªïïUbÅü‚¨Eùû§€×x‰õÂªîïž–ˆûq÷—‘Ø_Xi¯ïWí Jô÷úŽå~Mè£ÐüÙúË¿\ô¯	Ú?Ï@^Ü·ìï‰°e¯í]ø÷Ä	ËŸã	€›üúo5€‘Ü¿•ü­ö\ÀãeÍ¯ÿ¦x˜ÀàÛäúÔOÿ¥Òõ?™Œ–ªþC~ý—I™?ÐÚôgòwNÿÎÉß;õ                                                                                                                                                                                   [ÿ=ØúˆØ®½ôbº½´-´¾	4)*¿ôžß :Ïo -Ñ¿kKò@;ôï›þ“¿oú÷MÿÎÉß9ù;7ÛWþÆµ   êt<\í—®“¡øÊ\å—ke®’€úp“ÞªËŸuCñ ®úùúÕ·€ªòçÀT~¨(ÿ\ÿoïæ7€½ôÿ¨¹¹þPKþ©ÜÕŸÀl~¨&ÿ1*Øú@%ù±ù& ãýg&Òß êÈ\–rAý`ïýG7 ÿ~ò¯ì?¸°þPCþý&Øß šé» ý÷“?Uÿoú@Cý¯ 5æ_7 '€Ýý¿ÿþ}}ÿè¿¯þ§üIð-²¿lœÿø™?á@ÿ]ö7€îòOö_> ý›è¿ø«€ðþ°iþ¹þgú·ÛÿÐÿZØ "ú@5ýÃ.5õ rß
Ý
Êý ô‚ êÿ9€ðKÖ¿üË~hn úï¦†8ì©–è¿›ü×ß 6î?¿€çççÇ?Ô¿™þÓx¾xøs ê?º€·úQpØ_þ±<@ÿ¦ú.à*¶@‘›¤+Çdîÿôôôtú_ýÛêëÊ€þmåÀxþ©ø`¯ýóýßóëßbÿÑú@ÿýöÀÕõ÷	À^óÏ>Ðß'€{î:€óÿÑ¿½þ3¸Îï€û‡œÞþ3ÅÇýkëþMúWGÿ¾K Å‡ý§¼¼¼¼”ï¿j ú§ŒQ8¿þuåÀ±ì |ø×?¤è ôo´ÿË~úÇå×Çýëïþú·Ô?>¿þ£êéÿõâñú
ßýœº?€<ýßòÏ ïÝÿ\¿«ÔqÿÿÈ?7€ù¿Ä×ïs Ûõ¿Ê?9€Ã’ü_–äï§ÿç ß>}ÿ›üX–_ÿ9[ôÏ?4€_òõÿÑmÿ¸'R÷ÿÑI~ýÓÊßÿkÒü‹ú'¸Z•?ÿ×”õÝý÷×ÿëÆýÓÜPJ›?¼ÿ—býÓÜNÍJÚÿkhÿÌù;|èo©üwÿ¡äîÿ>€4·QËRæ¯­’¨q»ê_ðvéFÂüúïPÂü¹û»Mº’.ÿýÿ©¿ (qkô']þÇïûIÚ?óíÐ­dù/¹þdè:å¯G²üƒµ“=þ›å}gñ .èªõëç_©üõH”ÿÊëëÇ Æž –¿9òöOñpê÷˜iê_Ÿþ¯ó'@úw™kiò…þšb ißY¥ÉÿØyâ1 à$~W²²þØÏ|M<|&-’ä¿Ï<ù,À™üµXQì~>ý,Ðù+±"ÿUéá?]øƒ 	ß;æ-­?2€™g?É_‹¥ù>„Æ?S¿ëÜãCÛ¿Q¿Kã_,IÿNüJ,¶´>¿3¿N®ÿà6þÏ“ÒÇDÁöoßàç§âG¹øÃ¸ªomÇÀ}~h¹þÃ ò@Ëùï0Ø?íü g¸Ø__ÿ¶ÿHþ„ðƒ¾1â~;È¢ü7ø™{ ~Ì?Jä¯‡Y”?¬šÈ¿É *éïE^¢Eÿ†¨lý×@þxñ¿",:©þ^ã©Ìïˆ«´¿Wx[bÁïˆPUÿ•—Ó—¿#®Îþîþ¥~GP•ý½Àgµ¸yÃüùõÏþ[âèßDÿ¸{;ùÛì?¶€‡7Ëœ_ÿ­ú.`à­r~î¯´„ý'0ø6©óë_Oÿ“éú')ãë¿VÚú¡µ?ÓÒíSÓ¿wò÷N~                                                                                                                                                                                    èÄw¶>¶k?lë£dËú6Ð¦˜úpè=¿´Eÿ®Åç7€–èß7ýû¦ßôïœü}Ó¿sòwNþÞtV¿#ê Kü»õ°¥ÿ5€®éß7ù  úðåÝÖÂ»ã±pz¨ÅñJéúPSýÌ¬oUåÏ9€ÑþPMýŒÏo åÏ6€©þÐ|ÿÉüPOþ |;IÙß ªÉÜÿ[ÊþPKþðþ1˜ío µô?.ïÿmtúï&ÿÂþí'0ßß öÓÿñ3Àûú÷èo uä_òàPþ›„ô7€*ò§ë5 ý{ìÿ¹€ þPCþû@ý úÎŸ´ÿû œ šî?; ýw“?ñ ¢ú@sý¿Eõ7€
úg8è¿£üÜß jèŸt §¿ÓWù“ ®¿TÑnÏÏÏÏÐoù'pª?´€ý –þ£xÏ8€Ó_è¿ÇþÃøÌø!À	`¯ù‡p•?p úï·ÿã ôïªÿq*ÿcÿÃúþPUÿcPÿ§“óéßVþ»æ?×€þûî?:€?Ó¿éþ7úàÿ49€ØþP[ÿÁ3À@~ýÛÌ?÷|ÐMþ‡è¿ûþ3Ð¿õþAøø¿ú7×?` ‡Tý ÂþQßr—_ÿúÇ`ÝÝ_ÿó/<œþŸþ)½\ï¿h Kòë?_?rÅû_¿L˜þYòÇ |ÿOÑùõìÿ²‡þñùõíÿRÿùõo§ÿ’üú÷©ºÿ¢øñýüøqèÆnú/™ÿÇ»C'vÒÿK‘þõ{@­ý¿é¿Ïþ“ÒùËôÿÑgÿ%¶ØÿG¯ý?üôoKùþqÇ·Aþ®ú_þÖô;ÀÎ´ßÁÒ‘ÂùK<ü#ŒÝô¾õcÎ_´ôÁu¨áþÑÇÖ£Âù<ù§~ŒÒù—ö¿õ£4×ÿ ~ŒÂù— õ»Í›Òù}ëWe
ç÷­Ÿ•)ßw~×%Yþ¯¡×¨URåîï?ë’(ÿGÿ××¹k”¿&‰òÞÿ?û_ÿé5ùk’&ÿPêá?õ»*³²þ[þ¯Á³ðË+“$ÿXÿ5Hÿ®2$Eþñþ‹þeØâúŸ‘'ú|m¨~=ÖçŸê¿d ©ßC&-ªx²ÿØ£Cê×cAþé»øuÿÑ‡Õ¯Ftýùñóýà]a‘ÈúÉ¨_òñßI_‹òí}úõë×ø_þüùógÞ«÷ý¾Ûùõi,þ›\GàÛýkˆ?¼€«ü™&à§=j‰?0€»üéàg½ÂÅþn€øú÷xÌŸx~Ò3Büo‡ˆ®Ò?Ý ü o”è_± ÿÍ †ó'[€ŸóÿÛAäêŸd òGZðëAâó‡õO1 ý#-øõ ÷—?Ö’ß?°ÿúèkÉï©¶¿üÑý‚˜úwô"èßÓoˆPUÿµÔmÿ—ìý3~àî¿¾–Ü¼ÓÕýsàöíôo³ÿè îÞ,W~ÿ7î?²€‡·Ê•_ÿxIó.`à2å×´ù0üF9êû`‰Äõ/fêŸ¤¯¯ÿ"éëKÙþDÿE¶‰Ÿƒþ“¿súwN~                                                                                                                                                                                    €¶ýw±õa°]û9[&[Ö76Åä7€Îó@kôï[lh‹þ}“¿oúwNþÎéß9õ{'?™µ‡üþý{ëC`3¿O
\Ï¿®ƒeùóàß“ÜWBÝý ÖüÙpéo öËo µÑ¿kùõïRñþPýûVª¿ u*Þ?óÕPi Õ©T~*%çäòúr²õA°]û[7Ž…ó›@5ŽÊæ·€ªâç]À`~¨,¶Œä7€ºêßôÿë$w¨*ÿÕ ÎùS`¢¿Ô”ÿc où`ª¿Ô”ƒþPQþã]þ4Ð7ýåû@Eù×÷ÿ›ß *Êÿ ò’¿]Üý©ì&ÿý	`Qþ»Ìæ7€ÚúÖå¿€þ;Ê3€Ãâþßâú@=ý—?ðmx !ý šüË°¦¿T“?õ ôß[ÿãý žüsx>	@`¨©ÿÄÎõG +ùGðœ«¿ÔÕxŸùC ÿNó-à:ÿÜ§ ‘ù ¾þÇÉþ3ˆîo Õõ?NåyHÿ=ç¿@HÿÄ÷7€úúß`,ÿÓÓÓÕ[-ûôOÿ:ûgû?]½™þåÀmþ›–å7€õ?Lõÿ ÿþûà¥¿T˜ÿñ‹€›ÿ¯óý'Ÿœê›_ÿýõüüÿ“þmôŸ@šüPiÿEß´ ¿þuæ_2€%ùõŸñr¶ƒþ‹êëRÁJ÷_X_ÿÐü‘8–ÀâøúÇô©²ÿšøúÇä@úþÿ»Hœ_ÿ}ô«ÿ°€µùõÏ3€|ùo ýoòß pÿï}Ð°~?¨¢ÿ]þëìS¿—þKóîŸ²ÿâü ô_éßŒMÎÿ‡ÀþÅþùÑmÿë„ÿ›RýW øýé¹ÿç ¶é?ñùÿÊþ+ò÷Ôÿc áÿ"eþ»Üý•»	÷ŸP¢÷ù/ˆxóbùW ô*äµ‹þÁW¡~´bùK|óúÑší{t*—ù ‚¯@ýû_¾ú”Ë¿t Á/ÿóçþÙù[ì~éê/P2æý”‰’ùóþè·þKÍŸ»ÿŠ#ëVÚü¯¯¯“/mÒÞûçúç{í?ýJ™? ¦ÿ–©”ùƒäÈ¯ÿreëçùíO>ù_aeþ¯_£¯Qþª¬Éÿõë‚þ©ÿ·þë¬Ë¿ ÿÜâ.ËC¿k-?÷/í?5€ÈK’½âùÇ{1ò§P¼þI‚úoÏû®9
Î"ë/üÌïÎÊøò§Y?Ñµ®ˆï»>R‹_ù{æ[þºæ;~·÷ë×¯ñ¿üy’íªåÿÊàa~}‘ãÊý´G¨È
Ž?¼€«ü9&àg½²½*À‚ú¸ËŸzòç|]èøxÌŸtòç}a øú!ý“ÀOún7€±ü7ÎŸjòçi¸øüAý“@ÿ8K^2>Xÿ¿À‹ƒFçß¢‚ëÀ²WÏÔ?Á ô³ðåáëï¿þ¢º°ðåáèß@ÿ—½÷÷¬ÿºþË ùóàæíô¯ºÿËvýS¼GúoÕ?ìáßB '¹¨ö¥Ì?¾€»·Êš_ÿióàá­ræ÷ FÚú'ù‡pHDÿ©ëŸÌçXÀ!ý#dÈ6Sÿ$O}ßø'Ký`©ÛŸèeÃúyèß7ý;'ßäïü                                                                                                                                                                                      Ð”ÿ>þÕ6GFÙü×©Gþ˜Æüjë%ýû¦ßôïœü“¿wòwï®´ú\V°õ1 °Ìïß¿o}lšß :Ï¯ßùðÏ?ÿü{yÿý÷ßiŽŒ½öÀ¿'‹‘ùçÿgIþ¿ÇòÀžúŸ}3ý Öþ‰>œÉo µæÏû€þUÚ ¿TDÿ¾éß7ý»v?ó#ÀúWHÿÎËïÀCïý/(p5+šŸúÄ×ÿã?þÈx@Ôí”ßzÏßÿK–Ã!‡¿Nöÿò)Í’=ÿÈ–ô¿ÊoÕ9žåÀ‚þwù- ¶ø·øÌ?qX•ß ª«ÿ9€«ücŸÄêoµÕÿ@¡þP[þ·¤î?’ß ªË@±þPYýÒý ²üçìo •÷?dîo uå¿@öþPWþÛäÏo •å¿@š+›ëo uå¿}*`=ý÷ÖÿX¶¿T–fÏo’õ7€ÚòO,à½~è ò@…ýGp•?l úï4ÿðòô7€*û§ó‡ ,¿T™ÿawùõo¾ÿ±P¨3ÿí òå7€Zû_@ÿþò_`¤ÿÓÓÓÓÚüPmÿÏŒç@T¨4ÿÈ	à6ÿÐ âòë_kÿ¡|þÑhÿÈüúWÛÿásÀëKMÖß jÍ?ù„àXÿèüúï²ÿ!U~¨·ÿô÷„<æ_R_ÿŠûG}SÐ²úúx9+Ÿÿ˜¿¾Ö_6c™¬¨¯xþø”é¿*¿þùcP¢ÿºúúÇõÙ²ÿÿ.nÿPÿ¢ý_6ëÿVÿnkóë¿þWõo°Eÿ?~ü8ôÚÿe“þwù?ð¥tÿŸ=Ø²ÿDþú_Õïd «N ©ú?æO7€åù{@ýÿW¾ÿ}þNþOsæ/ßÿGŸýW<”&ÿHÿDX“¿þËÎy÷OÔ?üé¸ÿí ÂÿYÖ»šÏ Wåï¦ÿÍ Âÿ•þí¨¶™§{Ï5€ð’$ÿlÿ"ßý¡ÿÇ "þIÛý)ØÿæRæú¯@è;¢þÉFý§ÿ»ØàîèQ©þ4ñ ‚ßõ/Êô?®ÌýÕWä;@WÁ»ÿ‚£ëV©ü™øKýû_¶ü‹•ÊŸõ‡å_¬Xþœ?ü/ÿbåòç{ñùWH™ÿõõõuêïõ¯Oâü“ý£üÈ¿Jº“ÿ|ÿˆ„¿ú¯’,Hÿ¯þ+ÿJ©òŸ0û&îþÕI–?L¦üú/U6Úßÿ&eó'ý°ú§P¶~Âß ï‘ÿ4
ç_@Ü…ÈŸJáú'Ióë¿Rñüˆüçò'UºþÉòø¾égÞê<TLþÔßz±‡ö]¾ÔKïßù³ü@ÈnÈŸéGÂ"ü:ýëŸY®ÚÝ?ÛÏ„FÅ]À[üL?ß…GÆ^ÀMþäÓÜ×À}þÄ?ëË‚D×¿ï??åÜýÃ-z] Øú÷ø™w òç~a¨èü¿ò'[€ü[`4ÿÍ ~f€üù_06Éþ¾å³ÀkƒFæìŸöäÂºêÿÒDÿ·¤¹¬Æ5Ù¿§_ñ’¶ÿKýò/Ë¿f 5õ§|ÿŸÿëßhÿ›·Ó¿ÉüS¸y3ùk‘6àÃÿXyõDJœt ÷o–?¿ÏÿC$®öôïIöü¾ ‘<ÿà†Þ*{~!ÿÉlýÜß¦˜<ùOfêŸdüÄOÿ@¹òoÌ@¡Z¬¯ïôï›ü“                                                                                                                                                                                             :ÿü³õ°™.âþÑßÿýw®bƒüq8å·€¦òÇà-¿ôÙÿ#¿ìÈïß¿'óëß´ß'ªOù ßý¯~Yúï5ÿDÿˆ“·ýÇwiSùÿý÷ß&™ó|	°Èd~h¾ÿ¨K¨4ö¼õ7€šèß7ý»ö{ƒþP‚ùõï¼¿ ôÿã?–]›üµYÿ‹e×§]çÀŸþ™öðÈl,ÿ_ýõW|ÿƒþ;3œÿTl“ýÙ›‘ûþø ôoÝ_“XÚÿË—TÇG±ü'€¨Ëüò.ÙQR"ÿèg ‡eù-`gýG¾Xžßªs¼(Öß*¬ÿ±€ôýò@õßPàîoUÖ¿ ÄÝß êÌÿ8€|ý Âü§9ý@ùopÈÚß *Ì=€Ìù Æüï_Lýãççç$ý ÂüŸ{~vMúï.ÿä >ò‡`2¿TÚ|Wùƒ0Óß êÌ?¶€çÈþsù ÖüƒxNßß ªíÿ¸ ý»Ê?€çØþù âüwˆí”ß ªî= ýûË=€<ù îþÇ¹þOOOO«ú@ÍùÇph áù îþCø¼È§áÄä×¿êüŸ\_æpÿ¨üPwÿÉg‡òGÖ7€ÊûãúÇç×¿êüÓß°¾¾„yyWºÿô Ö××?*ÿÂ³`i}ˆÌ¿d ÇìýWä×?.ÿ‚dï¿&¿þ±ù£pÌ<€Uù`Wýÿw‘0¿þÑý_6êÿÿnåûÿxsèµÿËæù¯Pºÿ{ý^PKÿ»ü(Üÿ:X{HÔÿ!ÿû Šö¿­ßï "þy¶üôÈßÃ Vž ’ôÊÿ6€‚ýtÙå	 ÛÝ¿Žþ=``áÿ6_þ4X™¿‹þ‡šû¯ÀÊü}ô@ø¿Ì˜?Å	 üéºÿò§ó÷/óüßÎû/Àúü³ý‹<ÿß}ÿÛôÖ_þ¥ß´:ÿ|ÿå~/ä¿@]ý³ÿŸ»ÿY¹þ‡"ýƒß	õ/Jõ?DöÏýíßò¿‰ï¿h ·—0Ÿá Bßõ?éóùóþøøEû]Êuí¡ü9û«_v Ë¬ØÝÿÐµüý—Y™»ÿ¡w¹û/?²wÿåG×ŒØþq˜¾¨×É¿u÷ßÿ	`ê‚^O¦ÞÀÝï'€Ãlÿ4>vùKž +û øØõ/8€™‹™Ï:€à#—¿`ÿÙË	èŸöõ¿}òWn ÉŽ.]~ýË=”òøäÏ,ýÓÀi/I}üŽJþ} É0}~ý³ Ë!®¬¯±ä:Fù«úV°‘d<ÈÛVå×ý7ƒ,àÛ¢øCßó•çð:Àíõ’?Ó öÁÝ?ÓÏƒì„ü]ÀÝóüú0ò??%¿rù·íÿl Wõ3L@ÿ-p[p÷ù/@þèþ/ùê?` Î¤¼ä¶$À`ýûþƒù“.@þmúä¿ÀÏ¢Hw¡J;€_AýGóg@º‹lQÒþãùoð³ä Ò]`“RöÿUUÿóR^\“jëŸþ± ¦èß7ýûVêÓ?ýûþô_ÿ*¥}øGÿ½)Öÿæíä¯D¡Gÿõ¯Tò§ÿ‚òy€òàáÍäo´ÿðßJþ
äÈ?°€Á7’¿Ùþw{#õ7—)ÿÙtü³¬ñ=û7/cþÍé¢Õúú÷Nÿ¾É                                                                                                                                                                                            P•.¶>¶¬7€¿/2¥óGà-¿4•?x ù ÇþWù ¥üÿÄç×¿óþ°gú÷Mÿ¾­þôOÿ][òÕŸO ²êÑý÷oÁƒ¿7Èwd”±ä©õwç÷ïß¿·>¶ío }ç7€Îóëß)ý»öž_ÿ>éßµßñýÿ8ÉzP³0ÿÈ þüóÏ?õõË?8€S~h ÿ_g“ùÇûÀ~æ¿ÔÀg'€LæÀd~ý÷f:ÿä †/Pþ]ýØ?û ÔRÖMþÑÏËÕô§aYúy“æÒØYÿ÷üÐeÿ«üP£ãÉÛgÎoUÆÿ\@þþPgþ·dÏo •ÖÀ!S¨4ÿe³ùŸŸŸŸWõ7€Zóž&ë‡/`0¿T›ÿó+éú¡éo ÕæŸ\ÀUþ Œå7€Šó/à&È Æû@ÅùÇÛ"¿TpÏIû@ÕùÛ:¿ÔÞÿ~©û@åùïÙ6¿þµç¿@êüPÿë$>ûÀòàóOŸžž–æ7€úû_`,ÿÀ óë_}þ¡3Àá.ÿÓÂú°‡þ“O	õÈo q^^^^JçŸÀòúúGÆ¿¨¨ÿÈú° þò,Ë1€øü°$ÿÂdî¿¤¾þËú¿Ì6€eõ`Yþ%ÈÚq~ý—õi¥¿,ëÿR,À ¾”îÿãÍ¡ßþ/[õÿßEªþ_–×ïe÷ª»€²ý¯ów1€—HÓÿªþÕ¾í›¿‡TÓÿ.š¬Ìo Ûå@Áþùû@áþÿËÓÿËÚüô_ý%`¦ü¥O ƒù`×ýcn…~û¯|0WþXŸ¿‹þëžX_ÿí­@¶»ÿú/×çï¥ÿŠç³Ýý×`}þnú?, øß­Í¯%Š~Óé äï©ÿí ÂÿÙÊüýs˜üö—ÿM±O ‘ý³~°ü
õ?D÷_2€Ðã—ÿS™ úÇ ôèÕ/Ýÿþß‡ä/ÜÿÐ«%ý—¿öÃÅmð‘þ¹~ PýÂ'€{(ì ]ý;[ôTæîè[îÀšc“¿€¼ý'/æõdêò÷Ÿ[•õpX×?õë?É? cÿC@ÿ=jgÿ²'€¹™ÏŸö@å/:€ù	éŸî Ýý‹>ìøåw÷/9€¤˜'¿þkúO õ!®Ï¯Á¤?ÄùõêŸ` yrU}ùË à?ã3gE~ý³``aÿnâ™ÿIëëÓ?êõ –ù—ö_j ¿þið¾¸¢eÖô_¢h~ýóž –(™ß‡ÿy™ûÿz3ÕÿçEú+×Û¼Ç¿YÀ]þ·ø™& ÿ¼Lýoâ_/`´~Žè?/GþÇú×Fó§_€þóÒ÷Ìÿ0€¡üÉ ñþ#õïûäÏ8€´ÜŽBùïð³ø Ò^nC’žýûÿ,Þ?íÅ¶¤Pþ›ü,=€´Ú–Êúgø* ñ%6&ÿçþ›ög†þ]+ðµ¿þÓ¿k%ûÓ¿Zeü½Ë¯çýË= Ä¤2Oþé_«Ïýä/ö“r|ïOPþBO 3­À÷~ä@ÚaF®oþÈ?4€Ô‡ÁŒŒßû=WÿDý­åýÞÿÉøâo«Ð~                                                                                                                                                                                              ûçdëƒ`Ëúpè=Ì þ>ËyXÏ>€K~h,à >ê@cùãû@wýoò@Kù—ô7€¾úßç×¿óþ°[ú÷-Å‡Ø¯%_ý9´cI~ýÛ±$¿/ ² þ‰þÍˆ¦>  @+þøã­Íüq±õa°e}èÔ\ÿ?ÿüóÏÒÇDjMæÿc4¿4Qp úw”` ÿŸ½{Ij%YÔ4m³$‡±ÉþéÔí‚½ÍügR&@ G<<"üá¾V£Ê.„û~	!	åÿôo©ÿÈ ¾XÿšòÿþzùëÉß{°ó»_Ûý©˜þmÓ¿mú·-Iþ»/‘.”ôÿÎo{2¿lÓýÑéÿèÿððð°(¿l4þ—¯LÔ8Y’ß 6œÿbÝTþÀ\÷7€íÖ?ÿ10?h 7ù`Óù'ð¡¿l:ÿèæöïËo Ï?¼€‡™ýûóÀÖóM VØ|þÞÌì?˜ß vÿvñúÀú`M~ØCþëÌê?žß v‘ÿr 1óÀ>úàìƒÿü³(¿ì"ÿõ€›«þ?ÿô $¿þ>åÌ?õœ@_ÿ ü°°þÚÌí?õ¤ÐÂú°¸þªÌÎ?o áõõ_‘ù ’öŸSß Öä_:€ùƒ0³¾¬É¿p 	ûÏÏ¯ÿšþ‡\ùÃ° ¿¬êØRÿEù`Mþ-õ¿ËÜÿåK×tÿC¦ü	ûß­©ßÌ‘PIÿ³üm âþw+ó·±€8¸ÓÿÏI™þ×ù[@Ùþýõ/¯ÿK‹ýã Fÿ‹ü¿ÈÖ¿'Ó˜sñóg@o~“ ÿÏ ôOmý{ò¯¿ˆ¿‰þëN‘ý "äod kŸZ™_ÿâŠöïÏ¿z 1ò·ÒÝA’\ý×ö’¿þk°.ÿdÿÔ/ÐÿS©þCùÏNÚ_þoùúwê?–¿­þ×ØNÿ„/•ý Våî¿j 1òëhMþ°þ³vpõ/UÓ?ðàòçÿÐ-ê?o çV?ÿÀÍ×^çèŸàO ÅÏßÿökoc÷÷þÀêç@Ï—ö´îï<€À3«Ÿ½ß—ž¥~?ûØMÿ¸ï !ö_û¾ð,õûÑõ/$¿úÿï­VÂ_ºé«ÿÄ@È BO,æ€Þ/;ÿQÓÿOÊw ”?¤¼ô~ÑÕ]ýSþ‘þ±ÞÔÕ?ï z¿dàWýÁŠ’ßÕ?zÿïý?ôXÏhÿ8o¯Æ|þÐƒ½C³øµ:¿þÁý×`ðóû0ôÀ¹µùõ¶¼ï F>ý¼ÿ©öÐÂµUõåOsp»€‰O¿ZÀíF,¯¯º\, àÓ—Öÿ´°~£îlUÿŸ	úÂø«èŸ°ÿlÙóë?*wÿà{}ñè?&sþßù#ÓTâþ?N¹Íÿ÷[—†þcRæÿ»€ëø	' ÿ˜Tù¯âŸàÌeþDÐTŠü=õûp“?ÉôŸãÊß7€¾ü©ÿÒ	Í5€þü‰ÿÂ	ÎÖ?þ äßFþ‹æO9€è—L‚þÑ Ûýû/~µáþÑ/–4ýÓ ú…²›þä¢Ûôo\Xþ¼÷ÿÈ(¬Ö€–éÙ¿›çäß„lOÿ>ÿ§^I^ü’p ±Ã˜D¯ýÈŸë ŒIöÚßéü}HqF¤|í÷Dý#õKËôÒÿaÚ                                                                                                                                                                                             TïíKécP4¿4^Ö ^Rž‹üùßfÕ·€Úò‡à'¿´Øÿ,¿T•?h ù ªüú@[ý¯ó@ÛWèZïo »´(¿þ÷7€Z,Ë¯-Õw°ó÷- Ý!Igaý#ýk°0þ'ý‘  jð¿ÿýï¥Ï@ÉúÐµžß Ï¯‹ôoÂÿ}¹ýýÊß³€ þÿ/ññÈ•¤™£‘·ÿà ÊœŒÌù{îP9ýÛ¦Ûôo›þmÓ¿mú7. ÿÃQÞS‘ÍTþÏúsp÷%Þ	I*0è ¾ó[ÀŽÿä˜Ûÿ7¿lÔýÉô§žçÀy~Øtý€<Ìí™ß6žjúWŸtsûßä7€Í×YÀÃÌþ=ù`ù‡&#¿ì"ÿ¢ô7€}ôïY@”ü°“üãXžß v’¿gkîúÀîò‡<&¸ ¿,u8ÉÕÿ>IþÈxê«¿zÁùà.kÿ§O][õ×`Fþù¨s _ùëÀuþ5¸O7€°úñpÊ_û nó/À¼üs\?Ú žÀ!â ’õŸ“_ÿÕù`nþÐÌªo µõŸ›_ÿÕùà~+ý£ k¯ÿ!Kÿû$ùc «WÄþ‰òçíÿòåô6Üÿ°çþw«êŸ- îú£ýÍõ?ËvP·hýï7ÕÿnuþFí Uþlý¯óÀ6úgúp›¿ÄºH–?ÏÀK«ýc Yþ,ý{ó72€(Ä¹úÿùvùÑôýò@ðEDÈŠ» ýSËß<ÿå R÷ÌßLÿ®xÿ«ü«%;ý‡úÕÑóçë?’¿¥þë^	=ÿÚDÉßTÿ®\ÿ¾ü+ïFÉßVÿ|èBú¯»ˆ’¿±þ}ýÒøùWÝ D©ß\ÿnSý× èÌòÇ»X‘?Aÿ #Ë+Cÿ›/½îÝß?úß€È_æÀÍWÞä^=€óÊ_æàæ{b÷÷@ÐyÕ/rpûu}­× è¸â—¸xûefô@ØqÕ/ppûEW?ëß{?ú+ZþÁþ]ã–÷_ðÎo×¥ßßW ô°êÇþ°àÏ~õûx¼· “?zÿñô}ÁÐƒ=ƒEÉßì~K ïÓ3?x#³/øOÚÞ[ÿYØ?Î{@ëŸ ÿÀz?ó"òeæá9Y¿g 3¿¾VÑÐ…äï{üo¤ÿíº¹äOÒÿf ]Xÿ?3û_- ›Oÿ~+û_,`ø“nú÷<4šÿ|Ýú÷[›ÿÓxüo(…ô‹Ñ¦LÅ¯èß+þoúoC¡üùéß¯‘ü0 Cþ“ÁÏøû-Ùô”8ÿOüáœê'ž€þýæ¿Œß¿€‹ú) ÿ|õop“?ÙôÏë#¤_þHó˜¬=€¿ ÿæúäO3 ý·ÿb s@þMäëŸt 	.›ýôOpÑ\Ð¿mú'€ü¹èß¶-÷¹ÜËŸ¹ÿç \,	ú§8•üÙåÏü P§~>+û—:6±„ä@™3·*É+ Bòç}˜‰^ ¿w )ÎÂˆ’/ÿË÷
0ŠÿIýæi                                                                                                                                                                                              U{ûRú”¬o ­ç7€ÆóÏÀë—¤G#wþ·™ù- ®ü¡øÍo Uå›ßjÊ¿¨¿ìÔÂü7ý ©«ÿmh)OØýÛ¶8¿Tay~¨ÁòúîÖ`M~¿îßªúÚ¿Uõôß·Uñ¿èß:ýQ `çþwTúÍo ç7€Æóëß$ý[ñÿ÷ÿwûQùÊ?2€G"wþ¾ÐP~h<¿þ-Ò¿mú·MÿÆ…ôxxÈy$2šÌÿð-ï±È%0¿Ô*0¿þY=*}Š³ü½~ùè_6á\äÀÝ—äg«Ù~û×7€Hùõ¿¿¿¿OÑÿ7¿l¶ÿý¯”ù`©¤ùÏêO.`fÿ«ü°PÆüãX™ß –É›dkó'ÀÓ·®f9~ôM`Åÿ$8Õ¯~iç_@Èe÷ç:€óú9Øo„³óß%Ëo ‘ó¯YÀ`þˆxjp ‡9ò/ÀHýx¸Í_ý ~ëGX@PÿEÏk O­à²þÚæŸ?€©ú‘ðÔZÿ›ü«pŸªÿ]ÑþO-å_3€û4©g õïÍ¿| 3òÏ@`þxjk ‡¸HÒ?¸¾þ±ò2äïéÿ¸2„è¿b ÷+ðx²ªÿêè¿| ÷ËûÿÔ¿À¼üÉn ºÖúrö?Ï5€»m «RÑþÝ6û·ôà!æ î#õïVõ_1€——¯ÿ¿™üãýeúweú¿œ´ôà!æ –ç?õï»Ô»,ø©ÿµ€FòGÀŠü£rô¿ÈßsÐ5Úÿ°ÇþwkóßÜtõŠ7€Dù3Ü Üæ¿¼	èjV¦·¡þ}ù¿~¨¿þQ¤$ëŸø!€þü§ß[g Éò§½ÊßPÿ(¦ËŸò`°~cXÿLÐ.ûåo«ÿê§‚æOõ$àhýÖú¯}-HÊüI^2Q¿¹þk_¸¯þ“õì?0€À/N™Þ ¢Ô×?Mÿ¥gËž¿Áþ«þ ¶þ]ƒÒ÷_~6WÿVô@ðAþü¹ùP¬ü®þÅú÷}ÙŸ?=­{?)È ºF’ ï‹þö¿ýp®þ]»Röïûš?ý¥>'¿‡}ÓôŸ@ßWüï?÷g@èAÅOÒt }Ÿÿgªÿ¼„Tý$ý‡ÐûÙ¦ûÏÀœÿê'é?4€ÞÏý3Xùì_n0´€Yÿ;o0ïËkµ2ÿ z?ñ¼ñÈõ?t Ýlê§èß³€éü£ýÿ${pùo¬Ï=€€úýûpµ€n!ù¯Eè¶€ŸÊ2€³	tk¨!Fþ)ÓùÃ@|òOÜ»ëûÄ$Ç OúüîÓJ6¬Áü~8×b~8“§ÿÇ·¡ÿû­KÎc —2ä?Å\À©~Ž	xèJâüñûp‘?õ<|-eÿÛú·¸ÎŸt žè‘ìÚÿÐÿ6ÊèŸOýëüÍ: Ï–Ïÿ1?Ù ôÏFÿ¦ç¿Àß¼Ð/ýÓ@þmõÎ¯ÿ¾éß¶°›ÿR·ÿI.œ3ú·mÓý“\6‚òë_¯ þ™ ?£ü™ ”?§þyŸ ’?«€üýHu ù3›¬Ÿ÷ òg7™?ç+Àä/b,þ§,ñÙ4í                                                                                                                                                                                               êòö¥ô1(Yß ZÏo çŸ;€××××Tç¢@þ·ÙùM ¦üoKò[@“ùÏû@ù—÷·€æò_õ7€Ýç_×ß vfe~h<¿ìÚúüîìÙúú°g1òÀ~EÉ½€xÇ#±8õ`·âÔ?Ò¿uú·NÿÖÉ     0âù¹ô	(åù¤ôA>=<”>A£õ·°€‡/¥ÑhýâøÎo ¥ò—ÀO~(Öÿyùõ/•¿à Îû@©üÏ›È¯±þ¥ ÿ6òëßý›6”¿Ô 6Øÿé¨«Ô¦û‡}ÉÝQÒø_ºm,ÿüþŸõS-à¬~¥ÈÕÿþËô'ÎËÿS?Å®êW9€<ý¿ë‡M`É•?Å nóW8€ùÏëÞ
„¹Êw }ùë@‰ü±p“?ê žš@™üQ&Ð“?â ò·0€.GþÕèÍm ƒùk@â;þcùW-` ¿þsÝÖ?œ$Ï¿xCõc`$Í¸¨c÷i0’?Î Zê@wSõ ò/Àhý8xjj ?®ë¯@Pþþ<>.Î¯Äü«°°ÿã%õ£à©Åôæ_1€Àü—øß»€üÐbÿüË°¤ÿUþë„å×?jÿCâü÷#ù¯p—i öÎ¿p ú÷ä¿@h~ýãö?äéß›ÿ| w@×ZÿCÊü)ú¯€þk0¿ÿã†ú·õ`@ÿÙˆvõ?ÀÝFÐµØÿPèæ{ý»®ÍÌYÀüü‘û/ÀË·†^ÞÆæçèŸüàTÿkMå<€ˆý»lýÏó «UÄ,È?4€óÏHúà²þçšÊ6€°KZ’òá¿´7 ·ù{oºš•íÿ»€ÁËMÕ¿/~ï ºÊåí?ÿ|)úÅïù= «^ÎþKÎµÿXùßü, kB;ýòà8®™ú/;\¼þ/3ú·emþ þ]áþaùÛÀàÊ÷ö"0ý‹ö_~6ý3X•?Ù~}‰’_ÿq«úO`ÝÙröïµ*º?üý!¿ûÿ)û`ýé"äŸóë‹VåO÷ÆßÖç@×°uýGçxëóO kÚºü	ßùçduþ±t­[›` KŽòçOÿÇ×çï_À’3VguþÞòŸ¡ÊÇú§õùÄï±>ÿí F>u$ò¬,:'·"äë×?cùÇÿUý4¢ä?
ø¹?ZúÔßrÿI“õ¿>+é¸–)ÿø-?u÷W³²\ýåß¬\?ýÙ&ý§Ûòåÿø6ðÏ¿$?úŸÚà»¾	d—¡ÿEýÞœç·€¼Rç¿©;€«üPOÿ¾ú×ýoò§€§€¥ìßŸÿj =ý/Àk Î¥ëÿÒÿoöþ^r)ûÕ? ÊèŸÇÇšþéàU`™èß¶ þCùÓ@ÿLôoÛºÛÿTý½
<—÷Otùœå×¿^›îŸèâ9?û@úç³áþ©.žsù3?$^Óùó>,nSõó¾Dþü&êß åYäß¦<õ?ø                                                                                                                                                                                                  @“ÞÞÞÞJŸ‚ñ õúÐz~ýÛÎ¯Óõ—çýõddÏÿ¶.¿4šÿ§¿´Ùß ÚÎÖß ö#Z~h<¿t­ÿæo {ùØ™ØûÀÎÄ~ÔWÿ}‰þ˜¿´NÿÆéß:ù   Üó§Ò§ `|hÓyýM,àáá¡ôÚ­_| _Ê¢åüeðß Êå/9€Ÿüúìÿ\>¿Ì_l úo#ÿsùüP²™è¿•üú7Þ¿È ôßL~ý»®{:é*´õþÝVâWº€çí`Cý/ëW¸€©ü¥o ºå¯m ›ì¿•§úòW6€öß„þüu@ÿÙù«@ýï>eË_Ó ²æ¿?êÒÔ½€±ü _ÿû3IêÇÀS(’?â.òGÀS#ý»BùãLàª~Ä<µ2€rù×Oà6´4Óx ]úüëÐ—?Ò &ó×3€‘ü‡Ãá8ÿòô××¶þú‡_ió÷àñÇÜüqðÔö Îë¯_ÀýÌüÆ^Àpþ(hªÿÕ ¾n÷ãà~fÿ«ü}«e mõï&ê¯ÀtþËÜæ¿ÀD~ýø¹Ëß›ÅföïË5€©üÐ^ÿ“¡ü‹0¯ÿã~ú?µ•áîgõÈ1€éün Òô_²€zûwöŸ¿8ùÏp—c úÇÙÀýNû k¸ð fåØ?Ã@×rÿCíýzpQÿÀÄÊ?÷àª¼|þ¿-æ~°·þ/'í¼0eÿYùoÿ£ö?µ>û¿~Ð`þÈ÷ çåìq /cFÐUk“ý»$ýGóÐ`þÀ„]Ò¼üÃ¸ú´Hý§ò «[¶þ7_pU¼?¾þCèj'ÿÂ—~M_n¶þýwºÄÈ?Õñáòõï@×ˆõùÓ¼ò÷(_ÿ›Gºf¬ÎŸ®ÿô ºˆý'ÐµeeþñþëŽ–¹£Öåí¿öhúç°¦þè Ömmþà;€M[S¤ÿô—¾¿O}ÆÚü¡¿¶myü£d×þ£µùƒlÞâöG)ó`Æ%¨ŸXÂúG+ó/ æAÛ•2œ÷ Ñ>©„õÖÖÿ¡|äþ?ÒÅÿ£>=–ßñ§+~ñcÿVýæÏîéß´uü±wú·Mÿ¶éß¶¬ý?Žr|#6×ÿãWÿ'ü=I}ò÷?«?°€Ÿü&P]ÿ«ú=¸¨o ¥ï[º¿TÓ¿/ÿõ nò[@6‰ûôïË¯ýò_ ·¿d²Õþ°ÿþÛíïu`'[íŸt ^ø«Áþ^œå@ÿ]Èß¿+Ûßß þpñIú—¦ã2? Ð•í/ÿ’ý³? ¨>ùËõO÷-8™ÎŸý	@ù³šÌß7€”’?³‰ú¹_$#ñ?e«ï¹ŸÊTÿs é¿                                                                                                                                                                                                     Ôçííí­ô(ß ºÖóëßt}ýÏ¯{äoÚ[Šþ¯¯±.‰=^ý_¢]{»õÿìo ;æ‡ÿWh½¿l]¢»þ°©~óÓ'ýÞï qú7NÿÖéß8ý–{>)}
Æ7]Õ/?€‡O…ÑpþÂøÊo ó—À)¿Ì_n ¿ùõ/˜¿Ô Îò@Éüú·¿Ð ôßLÿ"Ð3ùõo¼‰è¿üúwOßº&ûÀ–òŸâW:MößÎã?—õë[@@þ²÷ »mÕ¯m [í¿‰§ÿzó×5€þ¥Ÿ	ÞXþš”¿Ñþƒù+€þKò×3 ý—õ¯e ú/Ë_Ë ô_˜¿’è?@ÿ¦ûOç¯c ò/ïßÌ ºöèŸ&ÿý—˜Ùuw_²÷¯a Yó×;ïúQðÔLÿŒ/ÿ:¯?=Çoáõ# ¡þ]±ü#8ÅŸœÀeþhxjh õŸRõ¿Ÿ®?2€ëúÑÐRÿ‘|Ç2þü}¸É?´€žüú/Rí†òßà1´_þHh«VÿgK¶Ü¿7ß úóÇ@hÿz0”á­Á}hÿü·Ê¯ÿ"×÷û¦óÏZ@ôþƒùó «Èù¯|‡Býó_à.í Zì&,ø Fòëßvÿ®lÿ————¾Ë_¢ÿc”þwóò÷.@ÿ<ý»àþ	úç_<€®R‘ûßgî77ÏôÏÑ¿ÛLÿÇl8ð Êõï’öÿ\€þ‘ò÷¿þÄðü1úä@W³ˆùó÷¿[ß?` ]Õ2ô¿ùÄ›ÞÃý»Ôý'ÐÕ.RýEýo>v{©©ûO «_¤üCý{>s öŒçÿ£Ý˜@×„õç¼ôë8€à‹]›²ÿÈ ºf¬?ó¥Ÿsäèß¿€®%«Ú%Ê¿þ5@åì-Y–ÿý}òSÖåì5àKçdÙµ? ÿÚ× ‡ö?¹7þ_Våx(Õ?Z•êI bITÿhMþOòïÜšø'â  ÐªÅOùQƒÏù²kžóŸéã[ŽïE U/úXlOR†“u/ú	vQ` ?õ- ¶þ×ùûp‘ß*ê[¿g ×ù ‹•¯ú\œÿz ·ù ‹÷7€ú„ôïÍo 5÷¿€þÅ$îÿ±¦¿¤§ãÒ`ãý½´áþ^ü©Lÿ®x¯ÿVäÀ†ú@‹ýý!È \~Žþe•î?0€.!v!ó ×Ÿãê_±éüž Ô?£ÉüÙ_  VSõ{ú§=ü¹Ö?Ê™ÿw ©¿Á2Ö?õOÿ}˜#Sü#õ                                                                                                                                                                                                       ½½½•>Å¼}*}
JÖ7€Öóëß"ù›ö›_ÿéß´Äù_S\(ñ$Î”â‚‰#ñÿgØ®Ä?û¿úÀf%¾ë÷Ýß ¶*õhœþ<évÈ@¤ø™ÀÃ§_ ¼úåð•ß Šå/»€SþYð(PÌú%ð°¬ÿq ÉÎÔ^þrxX: bæ/5€óüú—ì_f úo%™è¿™üE Fú7m*‰è¿¡ü¥o 
|û†ô/|Ð•öô£k2Ù€n+ñ«œÀóÖÐmª~uØlÿÏ	tÝæò×µ€°üå_°¥ü5@ÿùõk@`ÿ0’¿š„æ×¿Îè¿0%Ðiþ: ÿâüú7Þ¿†è¿<Ð¿Ÿþú·0 ýûé/¿è¯‹ùÃûï~ KóŽºZµÓÙË??ë'_ÀãQ·íþ»Àüü?ñSö<×¥ôÒvÿ¿þ8ËP?í ^^^Úî?ù×#õÓô¿®Ÿr /Gm÷ÿëßÑúIÐ“?Ý ^zÐVÿ±w8dïß›?Õ ¾ò·ÞðÝ_&ëÇï?d wGëú¿4ÞèÝŸvÐÿ³þâ¼¬@W‹y÷ûSõœÙÿ'ÿ¢üä×ÿj]`þ|ý§ò/ÀËÐ šìÿéìŸ4ýïïïï—äè·¢ÿÒtõJÑÿXd û_@ÿ4?þWôœî·"ÿÕäOÑÿ;ÿÐ Ëö?ß€þ)~ûÛ~ÿŸ	èŸàÁ¿ñüý‡>2Úÿ.Fÿï4Ÿj .0üêßóÁ¾/IÓ?x ]í¢ÖŸºû×Ÿ:]ÿ‰È?0€xï¿÷ã½_“¨Ð º6DJÿ-äÁŸþèÿªx Ìý	0÷›1î:ÿûûûÅ¿|YšþÓ¿,ü_Éüþ/]œò`d ó¿£§ú¼daý£‰þXö½1ö‹ÞTÿUÆó7ð÷ïÀå¿«ŸÁpÿÑ_ ¢¬ÿMúÄ
÷ÿÒßž,ú;= H]Fú—9…¹ö·LýÖ¿Eê·MþÆÉß¿“¿¹øW¸ô÷GÞã5,Î+~æåÀo}È$ÚK¾fÕïÀe~È!Þkþ†õåïÀu~H/æ‹>çå¿@O~ýÛéß—ß *èÿ±¦¿¤õUÿ3ûä×?-ý·õþ–þK> ý7­\ÿnýG^Þ„¶ûÿ5@JÝ¸ø¤Òù wÿný‡ÿ¬)E¼ú¤ýGþ°-‰ŸÈ_äñýO²?|û9úWl:çåÏh*ß Iþ¬Æëxý—ü“µþÈ„R2Öþ/CÑ
ñ                                                                                                                                                                                                         hÝÛQéCP4¿´]_ÿÆóëß"ù›ö›_ÿÉß4ù›¶ðÖÿááaÖ·y}}}{4.<‰|©‹ò?|™ÙßVÇ>5ùçà«¿D¨uoûgà»¿DÉm+óÏïo qòGÀ’{þçý Tþ8X›_ÿrùc`Á¯ýû@ôü°àQŸ¥ýÝŒž?öcyú@¬üE°¸¿€øýK`ÞWê;ÿ¾ú@ôþ…0ûkõ›¿ì]À_=ÿÓ—®ÑþEðµ€®¼ïøunày»ý7á2~}ëßì zòW5€Àüöï­_Õ ô_¿ž„æor Ãù«€þËò×2 ýæ¯c áù›ë?•¿ŠÌèßØ ¦óëßxÿ
 ÿŠü@ÿUýw?€Uù‡CW+ý§ú>uû÷òò²4ÿî°¼ÿ¡–þ/ú/èÿÿ8æ¿ÀS#X_ÿûÿæßý zû‡çoe ƒù5ä¿€þ#ý/êëßÄ ëëßBÿô ùþ¡ý1_ÿú0Z_ÿÚû××ÿ©ö¿þ?ìÿø)}ÿ†ï L½ûË!ÿÇ]"úZø£?MÿÛúé ÿ·¡üÝ6ò§ÀKÿ Úëß3€Ïg¿ú_O>€þsÐUã¶~þ«ÿuïÄxYÐÕä2~þþ·µ³õ¿@«ýo”ÎŸx /ëÐU-ëÿoëÉ¦è¿h ]å2Ö¸ª§¼¸ì¾ ý¿e)?:ßÀùä?É¾÷®þûûõ?dè?s ñOÔªžü7è¶6€jÔcoÿ÷Ì¿Ì@‚ã4ê<ÿðõ?ýƒ ³î¦8L›.òŸ"çê?ò8€üû÷þkÂCô<
06€„'i;©þýäo»ÿ
£þÛê»€"‡¨Ùhÿâù?‰ŸTXÿR§#ù¹"~Ó¤o•òS¿_Jƒ‚ñ§&ð÷$çÙÈZp?ñ- îúý¸ÌoYdøãþ¾ü=¸Éo É%Áç`þ€üX†WüöÿÈo IeyÉ÷P~ý‹Ëòšÿ ä7€½÷Î¯ô£ÿvéß¶=ô7€„vÐ?Õ¹(}Ðm¦Ïß„4BÿÁ·kC¹ß »môzo˜V{hýß¨…¾þ¤äo³†ç òôïÓÿ(ý;üOæ/óü¯ü¹Læ/òúýó™Ê_âõ_òç5ñêïÜù›ÿåokòÖ~kpŠÉXð¿E3Ô                                                                                                                                                                                                            ñvTú”¬¯ãùgõ8Jw$òç››ßZÏo ù<ÿH“ÿmI~ý³×»€•ù @ýˆøÍ¯ÿžòGZÀ¢ü‹û¿-8eëzóÇÀ²üëú@¤ü°,ÿÊþ+ÿÚ¼•éo ±ò¯ÀÒü«ûÀÆúÏüÂÅ÷ÿ rþ5Xœùã?úGïÿ\¢ÿâÇ vþåX‘ñó?úGÏÿ\"ÿÑ¢‡þ zÿ•èòJÑÿéGW™äý»ìbà7~}Ê¿b ]	1û_Å¯miû—¯_þŠ˜¿Õô×¯h µöóDð`þZð\mÿÏ$«_Ë ž×àÐmÛÊþOõ÷^ÑÿpÔÕk"XÑÿPyÿÉü5`uÿCËýŸZÊÿÜ›ÿÐr~ý«@PþÝ@ÿ£——Ûé?ÞÿPOÿ——ž<51€÷ÿï¤Ëÿf ¡ùw>€Åý‰ûÿÔO¾€¯üú/½ú’çO;€µýw=€WÿCúüI ÿüþ‡´ýÿ+ÞFþ] BþÐ?›ù3ôï6Ýÿ©­þ×ùÿ èk»ÿìWÿÝÔOõ@—‰þ3ò÷Ôßû€úW?€±ú;Ï¿öá¿Ý÷ÀX}ý÷Þ¿[—ïý¿Ðrÿw¬_gÿ†î ­¸öï>ÿç º¶ûO¾ûWÅWý?Õ¯ûêßûúŸÖò÷àç«Îß«¹þ·8û§Öê7ÙäíßË·|||Ìú[Ì?¬ôµþ˜?ïô¿”'ýEä÷÷÷÷³ou ÏT¹«Æï¿xÌ? ù3»nü^¶à 2¨nAý77€Œç©ÙoàßÄ½ý76€Œ§i%ÿEÿžÏx,ùäï<õï©ÈŸ?ÿ–ú/ ëAšÉ?Ù+ÈzŒ¦ó—¼¨þ@÷¿ÔÀoò§xÓ^2åï ^Xh×bíOÄ ˆèãÛÄ§ýÍtJÄ_ÀßYGÎúƒø­ouçïÀe~¨¸~ß nò@jy^ëÖ¿'¿$•éÕþýù¯Ð›ß ÒÉõçCùõoãï}>‚0ß ’Éô§~Ãùõ/j'ý ýÛ–éo½õßªÒ7 Ý¦ú÷½EPÝô¿~‡ØÆ& ÿUý†ð»„äï6’¿­þ™þ!ýÐeÍßXÿLÿ‰Ï€üÝ6ò·Ö?Óã}:ÿÐ ¬ùü™Lç/ôü¯þ™Lå/ôúù³T Ëwþ·'þóþ9¾ã2×oö¡¿ËZè¿                                                                                                                                                                                                          ÀÑ¿ÿþûoé3P4ß >Lù‡ÿŠü;œÙ Z0YÿŒ5–¿1ŸJŸ‚¢ù- õüú·ß Z¤~Ï'Ñ/ùííímq~È[?úŽõg@ÿ¢õc.à»¾þûÊk‹òë¿üQð“_ÿÝå0€·…ýÝÿßBþÕXœ_ÿôŽ”nÿm#ÿš¬Éÿ;€åßŸ=÷ÿ^À‚¯{}}]òí5‘ù Öæ_êõ(ç7¬¼ÿóÎú@ÜüP,ÿWÿxzzzê*“£×í~ OgºÆò/@ÁüñûŸ×¯kÏ©P²ä\×¯i úwÝ®ÐS¿ž</î8¶›?^ÿþúÕàyé G#\´~¼æ¯c ÏKûæ@áüq0R¿µþÏ}ùGP:ŒGFó×0€çtý»²ñcÜ Lä¯` ëûÞÜ÷ žªïÿ\wÿu?¦óï~ MôM—_ÿ„ýÿûTl Oõày»ý¿â¯ŸÀâ„åß÷ –÷?¤í^åôß_ÿëük°ð 4ÿ®°Íþ·õàåååæcúåOÙ¿7ÿê¤ë¿ãì©ÂôôŸ‘¿Åþ‡tý‡ò'ü	°îê¿ãÄ¸úï ÿ‚ßÚè¿ôÙ¿ùó@ÿÀü;êÿšªèÊ÷_u±s àÕ?ÛÝÿO$ÊÿÔÔ«ÿÓæOðëß‚è˜?Á£¿)âÏþ	ÐLÿŒäO÷ìOôKÕ¿ß¬üé¯þéÌ@Cýç½ûÃ~óÏ@Kýg½ûÓ~ë ì3›êŸòíßvzÐXÿ„oÿØÀ@WƒêÏ@sýoPú8]÷þþþû2SÜ tµØTýÏüñÐEïý„¤ìJÿõ|||ÌøíåßVÿcþ- ã‰ÚÒÛsÈxžÊÝ´½½ùßÞ 2ž¦jÓm·8€Œg©YPÚ˜X@Î“T,,ìãæóõ
Ïº±ä<E½fE-1€¡d=CµŠ\§çR?™Ô?’?‘]Ôÿ$~
{©@ßÆ?ëïß¿¹Dþø£øû+ïéÈ™hgù- æúý¸Ìo 5çÿ˜Îo Iåûû®¾ü·¸Íoédü¿þü×èÍ¯YÿÂwMH"çŸxåÿÉo )äx‡úoþmËy°²¿¤ ÿ­—O]ôïßÎô¨ßä ’~§üEû_Öo¤·“þ]zmöÏ÷p@þátÉµšÿw©¿Í¦û7œÿ(Ës€ÓùË=Ôxÿ<¦ó{þWý,&ê÷ ÇÁäÏe´~ß ²œJþÍ(‘ÿl ™¾Ã
äÿ@¶ïÆ¸Ìñ                                                                                                                                                                                                          ðï§Ò§ dý‘XFù2»mhºÿÄmÕõørõÏOHÎþßùOÐ¿rCù¯PôŒ$Ô¿è	Ii(ÿÅ Šž´Îúöô§!ú·MÿÜžOº-Ð¿PýL@ÿ‚ù7° ý‹æ/> ýËæ/¾ ùç4€·£%_(éþÏ±ò/êZ@„C°(ÿú|Õ_< J÷_7 ù÷žÕ ~òë¿ßþÏòë¿ßüËPcÿ§O]Sý ¾ü_ñ+[@ªþoúÿóÏ?ÝëW4€€üË'ÿfpY¿ž<'@Œ[ÿíô¿©_Ë žõqëÿ5€n›õ+ÀóÒ‡wþ¶œ¿†</íøÔÄ}ÿÁü-õîË?8€8·þ¯_Á žÓ÷ï*Î¯ÿ¡éü{ÀŒüWíßN~ýû.¶ü;@šþ-åj&ÿ‚þkÎöß5—ÒuÝkÒüú§Èÿý^__æßõ Òö–Ý^ 0£ýOè¹ÔÕ·ý·ù×àuá žêÀŠüSýãÖ_3€×eÎ¯ÿ•hwüŠ@ÿþñÏ4”ù ^— <ÿŽ°"ªþÃù×Þ Ì€þ!ý»=õŸ5 ýÇóO¾þ#zþ¼˜Ó¿…Ü~mŠü‰û‡/`Vþúç:PšþóÐHÿd¯þÜlÿÀè_$ªþ³ÐJÿtý±PšüçýƒÐLÿtý·Lšü³ ™üýÏû¯ÀÜ´Ó?Ý_ÿ/µþÊ>Õz õOøî/›’p ÝÎµÿ²ÿä ZÊŸøýÿ–{/6€¶úoòý?ß?í` ]¶V?ý»Jl«þwþ «Æ†ê'é?k íåß–ôýã æù8?ŠÄ=iûG@äãq.zýøˆ@ÒŠ:€\‡f“ÈudŠ`l™ÎKlsú×üîÍšÓ`9ŽI2sú÷- ý	I,<µoþÎâÄ÷q2úY²‰ìõÇð÷WÞÓ‘±þà Îò@Íùûp‘ßjÎß7€ëüÈÏ{¦x{Àü·¸Ío iëçZÀòþ8Ž|õïÍo õö¿€þ…ú
åÿÉo éû'€þÛ¢ÿ€—]ÕöÕÿoöúÍ íwÛEÿ‹ú­ ñwÉ_¸ÿK[ý¯°…þƒèJä¯¾ÿÅR«­÷o1ÿôß9žü›êßµ"Ó3@ù‡ãxÍæÏ& ÿvúçø–Í™Ì_ð	`õ3˜ª_ò êç1ÿ¨PþÓ ²};ÊÏf¨ß<ñ                                                                                                                                                                                                          6àßO¥OAÉúÐµÞÿl WŸSàddÍÿïyý‹¸yh©ÿwþßøùÐRÿŸü?Ð¿¡þgùOÐ¿bú7Nÿ¶ÿø¿@ÑC’Ît¿ÿW­ÿ·¿«Ç Håù¨Û
ùÔßÐô/S3Ð¿Tþ,@þbù·± ùößÂ nžÿ%[þm€rý íüÐzh<¿ôxzzzêZéo ·ñ¿tmô/9€þùçŸn›õ«ÀTþux{[ÛÿŸÖ¯e Ï	ðvTMÿëüuà9Ý ÞªêÿTeÿçtý¿ò¯þÐmµ~xN5€·ù·ã©Òþaùà­ªþù÷?€TýßªêÿTkÿÐüsÐJþ½ Qÿ·ªúåo¦ÿœ4”ÿ©•üÏ‹ò¿ÕžßHÒ¿ªüSõwÝÿ9EÿÆòëŸ(ÿßºmçßó ô‹Óÿ¿ðô_Ó?RýrÊ¯òü…–_ÿùK 0¿þqû÷ç/0€§ê°§üÿm6¿þ')óg€þÛÊŸy áùõÿ–ì¾Ÿþ‰DÍß%Î¯tiò§ê¿n ¯¯¯iòï¸è ‚.+úÃ¾Qû¿~	ýtýçæñ‚ßôýCÐHÿˆýãI¿Ä·ÿ3ÐJÿxþó9ß¤ýƒ ÿ¢ü+Ó[;~ÿ€4Ó?ÖŸÿGy½ÏÐu=Bþ‹þÓh§ÿø B/$ÎË½F®éëÿŸ5€†ú ø2"½Úï¢þûûû{Ïk¢tû·:ÿ±Œƒœ_÷ùË ©þÈŽ³ù¯ü1pÕ|mõï@áÅïŸf ]%6–?Kÿ±´Öÿr¥Ï’¤Ï FÐZþ£­ÄOÔ?Á ¢3	ò÷õ^€üeÅÏ} ±GjQ÷è$ÀÂä=9@ÞsSd ƒÈzfÊ 9Ü¬ÿ¶1€Û¤9?b½ì+Ò j|çÿ†û/ÀÏR‡Ìýûæ;àãÓÙçŸût Éã_N §ÿß/ñ¾¯þ[«ß3€«ú	ïbYœÿz =ùS- Þ…²<ÿÏ FòÇÀiQ/qŸ¿
æ?¿Êy \ÖÏ·€ÑþÝp~Hœ?Ïzóß ¯¿$ÎŸc aý{ó@\%úä×¿‘€°üÝÂ ^>uõÒ*~åÐ? ¾læç¦\Õoi É¿áú¿4Ôÿzï_(Íý3?¬ÿeËøøïÆúçø¶Íé_ò ùÓ
É?Ð?ËùÔOm:Ñ'€ÄOm²~ÿ ²OüÔ&ó{Hóäoœú­S                                                                                                                                                                                                           Šû÷ßKRþýVúÍo ­÷ÿÀÃ§ëÏË6ŠôÿÊ± 7õç¿íÿ; ?!juÛÿá¶¿{mö?@ÿjéß¸ëþçù/ <$É„\ÿ??©ÜIiøîÿõc ¤ðüüü\ô Ãý‹«™øß
žâòÖ]ÿùßœ“¿Dþ-@þ"ù·3 Êô7€¶ó[@×zh;¿´Þß †<===uÕç7€ÁøŸºêûÀpýZ0Úß Æò×0€ñü0V¿…þ0’¿‚Lö7€‘ü-ô7€áü»@@~ÉßDÌßFÊ¿óæo¾ÿSãý[€þM{ª´pþ¶0–×HÖÿííí­k#¿þ½õëé?‘¿‘þÏ3ëWÓÿ©ÞþÏ)ú¿ÕÕ2¿þ½õ+é?_ÿ$ùÿûÑm;¿þ½ùßâÄ/»€üôÏ˜ÿª~¹å×¿/ÿ[Ôü… ÿâþqë—@Xþ6úçºúå/0€§êûÏ@®[ÿÿ¶3 ýçOpõÏ>€Ðü-ôßDþÌh¡¼—ÿé¿K»ºúgÀSýƒ+ÿtÿŒÐiþtWýãÛNþ›þ}íri¥ÿÔ Šåø‡.“fúwqóGºõþ§.fò _þžÈïG7ÿÖ­ózðyõï6œ?ö >óM ¡þÝÆòÿw–ÿ¶ÿQúO. ¡ü˜]?Ö“þÝMÿ.Aÿ‰üvî%»q#ÝÂ(†p=gÖ,(§³£žÔðüçq—ž)‘ 	’ ñŸ½{•RY±ÖwR|èÔÿ¦¿½`þ3ý×ë~QùO0´Ë¿æíÿx gÖÿë†móowý?éfiù_ÝòNÿûó=À[%ÿØ &Ø¶%ëOàô«Ãòý' ÿÆ¿t_0ÿÄ & ÿv¦°hþ©Œ/@þw^¸þdÿk°ÌaÎµyX°â F ÿ¦¾_£þÕ(ùwwlõüWàx‹ž…c«ç?ÓÆ³Ë…+ç?;€¥3<¿øó?×Îo »‹ÿîýŸ¦ò?==-ôCõßaýñ||çÓ‡e~°ì0ÿÇNûÖ_lúŸøõë×¯ÆùO0’Õ¹é?µÌÿ~p6ÿš÷C¤où7[Àhÿï€ñü+`Htœ›Œçÿ6€aªÿZ¿‘vØÿm “ùÀo
Žêÿ«uÿ—ôÿº€!ÕûÏ¿ä .ûçÝPT“@/ý?âW^€þ³ê×ÀéöÞÿ©Iþœ¬þ{èš¿î 6pÿýÿ‰êÿu[ü´>ûµíãùß¯\þ«Ú}ÿ ‡MÌÉß´ÿñ ¶ù¡9fäŸÀV'TU3ò¯ùúÍ]Ì?6€ÏÈšÎÇ!8ùÓ©ö                                                                                                                                                                                                            ­üõ×_µ>-ë[Àžß 2éŸíOH4¿¿}D÷wˆêÿ#ß¸å¹ØÈxÿÿû¿Ólz,62÷öOQþ·ôð®áôo^høãc}Íßt ´ÏoCzÈÎo éý ;¿¤÷7€s/†Êùà|ü*Ðÿæú%0Ýß .æ/0€3ýàbþîp.¿\Î_»¿\Êßû .ô7€Kù‹÷7€ù«÷7€óùË÷7€óýÅóÀùüõûÀ¹üýàL~ýd÷À¡fÿ¹ùÓûÒû‡@ÿ!ÙÙüúgçÏè<€ùõÏÎ¯vþŒþC¨Ëùõÿæ÷ïßC!ú_Óÿ÷›!)Dÿ«òßÝÿïo†}çï¹ÿ¢ÏÿÔ¿·ÿ÷ú-70+Bÿëòÿ^º~«”Ï?¬’ÿ÷
ù[ þÍ¹7€­ž¿ÁôŸ›ÿký{úŸÍ¿õ 	ý‡åóßÞ¤wÃèß6ÿè?Û‰È¿À' /Ôòbßh !ýÏàêúËçou'Òÿž?qRÿÖþçê5@JþÛÿÌïuó?¾˜þòÚbúOàêú7öŸÎÿ6€¿[ §ÿÔ®Ž¿Pþ¿¿ä¿ l±€ üWþØ©øKåÿÖü°Å ©ÿ°Dý¥òwÓ¨¤QþKý'¾gØ@Vÿ¯¶Ë[ÿaYùçX>ÿä{åüÿ¾9û=òo2ïgþa½ü& ÿw«ä?ÿäïÅ¯ÞÝÿìôß ÿ…§x×¸çÿÞÿÌÔÿcµú/¦"¯ó¸ï¤ÿôäÿ´^ýW#×©?Ñö†P«ÖŸz4¸BýÉþ³&0äZ½þ«Õëß0€Ñéß­ÝþÕúùÏô?ÿœ +x~ñõVÏo ûŠÿîó§ò?=-ös`oõ¿,`,ÿÓ§e~´þßýz×2ÿØ Nò/´ ýGâo;Óü§©¿ö †ðü›-àyz çó¯;€!Î¯&Í4€©þk`Hsš“œíÿ6€Éük`HÓ¦ÿDþ¯8“Åß†8»ìÿéiÛyš\ öÑÿd #ßòÏ‡¡ª=÷ŸÈ¿ÜsçûÆ/½€äþ_0œÏŸ³€!©ÿÇ†ËùËößþ9À]õwš¿ð ¾N`‹Ÿ¦ÿmVvÿÉlpÄ¼þ[Úÿ±lñc3ÌË¿³þ[üÔwõßèŒò¯hNþu_ ˜AüõÌÉ¿Þë´w9ÿj¯ÿ³ë`Ó²º3í_ÉŸNýtê                                                                                                                                                                                                            À–þzÑú4Ío éý ¼¿dÒ?›þáô§;ïZžAþæùw°€–??Õ—ü@óüžß Òû@v~Hïo ^UûÀåø%0‘_ÿyù»ÀT˜U¿ûLö7€yùõÏÎßù ¦ûÀ¼üeûÀ¬ü‡ªù`VþÂýàˆþÑiýàrþ®p©¿„÷7€‹ùk÷7€ðþP7¿þ÷ç/ßß Âû·À?~»Ï¯ÿjñß{Ýÿ¡eþ],àL~ý×Î¿ƒèß2ÿ=ç×ýþ?vœ_ÿåí+¿þ›ŸkWýëæßmÿ¡›ü}÷ßñ ïZ»?¡ÿLÿèþµó{ðÎü½÷÷ óôî_>¿· Ÿ¥ÿüÿÐïßC\þýÏ`æã÷›»Ïò÷‹a7ò/ðÐ÷úwàµþÄ š,#¢ÿ½àOýûúÔ?Óë	dô¿çÀ|Wÿ?õG_øòJ2òßþGÀ~/”ÿkÝ?_ŒÇFHéË_<n{ÿ¿Çã¾æÿÀÉ÷l2”ü×þØ±ö·æŸ*ûx©ÿˆé?ÿÏ€O´¿µÿdÖÇoø»Í ròà†úKåßSÿªïûŸpOý›úŸ©:ãúßt CžÅóŸ½[ŸÑØ€þëå?ÿ°îÜï›å¯øWŸv“ÿÜýÿ¥ï6¤þJù§û?ûMÃæâóŸïïüŠþC+Ñõ—ÿÍï:ÛÓ6ÿªþ}×ú»V6ÿG}#8«hýãü&0¥fþ±þ±øõÇéW¬ÿüaÎ7?=k÷ÿ7½þèV¯yOŸÖíŸ8€£ü—°Fý³øSß ÖÏa ÃJù§ð-ÿrÐ"ÿÈc€·	,øcÇòOà8ÿºÂüš;€eÍïš©èß¬ÿxþ±Œå_s C˜÷Ï¿â=ÀfWýŸgö_ïpôÿ¼
ÛÑÝÿæýO0V¿úvÜ*ÿj˜¨Ÿ5€ þG¦ûç,`ˆêÿu góWîÿuCXÿÏýë?axÝÀF?h_ýÇößNýÓî öØz œQÿÍË¿öïÿÈ¿žú§<ÔÂ¬üë¾þCK³òë_ØŒük¾þOk3ò¯øþvàBüò‡S?ú                                                                                                                                                                                                                +ú«õhJÿvZŸ€fÞµ>Mó[@z~HÏo éý ;¿Ìux5”ëo óëw?€±þ0¿~çÍo ×äïz ýàŠüúgçïy SýàŠüúgç¯Øß æç×?;ÉþÞß ææ×?FR˜™_ÿåòŸïo áýà;ý£âú@x¸œ_ÿóïy ?Þ{Qñæ¿ßþïõw4Ðþ­ëïeú7Ë¿‡ÔÌ¿Ëþ#ùÛ@ÿ¦ù› hÿ> Üeÿªù÷×"¿þáýì2÷ý÷÷Àó×½ùïð%@ý³ûïð÷¿Â—ÿ]¾lgù+ßü÷ûà=„¸ùï¶ÿ~”ÎïC`éýý€Šç×?¼ÿÄ ZŸj7ªç÷gÀÎ+Ÿ§òñqØ‡úýwøw`_»P>ÿÉ 6ÿùÿý÷ß#ýO¾éèÛ¶Q>ÿÑ æý_~¿¹÷'¿U=JûxÚÿË÷m¿‚êù_Ì­ÿûÈ=?s*êiÿïß¹ýÊçŸá¸ü½˜.:§ÿæ÷Ùõ'âßÑÿ\Ð=öö{ñþgƒ^¸û×7õW¹ùüþ¯±þW?¢W¿Tþ?A<)ç¿û÷vOþlòGøõÇ÷/ÈŸUÿxò§Õÿ>€•ó????/ôŸb©ü3ú/ÕþÃ¥ï}ú0¬áßWC¤‘ü_°Mþø¬¿ÊÞê§.àBÿ±¬PÿÜ¾Õ_~ òGàúþÃJýŸçå_z ÿF`4ÿ¹ß †Õòà4ÿÂÈîñöÿ} ÃšùŸgæ_v ÿfàbþåÞîw±ÿóÌü‹àlÿþª›Ñq{êæàŸ7CmÛçŸìÿ<·ÿZ€±üqØOÿÉük] Fó—À™×úÿÀ0Ñ¿þ >'0ôÑ•“ý°¡½õYÀÉ?éÔŒ¬¦‹þQ ·µ¯ÇÓä_É¬üÛüþOú‡›•“çibNþÉl\–6'ÿÄ ¶>*«˜‘ý÷ÐÐ¥ú¼ÿ‹½“?œúñÄ                                                                                                                                                                                                               Jzxh}šyx×ú4Íoéù- =¿\ép8†JýàÊú/à¤¿\[¿çœæ7€ò—êo ×Öïw ú/“¿Tïo ×æ×?;±þpe~ýƒô7€ëòëŸ¿\˜¢´RùÝ\-¥¿ŒÓ?Úx~ýSË¦¿ŒÑ?ZµË¿\§\~ý¯¢¶rùÏõ7€ú7€kèŸ­`þ½öÿñiØŠýw9€?õwµŠùwØÿ¸þn «üûX@Åü»{ÀDþ=@ÿ†ùw0€’ùwö.pý7×Kÿæ¨™WýÑSÿ¡ýg*ÚO¤£þCúÏT3ÿ®þÔžóí?”²Ÿþ/ŽRï¥þ×µì*ÿžÕÌ2€ÖÇakò§“?ÜÎò?¾h}šæ7€ðüú‡÷7€Lò‡Ó?›üáäß™ßßµ>-ë[@Y¿~ýú5'¿þ5Û¿»˜ß 
×?€üqù¿öwóÏËÿu úæ¿Ô¿åaiÞ±üünÆ·>½[ìg3ÿ|ÿ…ãÏ˜ÀG|ØAÿUòŸ]À·üÐ¶ÿZù'pTß 6í?l–b §ù`Ygóï?¬™t cù`YçòÀ°—þ°¨³ý?°ä|ž;€‰üú/ìLý5ÜÝß ·aþÉþÏsóëß5ý³Ýßß z¦6ýÃÍË¯Uú‡»·›S³”Yù=ÿS—þáæä÷úOasò{ý·²Ëù½ÿ£¶Kõ½ÿùÓÉŸN|                                                                                                                                                                                                               ª‡7­AÓü0¤÷·€ðüp£Ãa¨Ñß ®vx7TÈo ·æït'ýàÆúUúÀù»ÀH¸1¿þÙù{ÀX¸1•þp[~ýƒTîo 7å×?F‘üp#ý£ª÷7€³ôÏV&¿;€ì›¿þ·èo ù] ®§¶Rùõïï5 ké­X~ýÃû{Ðuªå×?¼¿w^¥\~ý¯S®¿\¥\~ý¯R.¿Ï^¥^~Ÿï2€ÖçÙµzùý!ˆkÌ¿³?óã‹aêå?À~êïs	åêÀ>óïmC1;é&ÿžPÐþóÀºÚç¿Ôß j»”_ÿðþPÚHlýsL”6€“•õp¦±þÎ6€úŽú>>>>}QÿÒ¾Õ}ÉÿuòGyÏ|hy$ôÿ~hz$šö'‰þáäoç×¯_¿ö1€Ö‡¿‹Ð2¿d×7€ôüúÇÑ?Ú÷üúgç×?Ì…þ¿7:{èÿû÷:x~5ó›ŸÞ¬qÎöÿ½Nÿ·úó6ðßVrñæÿ{Íú—&ðµ¾¬áÒÝÿýŸgç7€å}ô¿IþÉœæ×›þî7–b #ù wÏ³0šß RúOä×¿dÿçÙý ¢ÿd~ý»¦¶ûû@ÏôÏ¦8ý³énV~ÿÃû{þ§¬Yùõ¯kN~¯ÿ6'ÿDÿ­Ê*.ç÷úm—ê{ÿê§“?ú                                                                                                                                                                                                             $xxxxh}ZÖÕú 4Ío áù ½¿Üèðjè=¿ÜQ¿Ë÷7€{ò÷7€“þpOþýàŽü½`$¿þ÷ä/Ðß îÈo áùõÏÎ_¡¿Üž_ÿeûÀÍù;ëïp;ý£•Èï ¼¿À¢ùõOQ$¿;€ðþ. Ùùõïï5€[ÔÉ¯xïÉÎ¯xï¼Z©üú‡÷÷6ðkÕÊïs ×ªÞ¿õyv¯Vþ“´>ÎîËïƒÀWª–ßïÿm ­ÏÒjù¿ õIzP.ÿŸ´>Fêå@ëCô¢\}®¤>  ,áÇ?ZŸ–õG`AùOZOÎ‚’ù'ú@Fý“ÎÓ_¡^ýÓÈç¾Fµüãÿ ¤þXá_¦x(m4ÿã‹±ïhvL6ìÿšÿs ú—6uó@»c²’É›ÿHÿ†Çd5ú‡;®;Õ¿ÙYÙQÞoù½°¡_/Zâu þ‡ú›ÖßÅ ¾Óüû ›æ×?‘þÑ~í©¿G|ÁýýÂß‚þÙ¶ÏÿüæäßGó?}Øèpy6Îÿ^d#ý?ë[ÀzÚå?ZÀqþoõ ‚ãüßp!¿TÌÿí0yí7€ºýO	Nå×?¦ÿh~(Ùÿyv~ý+æ¿¢¿Tìÿ<;¿þ=Ó?œþÙôÏvè™Û¸yùõ/Kÿlóú{þ§¬Yù=ÿ[×œü^ÿ)lNþ‰þ[•U\ÎïõÿÚ.ÕÀ†¤9õÓÉO|                                                                                                                                                                                                             ÂÃ«Ö§ e}Òó@z¸ÝáÝÐq~¸;o8êo wÖïl Çùàîü÷7€;ów5 ý—Ïßy¸’þÑNò÷4€±þpgþÞûÀ}ùõÏ¡´CÉþÒß ;¿þáý`ñüú§(_ÿì›¿§ o§¶ùàf5ò{0ûæ¯ÿªä÷. ôþ§h} ÔÉ¯ÿ-êä÷1€ôþ>t½JùÐú4=(•ßÓû@ë£ô¡Vþ/h}NËÿ9€ÖÇèEµüovæç»aÊåßŸú»\€ü[æßñ ZŸ#¤ÿ>ÐúAùw8 V¤¶ÓþEÿlò‡“?ú   PÐ­AÃø—`åó-üøøxúM›-óéûøêä›šÍû¿åÿ2€9÷ôIÿpóû7: ëš¸û?éßætlà{Ü“þ¯hp,Ú8Î   tëùÍØ—NŸîyú°ÉÑØªþèNžïû¬oóŸLà(ÿ·úP1ÿøÝÀx~(˜z §ù bÿçùùõ¯Øÿyv~¨˜t úG÷ŸÈ¯x¨Øÿt ú—4·ÿd~ý»¦6ý³éîÞ‡úwNÿlóúûý¯¬Yù=ÿW×œüžÿ/lNþ‰þ[•U\Îïíµ]ªïí_ÈŸNþxâ                                                                                                                                                                         °7ÿ}Ñú,4ŒoqNó@v}HÏo áù üÑÎä×?€øÙt';                            °oZƒ¦ùà~‡7C—ù-`™ú}àk~X&OøÞß ÉßÏ ŽòÀ2ùûío Kä×?;/8Ío ‹äï¸¿\Mÿh‡ZýàþüúçÐ?Ú¡ãþp¿žóëŸ}óŸèo )ý] VÉ¯ŠÎóëŸ}ó÷à}Šö7€™ºÏï}ó÷"ð=*ä×ÿvò õ‘:Q£¿wÝªFþÓ´>O/Šä×?¼¿Ü¦J~Ÿ»M™ü>z“:ù}ü•òÿ@ësô£Vÿ·´>CWjåçZò‡“?œúëûùóç°[ê¯êç­BËú&0¤×·€!=¿éý- ½¿DÐ?ÛtH 6ùÃéNýtê  y|Ñú4Ío áùõïo ™ôÏ&8ýÃÉ  ëéMëc°”çO³ã[@Áú3&ð5¿Ìv Gõ bÿéœæ7€‚ù§0–_ÿðþP°ÿóüüúÌ?: ý£ûOä7€®énö ô/IÿlsûOæ×¿oúg»÷ò¯ç<þÏvgÿGfI³òë_×œü^þ)lN~ý+»œßÛ?j»TßÛ¿?úéÔ                                                                                                                                                                         `‡þûÔú$´koyNê›À^ßÒë@z~È®o éù <¿„ç×¿*ý£ÍÌ¯QúGÓ;›îÙ¤Ï&~8ñ                       ‡¡/­PÆáÝÐ‡w­ÏQ©~GøÈo ‹æ?t—ß –ÌßÉ ¾æ·€%óëŸ¿õ7€åò:Ìo éý`©üúgçï´¿„÷7€eòëŸ£TX$¿þ1ôÖm~X„þÑÆóëŸ¢ãü}ó×ÿ~úgë:¿§ ³oþ^ºWïùõ¿Oïù½	 ½¿wÝ£ÿü#h} ŽÈ¯xo¿]…üÇh}šž”È4€Ö‡éIü>|«*ùý!€Û”Éÿ±€Ö‡èMüÜBþpê‡“  àn?¿i}ZÖ7‚0£ùM`HÏoCzÏo ÕéŸíR¨MÿpMÿpú§;.­?Ÿ+h}Z’B<¾h}šæ7€ðüJÿlúgÓ?›þáä'?  @ª§O­OÂRž?\QßÊÕ¿<ïù ^þ³8Îo óOà4¿Tìÿ<?¿þó_Óß 
öžŸ_ÿ¾éŸíyî &òëÞß º¦6ýÃéŸÍã¿púg›—_ÿ²æõ÷üOY³ò{ú¿°ù½üWÙåü^þ/îB}oÿAþpêÇS                                                                                                                                                                          Ø—ÿ¾h}Æ74§õM =¾d8—ß ²ë[Àžß ²ë@z~HÏo áù ý£]—ß ÂóëÞß *¹ZÿÚæÝÂõ/êŠ[·ü¹´gS?›úÙÔÏ¦~8ñ                  €ù‡ÃaèÆÃÃCë#T‹ÿjèÂÃ»Öç(—¿|ä7€¥ëw1€?ù`ñü‡®òÀÒù÷?€ïý ¼¿,›ÿÐY~X6ý`Ñþ;€þ+çï¯¿,™_ÿUú@LþñþÓß`Ýüú§¨Ôß Ròë¿ý³õÚß ²óëÞßo Kè7¿þÙ7¯, çü. áý] îÖu~ï¹[ßù½ð^ç?íßú@}éýæïmà÷é>¿ÏÜ¥ÿü>v—þóû è=
ä÷Ið;”Èï/AÜ¬DýWêß¤J~n¤~:õ     æøù®õ9hšß†ôüÇZŸ¦ù- =¿¤÷7€ìü0¤÷7€ªÆC@ˆÉÈúG8“Ø ê;ÛWÿêFò>>>Ž}YÿŠFóY€þµMä@³C²š©üúg8Nû8=€VGdMGiOûŸL„ÂNóŸL„ÊFúDþtò @²§7­AËú&PÌó‹«ê@­øï®Èo åêŸÀI~¨—z#ù bÿ‰è’ÿy~~¨Øt ú—¤6ý³Íí?‘_ÿŠýG Mú‡sýÏ¦8ÿÃÍÊ?ÑóÃ²8ýÓÍÈ?>€ÏÉJfä×¿¶õG°áñhOýpò§S                                                                                                                                                                          €=ùïÖG¡]{ˆ3RßÒã@z}Òó[@x}HÏoéù <¿„ç7€ðüžß Âó@zÈÎ¯x¨aV^ý«š}ÓÖ¿¤knØú×sÝ­Zÿb®¿¨ë_ÉM—tõËpMýlògS?œüáÔ               b=<<´>B=‡CÞµ>G¹ø},à#¿¬‘÷ø“ß V¨¿÷þ_ó[À
ùw> ý×ÎßUX¾ÿ¡£ü°|þ¾úÀÒùõÒX8¿þ9*ô7€eów×ß bú» ¬Ÿ_ÿUúÀ’ùõÑa~XþÑºÌ¯x¿,¥Ïü. Ù7€…ôš_ÿðþ^\D·ù½$<¿·.@ÿl=ç@ëu§ëü>p·¾ó õiúÓyþ£´>LzÏï“àwê>ÿ—´>Hº¯ÿBý›UÈÏÔO§>   ÜïoZƒ¦ù Óg~ˆ¤6ýÃéN}  (îçÏŸ­@3?_µ>-ëÀ,‚òŸ–žåêOÜü- £þùþ˜ÿÛ×ó6€ÊFó?¾ûŽfÇd»þ¯õÿ@ÿÐþïÐ¿²3ùG. -OÊôwMÿ–çdþÇ~hvFÖt\÷8ÿûw´9Û;ÎOõ Ò====µ>ã¿i}šæ·€ðúPÈó‡kò@µúçpÚß ÊåŸÀH~¨—r ú‡ôžŸ_ÿ‚ù¯éo û@ÿšôÏ¦6ý³éNÿlwõßþ¸,mV~ýëÒ?ÜŒüãØøœ¬år~/ÿÖv¡þØ 6<; 8ùÓ©                                                                                                                                                                           ìÄß´>íÚ›@–Ñú^ßÒë[@z}HÏoéù »¾¤ç·€!½¿dç7€ðüžß Âó@úG»5¿”p9°T6/­þEÍk %]QUÿz®kª5×Õ¿”nÐúrÛõ\ÿ"n¾šË_‚;ólòg“?›üÙÔÏ&8õ            ¾{xÓúÞ=ä·€•êï| òÀ:õ÷=€¯ý-`ü‡^òë¿Jþà¨¿¬’¿Ÿþ°FþÝà$¿¬’_ÿ }÷7€ò÷Ôß î£´C÷ý ¦¿À6ùûêo ·Ó?ÚD~ýCt–¢¿¤ôwˆ¾üë¿¬îòÀ¢ôÖa~O-Hÿl=æ÷"px~ïYŠþÙ:Í?6€Ö'êR¯ù½xÝæ÷9€Eô›ß–Ðq~\@Ïù¿/ õQúÔw~
à^çÿ\@ëSt«óúÜIþpêÇ   àÿ{Óú4Œo™¾å·€ðúe¤¿dç×?‡þÙô§6ùÃéŸNýxâ @]?¶>Íü|Óú´¬ÿ} DÛþoš‹­óÿ<Êÿ} îòú€ÇÙýý†PÕÌþ5ùðOÿ“ý›žŠíÝ¹ëN}  öô¦õ1hYß2}Ío áù –çççç«ò@©öo®êo ÕòŸYÀH~ýëåŸÀX¨—b £ùõ/@ÿh'ùõïÿ<¿¿tOÿlwõßþ¸,Íý6ýÃéŸmN~ÏÿV6#¿þ•]Îïõßâ.å?í¿ááØùÃÉŸN}                                                                                                                                                                           `/þûªõah×Þ²ŒÅ·€!½¾éù »¾¤×7€ôüžßÒó@x~Ïo áù ½¿dç7€ðüžß Òû@—ëê_Ø¼´PÕÜ®PÒQõ/èš¦PÎ•Aõ/æêžúWrÃÍÙ 
¹)¦þUÜz[Ö¿†Û/åòp×=¹þÝ»÷Ž\ý¾y—Mþlêg“?›üÙÔ§>         »rh} Ú9¼vìáMëc®¿ç¼×·€Uóïv _òÀzõûèo «åßé ¾ç7€õò÷Ñß ÂûÀJù÷9 ý7ËßIX)ÿ¡ü° ý£zéo «Ð?Úx~ýSôÞß Ròë¿‚þû@J€ìüú‡÷7€¥é­³üú‡÷÷Ð²zËo Ëê.¿þÙ7ÿñ´>S¯:Ìï]@ê1¿·.§ËüÞ¾˜>óû ÈR:Íïƒ`é5¿O‚.£ÛüßÐú$ýê8ÿ—´>G¿ºÎÿ¾€ÖgèZ×õ¹›üéÔ     ¸ÂÿÞµ>íÚÛ@¢ãú&0¤×7€Sù ½¿$Ð?›þÙôÏ&8ýÃÉNýxâ @”Ç­AËú0¤÷7€ìüú‡÷7€DògÓ?œþáä§>  äzzÓú´¬oCz~Ïo áù ½¿Ôñüîšüú—Ëf#ý ^þÉèŸ‘ÿy~~ýæŸÀh¨@ÿlúgÓ?Ûíý7?*­ÿûý¯0ýÃÝöüß¶gdEó{ý¯¼sñõGþtê§S                                                                                                                                                                          €]ùïSë“Ð,½	ä9­oáñ- Ä™ü]ß Òó@v}Òó@x~Ïo áù <¿¤÷7€ìüžß Âó@zÈÎo %\¬k ¥ÍIk eÍëªUs³@Ió£@E×Õ¿œë‚@1×æ4€Z®¯©!·ÄÔ¿ŽÛZ@·Þ”õ¯áö²þÜs×¿÷]ÆõïÝ½÷âúwmGqòwÌƒølêg“?›üÙäÏ¦~8ùÓ‰    @g‡Ã¡õhYß Âëïx ­O‘Ÿxx×úõëï²ÿG~X?ÿð%¿¬žçý ­ÿ÷ü°rþÝ÷7€Uóï¿¿¬™¿ƒþ°ý£:ío ËÐ?Ú¡Ûþ°ý£õ‘¼¿ÜOÿhãùõOÑKXG/ùõÏ¾ùÀ*úÉ¯ÿôÏÖO~Oeßü½°‚®ò» „÷wXZ_ù½diå×aå÷6ÐðüÞ¾¨þòŸ. õqzÖc~Ÿ\N—ù¿ õYºÖeýò/£ÓüŸh}ŠÞõZŸ…ÈN|        €oþw¢õ‰hßrLÕ7€!½¿dç×?¼¿”§6ý³éŸMÿpò§S  Òã«Ö§ i~Ïo ™ôÏ¦6ý³ÉNÿpò  @ž§W­OAËú0¤ç7€ðüÞß ²ó@ý‹{~>ûeýK{~uE~¨—ÿÌ ôOÈ?= ý+Ó?›þÿÏÞÝd§‘tkÍ}vºêÝóŸÇ]’l‚ü‰Ì8qÎÞÍ*ÇZÏK’H¨j*íeþý= ûzÙßû¿ä^ä×¿:ùk“¿8ù«S                                                                                                                                                                         €¸.—Kï#ÐÅåJï³Ð¯½Tó½¾T¯o Åë@õüP=¿Ïo Åó@ñüP<¿Ïo Åó@Bú—¶(¿Ïo Õû@íüP½¿¤ñ4°d÷²®¤öº­$6§¬ä5¯«$5·ªþ9ÍŽj -Hj ù,
j é,ë©2Ks@.‹c@&+ZêŸÈš”Æºúg±2¤ä°>£þl¨¨ÿø¶]Å`t/âúmûk¸þ#kñ.ÿ¸ÚÜÂé?ªf7pêÈí[mò×&mò'mê§> )N§ÞG ›Ó§ÞÇ g}¨žß Šç×ÿ|>÷>B¡üÑúŸ?õ>F™ü§ù-à¨ü±ð•ß Ê¶¿’ÿ5¿Tïo äÜß öÏ
œß ª÷7€:ùõßÙˆý`ßüú—1f(Óß v~€=é_Û ý½ ÔÎï°ýk!¿€ýÜß ªäwØË ùýh'ú×6J~ŸÙÇ0ù ÷‰'¿þÅûûèÊïsà;¨¾_ÙÁPùý&Xsƒå÷« ­Uÿü-Vÿü-             Zùßÿþ×ûôò¿?zŸƒcÜÅþ›ßJ¸o}•ß 
ø–Ú *yÚ êx\Ù ªø©±”ðs`ýxš× Ò{Wÿäîã¾½½}û÷úçuÛöíÓí¿—¿Š?ùo® ú×ë?€~'¢{ÊÐ¿6ùkÓ¿8ù     ¿ÿûÐûtÍo Åó@õþP;¿þé_Ûu¨GÿÚä¯Mÿâô¯Mþâä¯N}                                                                                                                                                                          ¦Ë?½OB¿öPÏ}}¨^ß ªç7€Úõ z~(žß Šç7€êý v~(ž_ÿâý v~(žß ª÷7€Úù ýKû¹²Tð¬±¤÷<°d÷¢¯äö²®þ©½Žk ‰ÍIk y­ío )Ìëj YÍÌj 9ÍŽªJ›úÀè$5€„–5€t–õ4€lô/miMÈeqLÈdyJý3Y‘Ò òXÒ ÒX×Qÿ$Öv4€VWÔ?ƒ -õÞ¶„únëSØ †¶ý
®ÿÈZ\ÀõW›Ë·þƒjvÿ¦ÿÞ½É? 7oµ©_[ü§ÓéÔû1UÈÿ^ßËŸÿo}x${ýëü‘úŸÏç)„Bùãô?ÿ1¹þmþ88GÀT&ÿ)Z~84Äþp\þSÀüP½¿•_ÿJ†éo åÚß ŽÉ¶¿4§i§±ú@cú—9ÿÃþÐ”þµ×ß vÏ¯¡óÀîô¯-v~ýk?ý`gÑóë_¼¿oì*|~ýw>¿ì*~~?ªÞß§ ö3B~ÛÏùõßÍù}x7cä÷‹@»¢þ;ýw1J~¿
¼“Aê¿“cÄÿ ?          ÐÜ¯w½AÏú0UÏo Åó@Aú×vÓß Ê‘¿6ý‹“¿8õ    ˜ÿýï½@GúòöîöýÏ »mû‘ÿn ò—ëw Hÿ¿ùõ¯Iÿâô¯Mþâä                                                                                                                                                                                     ™Ë—ÞG¡c|˜ª×·€êõ- z}¨žß Šç7€âùõ¯ß Šç7€âùõ¯ß ª÷7€Úùõ/Þß 2ú©´Ôðsf(àidýÓ{þ7€ì^6€Ü^õÕ?·—} ³u 1ýk›ÓÖ Òš•öÛ2€,æ…5€¤fvÕ?©¹] §¹U¿÷7€æG5€Œô/mIRÈgcÜ¢ úg³¬§@6s@.—ý`\‹[êŸÉò–. ™¬Hi y¬
i iè_ÚÊŽÄÚŠÂêˆú§°¾¡$°%¡þãÛ”Ð F·5 þcÛÜOÿ‘5¸~ë?°&—ï!pê}€]½£÷?}ê}ŒxZ½z‡îÿ§¾þ{Þ¼Åíÿ/¿ìzï3ÿUý(ýÏ¦ ß¹ì“?Ä >ëÇX@ôû¶Öùcõï?€ìùö¿Êß ÕòGëß{ Õò‡ëßy ÕòŸ¢åï<€ÔùÇèßu ™ë?Ê±÷LIé_Úi”þ°ýK;Óß v3¿þG©¿T¹ü» d¬þP%¿þ‡Ð¿¶Ñú@[aó» Ô~úë„Àùà ú×9¿oí/t~ýw:¿ï.v~ŸÚ[ðüÑ>šNôüÑ>žNôüßÐû<¹„Ïì²‰Ÿÿn½Ï’MüúÁ~<›øõßÉ_žú            4òë]ïCÐ¯ý_½CÏú0UÏo Åó@!ú—ö0¿þeè_›þµé_œüÅÉ_œúåi  PÆÛÛÛ[ï3Ð5¿Ïo Ué_›þµé_›üÅÉ                                                                                                                                                                                    @3—/½BÇø&PÍ·øPÉãüP»¾T¯o Õó@ñüP<¿þµó@ñü•þ¥ÍÍo )ýTÚ jxRYÿüž>É ½ç‰õOîÕ3Ü r{y…7€Ô^çÕ?±7x. ‰Í‰«å§¿$6ïÚî «™eõ¯|ùwÈjnWýsšÝÕ *_þý(§QõOhCß’¦ßþ¬oQRýÓYTÔ ›eAõÏfaPHfsÙÒšúç²¸¦¤Ò¢¿kEJHDÿÚÖ”4€4.­úÀÖe4€$VVÔ?‰µ …Õö7€Ñ¬O¨[Ž5€Sï„´)à8ýOŸz#œÀŸúú³5ßýÿå7€æùè•ß š×?€S°þçwSm®Þ±ûŸbõÿ¨e­ž»ûŸbõÿ—?Ä š]ºÃö?Åí`_ºõ_œ¿û ÚÞ¹EìŠÝ¿ó ß¸Åëÿ=¿þWšß·ë¿°ßìqÛ<ÿ)Vþ¾ˆzÓÞŠþÏÌ®ÏäÎïéÿ°ÇÔË¯ÿµÔù#ö6€Ôùõ©^~ýoä­óéÿ¸ïä¤i§ú@{!óë_¼¿€£è_[Ìü^ Ž3¿@í§¿þ‰š?Ü· “
›?Ü‡ rÒ¿¸°ùÃ}
,§°õ ÷‰ò	œ?ÚÇÀSŠœ?Ü/‚e¹þ·ô>MF‘ë¿“¿8ùË“              Xé×½ÏA¯òÿô>=ë[@õúP=¿Ïo è_Ú³üúç§mò×&qêW': @Uoo½O@?ozŸ‚®ùõ/Þß ŠÒ¿6ýk“¿8ù                                                                                                                                                                                    €.×z†Žñ-`ª^ßêø¡¾TÏoÅë@õüP<¿Ô®o SõþP;¿þµó@F?v6€ž5Ö?½ç‰ ¹—õOíåóÛ ³uõOlÎ³Û Òšwq×?«5ý mþŸÒ@N3óë_¼¿”¾üëŸÓìü¾	”Ò‚ªúW¾ü» d¤mKú@íüú§³­¿ŒnaQý“ÙØß §i‹{@*ÛûÀÈô¯myMHdEKýiÒß †µ&¥¤±*äƒþ0&ýk[×Ñ ’XYñ2Ú Nïz" µÇÀG}øîR¢ÿ¿üpg}Ãp•_ÿ[ë^†Àu~¸±%à(ýoóëmSÀ1p—_ÿ+óÐÿªÿùÃ”¸´DêÿY?Î6×‹ßÿ³Œ4ˆ| §Hý¯ò‡@“vú¯ë` mÒEî8€´zêê¿ªï4¼rÀ)vÿÎhyáÖ¿vÿ›G›çÕ¿ë šß·Ñ
Õ¿ç ZçÿzÄ)ý¾kŸ?ZÿŽØç–-xÿžç	ÜÊhˆþýP1¿þ_’ç×?Ø@òüá.ÿÑ. ÉóëÿBòü±~ö¶ÿ”Õi”þ½;À§ÀÀ”—þµÌí`jãô7€=DÌïpœùõ?LÈüá>XÈüá>–WÌüñ>šVÈú ­õ¿ ÷q8šþÕÉ_ü¨                À¿~ýê}úøõ¥÷Q8<ùÞ'£g}¨ž_ÿÚù x~(žß û±´þ<}š@v/Ÿãúg6ã	®bs®ïúç5ëõ]ÿJùßÞÞÞîÿØÁÇ¢_ÿ÷üß@Rßúæ7€"~xúë_…þÅ=¸û“¿0ý«S                                                                                                                                                                                     hàò¥÷QèßÊùVßª×·€"~¬oSõüP»¾TÏo Åó@ñüP<¿Ïo 	ý\Ù 
xžXÿì^6€Ü^æÕ?³u ±9q ­yiõÏj^Y€¤æ†Õ?§ÙOlÈhþu]ÿŒ¼®@þüú×² ¿þÅû@éË¿þùlêo ÃÓ¿´eù ýkÛÚß Æ¶¸§þ©è_Úes(Þß ¶"¦þ‰´èo ÃZÓRÿ<V¥t §w½L™þñ-àÞº’ãà+¿þ×Öu¼6€«úpíÒ¬ÿe˜üúY[q¨þwùõÿ²6âH€ûüúÿ³¾á8ø–_ÿú_ÆÈ¯ÿ?
Òÿ¨ÿù|>O‘l	8È Nÿó_S›ú1€€ùã`[>ý×ö2€ùÀ)LÿëüQ°µÞ˜ý§ ýC`s¼ð€SØþ°½þ«û÷@“vãõ’¿ÿ Ú¤‹<€ÈOÿîý[]ºõ_Ù¿ó Ú½tÕ¿ÓQFèßê¡¦ =ýã íëö0ý»&|ÿv7¾Ï4¿mÓèþqŠ!TþÇýû`—[6ýíßöQ§Båö°×»þc\ "¾_k,Vþ¸ý§¤ô"þp¿ö³ÿ”Öý{ þp¿õ±ÿ”X°ü±^ òç÷;ÿáúO¹Ëëg€ùóüO¾ê_A´üú,Vý‡è}"¥qúW'qú—'yâ              +ýþÝûtôû]ïCÐþµÉ     %üúÕûôôë—dö*ï{Èêu]ýûˆ«íü7yßÞÞÞ¾ÿ¡£Æ!ç¿€þuúæ¿¿”þµé_Üý{‰#ÝßÜé_œü                                                                                                                                                                                      À—k½CÇø&PÌƒú0UÏo%ü\ßª×7€êù x~¨]ß ªç7€âù x~HçYdHïU`ýs{Ù× 2›Q× ›ÓVÿ´æ¥5€¤f†Õ?©¹a ¥ùYõÏhuÈ`ITýóÙÐß XÔTÿl–=¥] ²Ñ¿´ËÂ¢úç²±¿NÿÚ–ö\ºB[žSÿLô¯m{ØeEMýóhÑœœ>õ>F •úÿ©o [[9€¯ú°éé?fÿ›üÐ¶ÿe°úúo+9Zÿoù`SÈÁ. òëÿamÇ¡ú?Ê¯ÿ¦Œ#] æ×¿qÿ¸ÐÿGë#Ž3€SŒþçwS0ëÓ?RþpØp”Äèÿ/¨\Úö8€pù#- uÿ€ˆØ?Ì 6õ¢Œü÷ýƒ`[¿!. ú?±±Þ ’ÿ[ÿÐ¿[ÿØ/þ ‚äOÚ?ü-`”üú@ƒvÁ¹÷4I7`ÿ£¿GÙ‰þû?s Lþ‡ý; Ù•[ÿû·|á©§£„@Ëþw6E¡ÿa/Û!'¸þÍïÚô_Þ¿ã v¸i¡¿³ïßô1§ åÞ¿íƒNA„ïßo ûÜ¯ïßó,±úïu»ºßÃ„íßþ‘§(ôÿÁŽoÖÂöï}˜˜ý§Ì"åu¨‘ÿj S ú/PþHŸ«’?–8ýƒ½Q«"Xÿ^y]QòÇz›^H”þô¢qòW'?               «ýþÝûôòû¯Þ¡g}˜ªç7€êý v~ýkÑ¿6ýk“¿8ý‹Sí    ³····Þg g}˜ª÷7€Úùõ¯Iÿâô¯Mþâä                                                                                                                                                                                      `“ËåÒûôq¹Ñû4tŒoSõú&0U¯o %<ÉoÅë@õüP¼¾TÏo Åó@ñüP<¿dó,²þé½(l ¹½Îk ™Íˆ«^³Ú@ZóÊ@Rs»êŸÒì¬. )Í¯ªBK¢@>ú×¶(©d³¬¨þÙlëo ƒ[ÚSÿ\ô¯mkÚòœúg²½¿Œ¬VÿÓ‡Þ§ä²¢æ°ý?ë[ÀÆ'ó¨€¯üP¯ÿu}ý7\þÇ|¸Ío -û_ÆËo ¥úÏ¯ÿ†ßêm òÀ†ßé¬ÿÃüúoøž¡ð8¿þÅû8€ó§)Kþ¡pêÞÿOþp(ÑÿÔ½ÿWþ`hÙ?ì ‚õ4€-Géß?ÿ]ÿsÒþAÐ¿ÿ]þ@Ø”pŒœö?'íq ýóÇí¿­ßàý§Žýƒ`c¿ ÿ£þç¤ýÃ @þ¸€­õ@ÔþpÉß?Dþ´ýã Dþ‡ý A»1û}Š˜ý[´‹~‘?è š”ÓÔþÊÅ@Œü™ûÇþA`Œüûw@»'®þ/Åëßòºw Aò'ï÷ÿ$¼þmóß=ÞF”þáÐ8ÿíNaDÉ¿ËGœÂˆ’?Zÿöùc Jþh?Ú!ÿõ£NaDÉì°ÓýzèþO·ûÇâˆ’?nÿx
$Fý`ŸÛï^-\ÿ8Bößå¡›?h
ûïóØ;<j5úOòÿ$\ÿn(*Hþ€ïÓªˆÔ¿ßß_Y€üúwÕ»¾wiåÉ               0”ßõ>ã›@Awõ z~(žß Šç7€*ô¯MÿÚô¯MþÚä/Nþê´  (åí]ïCÐ5¿Ïo Eé_›þµé_›þÅÉ_œü                                                                                                                                                                                       ÀZ—ËåÒûôkÿ¥÷ièß¦êõM`ª^ß Jx’ßŠ×·€©z~¨]ß ªç7€âù x~(žß Šç7€\ž'6€ä^æÕ?µq ¯Yi «™aõOjnWHivU¯ )ÍªBKš@>KŠêŸÎ²¢þ¥-íi ¹è_Úâœú§²<çÐ8N§Þg¥Tÿ÷ú°1æ¸ýÿæ7€¦ý/£Õ7€Ö´³ÿM~Øð\²ÿ]~ý7\ËìŸß ö¿˜ß Ö¨Wÿ$Öåo ò8€ó‡)ž"ýO}ûæ¸€•—ÿÑî O}ûÿËníú_Fì:<°¬Î?Ôà©¨è|ÿsŽþãàÔ·ÿ}þ@Ø’_ÿÕýÏ)ú2€S¼þç”ýƒ sþ¡úoûò)¤Þý qÿèž¿PÿˆèžÿaÿØÚo„tÏ_ª¼tÏŸ¸ÿèž?î .úÈŸ¸üÈ?Nÿl òG@›rö?ü™û@„ü¹ûÇþ6`„ü1Ðî•[ÿû·Ëz !ògï¿è? w°ùþ¨iþÈÿ§ðùGèßòñ¦8Bä÷)°Æùïq
$Dþh€öùos
$Dþh€ò_?èI„úÁû·~ÔF—Jàþí¶Ù#&¨ÿ^wëúØnù˜i„É¿ã{5ýŸˆØŸ‡ný¨Y„ë¿×c·ÜBäß¿û‡Í£þ}ïÓõoçÛtùƒs—^›þÅÉ_›þµÉ_›üµé              0¦ß×z†~íM ˜Gõ x}¨žß Šç×¿x¨_ÿìô¯íE¨_ÿÜä¯Méâ„`z{×ûæ÷÷úPÈíÍßßþP²ÿ¿üú—¤mú×¦qú'uê                                                                                                                                                                                       °Âår¹ô>ýÚÿÓû0tŒoÅ<¨oSõüPÂÏõ-`ªžßŠ×7€êù v}¨žß Šç7€âù x~(žß 2yQØ ’{Y× 2›“Vÿ´æ•5€¬fv5€œfWÕ?¥ùQ ¡I½$´¤¨þé,ª6ûÀØæÔ?™¥9ÇÀét:õ>C(—Jýßë[Àå5Çíÿ7¿ly6Ûÿ+¿lˆ9êÀu~ýÿXÓrÌþ7ù`ÃsyÈþwù aÿË€ùõ_ÿãœñúÏÜ ÎŸ¦€ô?,È¬ì¿ø{†ó4€¯üñ°6ÿp€(ýƒ JÿÇùÀmþ`XÝ¬€S þ¡ ÿñýÏò5€XýÏ)úßñ4`þ# wÑú‡À–üãàI~ýk÷Ÿúô?§è?Ê ôÿÉ¶üú>€ýÇ@çü…úÇ@çüûŸSôb óG¾ lî?Â :×¯Õ?à zç¨ƒ‡ˆ7€Îõ# E»ðèž?lÿ6é¢ {þäý£ßvÏög ­Â5€'ˆÙ¿Ý…{¤þ]Ž±Ë×íÐè^?æ é}[äþ~ë?^ÿ¦ùc þxýçþÿ
ï\?àÇ€[ç¿}Ä'Ì%XÿæOý_ˆÝ¿õc¶x¼d"õß#ÿÍ£¶yÀ\âäßëýºþOEí¿Çã¶{ÌDbößå[>hAòïw«¦ÿ¹ó=tã‡¥¥=ß©éßžoÔôo×ÛtýÃÛ÷mšþÑí|—®p{ß¤Ë›7iµÉ_›þµÉ_›þÅé_›üµé_›üÅé             ©üþÝûôñûKï£Ð£úµÞÇ¢c|˜ªç7€âù x~¨Þß jç×?±Ç¥ ˆ'‘ €§…õÏîE_ÈíAÝ··G@ÿŒ¾Õ}ûãûétBŽìÿöcÿ^'¤KÿoèuBöôÓåÿæ@þÚýIKÿÚô/îþî^þbîoîä¯N}                                                                                                                                                                                         fº\é}zÖ7©z}˜ª×·€"~ÎoÅë@ñú0UÏo Åó@íúP=¿Ïo Åó@õþP;¿$ò*°äö:®$6§¬þiÍk YÍÌj 9ÍŽj -HªBKŠ@:‹‚êŸÎ²žÌ¥RÿÓ»Þ‡eqÎûÔ·€‹kŽÛÿ_~ØPsØ€«üð×Š˜ú'R§ÿM~XßrÌþwùÀùÓÒª–ú/®umú_ÌÐ Î¡ð½¤þ»å8€uý|xÿœc@ÿcûŸSä_ú#£ ù{ô?çì²ÿéøü±°ºÿ`€òë¯é¬ÎÿíK§!ûw¹ œ<ýÇêÿc~ý×_Çõ_Û?Ì ¶ä×¿xÿÐ±èlëûåS`óë€þ?Ø”œÿ?@Çü±°±ÿ èš?uÿ‘pØßž¹ÿè¨þÛc
©gýÐ?hÑ€ôÍøÐ$üt­_ ÿHèñ×Ñ?Äí¤gý‡˜2=ýøY@ÏúcôóP…ìß²™þÃõo›Ì žŠ×¿u0ýŸŠÖ¿ùóÕà©ìù] ^Õ—'«þOêÙ»¿<&ÿ^¯Õú¿1ËTú¿Ô¿þž·êú@ÿÚv¼Q3€ìxŸ¦|»¾OÓ?¼}ß¦éþµíü.]ÿàö¾G“?¶ÝïÑåÍ{´Úä¯MÿÚä¯MÿÚô/NþÚô¯Mÿâä         Èî¿ÿzŸ€~þ{×ût£mú    @	¿{€®~ÿ¶€Ê~¿ë}ºÑ¿”·÷ý ­›ºŸõ ËÑØßïÇý¯ b·W÷¯ü× o³÷ÿý¼?ié_Ûmÿ‡¯ÿ$¦qwïîä¯æîÝü                                                                                                                                                                                          Ìqy×ûôkÿOïÓÐ³¾	LÕë›@?Õ·€©z~(^ß ªç7€Úõ z~(žß Šç7€âù x~¨Þß 2yÞØ ’{×2›‘Ö òšÖ ÒšWÕ ’šÛTÿ”æ75€Œ5€|õÔ?›K©þ§ÞˆfiÎ‘ûŸ>õ>F²þ—Áò;€óyŠlyÍaûÿËà ÎŸ¦¨VÄµÿUþÃð'ÜTí:8ÔÔé:¾ÿuþ˜¸¬‰™¢ÿéðþ°ê¹<dÿSÿþP¸ÿéøþç—ÿ…ß0Bÿýú_FÌÀ ÎÑ ÿÁýƒ@ÿ]ØÝ×MCö?uèNðô×¿zÿû¯œ†Ìßå Ò ôßÙpýW~å4fÿ./ çýGûƒvê?¥íûµStú?R½ÿqèlÈóÅSxú7ïõÕSx½òÿà¦þÿ¾z@¯ü™û>À4„>ñßÔJ¬CùOúÇÐ£ýXè}˜¬âæ×ÿƒôoó`MŽ•LÜþ-ßÄ»ŒŒÜ¿Ý#À7qûÿÉÖìô(nÿfÜH>£qÙó·}+‘Pöþ. ¯ÄÊß<“þ/…ªo eíÓIÿAìÕIÿ!ìö<uÂ~™ô¯ýF]ÿìy•Ö?¾]_¥õOÿÒv¾I×?8ýkÛûMºþ±íþMÿÐö.dÞ¢×¦mú×&mú§mò×¦qò×&?        @ÿ}è}
:Æ7¢®ó@ñüP=¿þÅû@%ú×¦qò'qâ   @roïz‚žõ- ,ýKû—ß JÒ¿6ýkÓ¿8ý‹“¿8ù                                                                                                                                                                                           xär¹\zŸ~íoô>Çùß
ù©¾o SõüP»¾TÏo Åó@ñüú×Îo =	m ù=–@v¯
@j¯ó@f3âzÈkVÙç·lfUÈivRHi~Pýg;˜°¨§,É?ÂæÔQþøXZSÿeýƒàR¦ÿéÃñýC`yÌQûæ?f 7ù#àR¦ÿßü‡à<È .eúå?b ç1p©Ùÿt|ÿsšü+î¢å×¿xÿÓñý#@ÿÝŒÐÿR·¿€þ»²ÿš/›Æ ÿ9eÿË˜ý] ô/~¸”î¿÷ ô¯Ý?þ€þ»¯ÿª/œÆp|ÿð(Õÿø@ýc9¼øï¯íó…Ó0ï?è?DÿFý¿¾rË±ù£l}ÿ¿_:èÀüÁ°¡¿ÿ8ø<‘óú“¼±è_\äþƒ¾“Ë(ý{Ÿ%­Àý¯Ðû$‰ÅÍÿ5€ÞçÈ-lþ–oäìè‰¨õÛq!©Í+Imî$kÓ¿6o%kÓ¿6ýkó­äQìÔGÿ!ì–Hÿì˜Hÿøöl¤|»62€èö}Ö?ºïÑôNÿÚö~&ñïÑéÙþß¢Ñ?²#¾E'\¾E[›üµé_›þµÉ_œþµé_›üÅé_œü        PÊÿý×ûtòß•Þg¡c|¨æ{}˜ªç·€êù- z~(žß Šç×¿xHMÿÚô¯Mÿâôçn7ÿ¬óÁ  €¼}è}
ºæ·€êùõ/Þß *Ò¿6ýkÓ¿6ù‹Ó¿8ùË                                                                                                                                                                                              ¸v¹\z~.zŸ‚½ýTù³¿äöseýóûÓøafýKç7€üô/íyþ?ÿþèCq˜ù?þÄ¡âP/ó“šü?L#‘¿uþ± ûü#`M~“yÕœ¬Ì¯ÿÓü`9ýgôO< ýçôÏ; ýgõO; ù§êý{aˆþy0äô®Kÿ´.ÿÐ?pþð ¿Äé¿û ôß *ÒÿgÞÆÀ@ýWêg´÷þGöf _Ÿù¼dÿ°ÈM€mýü¬Ø¡ýùÀUþKöŠžz_ ¦4ý×¾hôåðþ»®ÿ%{ÿcßLyû¯~ÓPê0Â§ jõï}˜Â)ÖÿfûÿeúÇsdÿi¬þ³cœÿk ‡üeÁóWìÜ§ÀÞ¥ì?ä·ÿ:‰ÝÛÀ®'Ë"tþMß Úó\™Î¿¶?‹„Í¿þ'€ä qò'qòÓˆ•æBRš‰ÚÜIÖ¦mú×æ;Iµé_›þµùQÂ ö¬£x»öÑ?º}ûèÝÎôNÿÒv¿@ëÚþ/ÐúG¦mÜ Ë˜7hµé_šoÐ×&qú×¦mò×¦mú'qò        Ôðß•Þg¡c|¨æA}¨^ß¦êõ z~¨ž_ÿÚù x~HKÿÒfæ7€¤ô¯MÿÚô¯MÿÚž%Ö?¿çõÏîU^ý“»¯ûöáî_ëŸÖ]ÝÏüWÐ?·òÿ€üÉé_ÛuÝ«üú1«¿ã±3ýk»éûCÿ~§cwÏßÿ½ÿëN£_ÿ®'âX7Ïpõ                                                                               àÿÙ»·ì´Ñ-
£îR¥‡×¼›þ÷ã_HÝ÷/­9Ÿj¤l@|áØ˜¼                                                                                                                 À°Ë¥úPæò­úvPšßÒó'àú¡úF4Ûÿ‘ß †òŸ} ßùõÿ¥¶Kâ ªoEËýÏ= õ³ûó²¿$Ñ?[Oïo 9ô§6'€VýïÃæ×¢Óýk°ù•22ÿöph»É ¶¾N^Ò?Ûÿ*°õUÒP?lRå	`ëk¤íÀæ×Èkûõ{àQì×ÿq ;\#¯én·þ'þ= C¿äs·þ§ýEÀ£¿â{¯ü7x;¿ñ1Á!òO‹©ÿ¹LÍ©ÿ¹Lí)ÿ)ƒsÚ 6½I4ÝŸ3Ñ?›þáôÏ¦8ùÓ­VßŒ¢9DóD’Mÿhþ"‘MÿlúgóäpúgÓ?›þÛºŽþmÛ:@Ó6¯£Ó¶¯£Ë¶xÊþýýÃ¿?§³|6›þÙôÏ&6ý³éŸMÿpògÓ?›üáô        Èñß‡êA]ûÕ7†Êú^ßÒë[À[z~HÏoéù <¿„ç×?¼¿dç×?¼¿œ•þÙRëâIdý<M¬ÿéuÿýðøõ?«‡¾Ÿõo ÿÉäÿ€þgw›÷&ÿÃ	 ðRß¿ðöQÓÿî	 ò²)ý³=?ÿ{ú?½›ÀþúO ·ÿSÿ3»K,ž‡Æ7ßþõÛ€	†äòG€ü!†ûWÜö'5                                                                                                                                                                                                ÌrùV};(ÍŸ3€ëõZ}ZÌ2€ë—ê›ÑbÿKN~èÉŸ0€ý Ûÿ’Ôß ºýO? ýŸæêo —¸èÿ¢Ò ÞÒö÷7ÀýO? ~éNÿlN Ùôg Ùô§6ýÃ@6ýÃéNÿlú‡Ó?œüáô§8ùÓÉN~ àüžG6ýá\<¦“ùåÍlúgÓ?›þÙä–s‰æ‰$›þÑ¼X6ý³yÀlúgÓ?œþÙœ š¶yý[¶}ý[¶Cý¶CýÛµËÉYÿfíÖÛk é/Îôo•/Î³éŸMÿlúgÓ?›üáôÏ¦6ùÃÉ         þûï¿ê›@•ÿ~TßJó[@x}HÏo áù <¿„ç×?¼¿dç×?„þÑ´Ï&|8á/«o eþ~«¾”æ7€ðüÞß ²óëGÿlúgÓ?œüáä':õ ˆ× fÓ?›þáäÏ¦8ùÃÉNþpò§“                                                                                                                                                                                          6t¹\.Õ·Êúð–žßÒóçàú¡úF4Øÿ”ßzú_’ò[@'Ä núÇ ½ú .¸ë>€Kà ôÿGÿìôô7€ úë×ßW OûÀ÷ Âûß.à-Yî ~ð-¸?ôÏ¦8È¦8ýÃéŸMÿpú‡Ó?œþáä§8ùÓÉŸN~          —þPéâß,œþÙ¼`6ý³éŸÍ{ÀfÓ¿]{”Ñ¿]»”Ñ¿Y»¤Ñ¿U;šåo”§ælúgÓ?›þÙôÏ¦8ù³éN~        ˆöçÏŸ?Õ·ÊúŸªoµý-à´žµ½éo§ô<í]8nÚÿ>tÿ¿þgÔIûYp e·“û÷ ìv²sþÿž|Qý?ªèF²[ÿÿzûûàY?üïûsNgvù³tŸÙÕÏâ™ x{ûû¥úfPYß Òó@x~È£6ý£Ýç×?ŽþÙôÏ¦8ùÃÉŸN} €4^œË¯€D»É¯xÈ£6ù³éNÿpòg“?ü                                                                                                                                                                                        °—Ë—ê›Ai~HÏo áù ½Î ®×kõMh±È ®ßÞÒ]²ûÇà9€ßüñ¸Dà¶ö ôÏ@O¢ö .™xèŸ;€ÐþN ?ôÏ€€þ‰ýýà[jß
ï·€·XÁýýè-} ßxK–ÝýÃéNÿpú‡Ó?œüáô§:ùÓ©               @…ì7 €ÆxbÎþO3ÄÓ?›þÙôÏ¦?        @¦??ªo¥ùM Ò]8©áºý-à|žÆíô·€“y‘Ö NíeÙžþp¯ÃêbƒaÿþÈÿß¿èŸØÿÉGÉc»êNsûï|3ÙÈè®òŸÒøÇµúg4å¼.ÿ	M:¯«>ž×Ãåÿû¡ìV±›¾üŸñ- Ä“üè6¿„ç7€4úgÓ?›þÙôÏ&8ýÃÉNþtê   À™Ý¾ qþÓ?šþáä                                                                                                                                                                                       ØÓåR}¨sùR}3¨¬ooéù ½¿dç7€4úg{ìo Ùùspýð.·ÿgþø\Rð“?|úgà’:€ÛþÞ?x ©ýà‹'€ìÄö7€/úëÙß ÂŸ |	ø)·¿o„÷÷]Àm÷ß8Œþ}xkÆöeôoøE »”IÏßnÿø2;i9¿þ;h¸õÑjÿêÛ£½üìKþxê                              À)ýùR}3¨¬o¡nû[@z8£gmûÀÙ¼hk çögj8‘×e»ýà4Æ„5€ÓÕUÿÓ×Uÿ“ÙUÿ“ÛUþSý°Öÿ”ÆŸÖå?£	OëòŸ‘þÙ&<­ËŸÔÿï·îÇVÜL¶Òßÿ§þýä?¡WùïNœO·ÿ}~8¹ýÏîÅÃ_ÿÓ»ûÂNÿlú‡Ó?›þáä'8ùÓ©                                                                                                                                                                                             °ÀåSõ­ 4¿¤ç·€ôüž_ÿðþß ²èŸ­Ûß Âû@ý³E÷¿~zKv	ÀWþìèŸ= ýÃ<€Ûþ±Ð?{ Áý >èŸ=€àþðAÿìþÉ?4€ìþ¾üÐvÿ»èßô‹À¶£Ã¯Ý%Œþ÷xkÆnaÂó·ú[ ñË5›_ÿ4VßÃ?œüÙÔ§>                  œ”÷šËæÍ³éŸMÿpò@+<+GóEy6+Ë&8ý      €OþüùS}(Íoéù-à-½¿„÷7€zUö¶¿œÍˆ²p^cÂêZ£ÂêV#ÃÀIéŸmFÿoý¸Öÿ”ôÏ6þy]þ3Ò?Ü@ÿ¿ßºYpÙ¹ÿOýûÈÒÿ6ÿÃ Šn%›y•ÿö)€zìÿß ÎNÿpú‡{öô¯‚¿üéHþpú‡“?œúˆ                                                                                                                                                                                            °Øår¹Tß*ë[À[z~HÏo áù ½¿dç×?¼¿DÑ?[·¿dç×?¼¿Ñ?›@6ý³é.¼ÿõÓ[®ìÀWþäèo ú@ˆío á?¼íŸ:€äþN é¯Ó?üE ð8€·,ú7ý[ ;dÑÿf oMÙ«K|ÿŸ¼5Åã2šór6ù£ÉŸMþlò‡S                 €7ŠæÍÆ²y³ÁhÞj6›þÙü ÙôÏ&›v+¢‹öK"‹DÉ¦6ý³yVÎ¦6ý³éN~             8¦?Õ7€Rúóàï§ê[Ae}H¯o ‰ôv—ß âèŸMÿlú‡“?œüáäO§>                                                                                                                                                                                            ¬är©¾”¹|«¾”æ7€ðüžß Òû@v~£´N~ˆ¢¶žþDÿl}ý ‡þÙô§6'€púgÓ?œþÙôßÿúá-WxÿÏüÉÐß ô7 ýcç¿éo ‰ý >Åæ÷à·Ðúô'?4Çi9š§ålúG“?›üáä        €h^J˜ÍK‰³y-yvUýÃCHþóñ¾ÙäÏ¦8ù ˜Éß%¢yÐlÞ8šwÏ¦4ÿ
D¶›þHÿlú7j§ú·i¯ ò·i¯$ú7i·$ú7i·&ò7i¿(ò·hÇ*ê7ÈY9›þÙôÏ¦8ý³éNþpò   ð‚ï!G»}m¿¤÷7‚8=0‚ ý- …„3€ppZã2êNc;êJã;ê>“:ê6Ó2ê63ê.“3Ê*“3Ê*Ó;Ê&‹ûo|ûØØôòŸÉôòŸËäê‡S?Äß¿ûÿ‡ø	þö'‚þ                                                                                                                                                                                             0ßåKõÍ 4¿„ç7€ðüžß Òû@v~ýÃû@ý³uû@v~ýƒèŸ­¯¿Ñ?›þÙôg Ùô§6ýÃéNÿpú‡Ó?œüáâû_¯×·dò‡àwo©ùÓð¹€··àþéˆ¥8ýÓÉ Ð_—eÓ?šüáä        >x-Q0¿ãí'¿œÌ¸¦ÿòÀ™Œmªÿ)ŽzÛß ÎbtÔ»üúŸÄø¨úŸÑ„ªúŸþÑîóëŸfJ<ŸI_ÔøHÛ8–i_Ô¿ú@§‡s÷ÿùø¶öek~M7uKÔ[³˜þÇ³b¯ûüpëÅÒÿVKõØß ¢tòëßŽzèß¬]‚èßª]Štóëßˆ]’èßª}’èßª}šÈßª]¢xø7k—*ò·j—,þÍÚ#‹üíÚ¡‹ü-Û¼ŒüMÛ8MO}ù³û¯},±mõ›·eùÛ·gÿU/œulØHÿ˜Ûèõ‡Ë³*ùýaz¦Ç²ýŸ¤ÿQLÌÔÍß÷™£6B¦tªÿðÉãÎ´bl§çùÇmƒé´ ¾4ïU¦eõõoÞÓJKëÀŒzÿŽß1€ƒ À³„úŸÝ«‚pj¯ûÀyÊ§ÿI­g §4>žþç3©þ'3µþg2£ü§1ªÝûûûÈÏ’ÿ`ÆÄ{ÿ0î³ä?–1õ>óOÀþÃdãóß@þ´‡ÿÔÀþCCý÷?¦›’Rÿý…9f÷>€ÝƒyFœÑï£`¶-úï},ðº`oþQ_:r ¯öåŸócš4"b7ÿˆóG1+£ø'²¸ÿæ·Mm©þÙLŒ©~8õ                                                                                                                                                                                       `]—ê@¡Ë§ê[Ae}xKïo Ùù <¿„ç7€4úg{ìo Ùùõïo IôÖ“_ÿðþCÿlú‡Ó?›þÙ<„Ó?›þáô'8ýÃéNÿpò§“?ü @œëõZ}¨sýP}#(£6ýÃÉ  ðey4/Ë&?        ÿx5Qø¯x}©¾)”æ7€ó™ó®¾œÃ„žý-àø&ôìæ7€£›Ò³¯¿Ú”ž½ùàÐ¦ôèÿý9Æp@SÏOò;!Ô”~£û[ÀQ\7êoÇ0©Ý´þÐ¾Iå¦æ·€Ö]·îo -›ØmNhË‚l³òëß’%Ýæå×¿ËºÍìo XØmn~ýÛ°¬Ûìúú7aY¹õõoÁµPõ±Sš_ÿìüúgç×¿šüÙ¦·ÒÿLf„õ¡úÃŒL£>Tþc˜QiÜë3"û`ùaz$ýÏdÝþSÎÿû'ý¦GÒÿTÖíÿó	òÅÔJ£ºÊÛ¤ŠC¥Ï´LòŸÍ¤N+å×¿!:ÉBãK­•_ÿ¦Œ-µZ~ýÛ2®ÔzùõoÌˆT+Ö×¿5¯[­šß Zó¼ÕÊñõoÏú‰õ?ý³énvCýOaAAýO`I@ýoN¿÷÷÷9Ÿ­ƒ¦ç{ÿ2ýÓõoÐä|ßù jþé(>Vº–äŸ:€âCeQþk7ÿÄT,óO@õ±²$ÿ@ÿÏèŸÑ¿'ÿ„T,ó÷7€³ç|ø;ÖŠý½ñÇùó/îo MÑ?ÛªýàpôÏ¦¶©ùõ?—ýû×/û?ùþŸþÇ³{ÿÊƒ¥krÿ¡ŸÿÉÒ¿;€ñ—Uv˜™Þ¿ÿ@³ÞP–zÓûß`ô%•/MïßyøˆÚÿ¸iFÿŸŒ½˜ˆifôŸp!û‹,€îÇ¶°¿úÇ·` êŸÂÜÈ³ þ©¾ÇËÀ‡Ëj/êÊzOûªàY`é                                                                                                                                                                                ZsùT}+(Íoéù ½¿dç×?;¿¤÷7€ìüú‡÷7€(úGëæ7€$úgÓ?›þÑúò@ý³éNÿlúgÓ?›þáô§6ýÃéŸNþpú§“?ú   Ä¸^¯Õ7:WýÓó@.ýÃÉ  PËßÊ²é     Œäå~É¾^ík ÑõõÏ®o áõõÏ®o áõ ¼¾ÓŒ„ù-àˆ¦GÎoÇ3=á‹þ6p(“ûÈo25ß¸þpóÌoG1±ÞøþpÓâMÉo­ºIsÝ´¿4è®Í´r“ó[@k…›Óß Z²¨Û¬üÐŽeÝfæ×¿ÃÍío mXØmv~ý›°,Üüúú·`Yº%õõoÀµRõÁÇ+­¯v}ýkU××¿Vu}ýKUÇ×¿Vu|ýkUÇ×¿Vu|ùkU××¿Vu}ý‹ÉŸMÿlú‡“?›þáäÏ¦8ù³éNÿlú‡Ó?œþÙô§8ý³én~CýÏ`Y@ýn^¾÷/ÞüéøfÔû®?wÕGÌ­Eùç ú€¹³,ÿôT/Ëú?äŸ:€êÃåÁÔGo§ÿû»7€Î?a ÕGË&ýÇ>T,«äy¨>V–åïùâoÒ	 ú`é˜–¸ÿ¨T,[=üÇ úhy4-ÿÓþ#P}´,É¿¼¿»ÿÓüpöü+ô7€÷÷—Às÷•ÊO‚ªõþú¿¥÷÷ƒ Ñ?›þÙôÏVØ¿úÐ™þÍÿßÿ{™ÕGÎ§õûO¸0×ÿÕÏ<üƒû¿Äâ£f‹Œ¾¼âCæÖÔþÃ¯ÿ{q¥‡ËÒþýiu‡ÊJè,`üE•&kànƒÔý£¢Cd¥Ü¼mßw)?ÞýÈX} ‡?Rþ³- òùG©¾Œy¨»Ë®9(6\Àè…pú§Ó?üñôO'?¿åO§~:õÓIî                                                                                                                                                                           pR—ËåR}¨¬ooéù- =¿Ò?Ú]~Ïo aôÏÖéo ÙùõO¢¶žþDÿh}ùõïo 1ôÏ¦6ý³éŸMÿlýý †üÙôÏ¦8ýÃéNþpú§“?üñÔ   ÇµúPèú¡úFPFÿhŸùõ¥6ýÃÉ Ð_•Eóey6ý³é  ¬Àß,’}ýÀß²óë]ß ÒóëŸß Že…d÷ùõ?’š=ä×ÿH–G{Ìo G²8Z7¿þ²´ZO~8…Õzó[Àa,l6”ßŽbQ²'ù-à–${žßŽ`A¹—ù-à@¦§Óß ŽcbºQùà@¦µÙßcRºÑù M=e¦¤›Ðß ÚÓ[fB¹)ù- 9]Þßßßoÿøe¸‰ù -Y>ò`t¸Éý- !U¾ú¿÷g}qp8×¥ýgå×¿=U~ûÀ¼üÐ„ëpÿÀë¿%êýUž>þÂÍÎ¯½¡*Ïþ÷åæç×¿Üì¸/?À `Ûºú·íe™­óë_ióºú7­:¾þ¥®¨¾’U·ÿP}»¶ úNvm@õ}ìÚ€êû ÙµÕ÷A²kªïƒhÕñõ¯U_þZÕõõ¯U]_ÿbÕùõ¯%8ý³éNÿlú‡Ó?›þáô§¶…ýô?ºÙõ~~EXÿC[VÉªœOKóÏ@õóiqþ¹¨>p¾,ÎÿìäoÞòüsNÕGÍªý§ ú¹±Jþ	¨>^î­“ô ª—ú@õÑòh­ü£P}°,Êÿ¼ÿë¿V,+æ=€êƒeYþWý_=T-Ëú¿Ìÿb ÕGËÖùŸàñÊ‹š-û?@çº«›íò|ßè¾oŒMÊ?ºÿð)àñª©ýÇçþ§®¹ôàÙêáÿ»¡C¶ç|À‰þ+x2*
múð¿›€þ-Úááÿ| Õw@¶þ£ÿ!1ö5%ÿ²þþ)Qv3¡þÂüú7iLøo[ô/<r>Œ¿8¿þMz•ÿ«Üòúýß®>zžç_^ý_þg–Z…ý«ÒþÕGÎŽý»×T}àì9€ÎU6{àñzª™ÝûËú|^Úˆ‡õ3{ _Ÿ0Ôþ[ïÿS¿]Ïúß½Ñ×ÎŸÞÔíNCþ–ÀÈOÿú£ÇÏR¿iOú§|þ=øøÄ‡+Øý°íyÊ§ôòÓ¾>u§až×!ÇÖ÷H?¦!'ä7€ƒzÒqR~8ª¡ŒóÀaõfœœß Ž«[qF~ýl…üúÛmBýÃÉŸMþpâ§Ó>ÞCbÙ                                                                                                                                                                       àô.—Ë¥ú6PYßÒë[À[z~Ï¯xÈÎ¯xÈÎ¯x¢´Ëyû_?TßˆCö¿œ&¿¤öÿÉo éý °ÿM~ý'÷¿œª¿äõwGÿl§íïÀðþÿ&P}3Zvêþ¼¦6ýÃÉNÿlú§“?œüñä§>   A¼^$šWEó’±h^2˜Mÿlúg“?›þÙÔhŒ³r2_•eóey6ý³éN~ `M¾¶LæMâ’y—ÀhÞ%4ÚÝ»DÀq¬Së>¿þ‡±R/ýi¥`ùà(Ö	ÖÉ¯ÿA¬S¬Ûß ab=ù ½¿À*½úó[À[zhÝ¶ù- uÛ=ûÀ¬©§¶ém óþaÞ§ÞUþ¹Ï‡«?w¿…o/ÄG¬?ûðp)pÔü¿˜ÚìñBü5 q?Mò`j´Îeø{`ÛºÏÚw˜X­{þÐ’ß$Ýü÷Oß£.í}LhÇõiÿ»Ó÷˜‹ÓÿXþéÍÿôýúâÞÇõ7€F\'õÌöäâ»¾ìÿÐïé¥ôöïÏ¯®“û÷u{z!ƒ?,8\îÝåÈß	øôB:—âAíºÎêîñÿ­¯¹çéž<_ÆÃ¥<}9Há‘Ó“n|ÿßv}ÿgd}ý‹=äŽ®Ø“uìçUßÑúzŒ~øè:öã¨Ñd‡ÿÕwA²þ"«<üõ?€${>üõ/4Ød·úúzšå·þ¶ùõ¯smAõìÚ‚ê;!ØµÕwB°kªï„`×Tß	É®¨¾’]P}$»6 ú>Hvm@õ}­:¾þµªãË_«º¾þÅªóë_«:¿[Ôn×Tßá×_º€ê; Ýìn+½@°úøÓ­’Á) úøã­’þ ªŸUòÏ~¨>zfDëË?óP}ô¬•Þ ªžÉÕß$`Î ªžÉÑóOùmŸ+®>x&ÿn÷“þ#O7W]zä|X3ÿ¨T0ö½€êãåÞÊù_}P}¸<X;ÿóS@õÑ² ÿØþãßñÑ ªm’pÝ+/:l¾m”Ü{¾ëÞü/ß6ôæ¡Ê–ù;è½òšãf—üŸúWeûÿ”m_ÿ{Ã×½û1óÏ>ùû ¹½ê÷Làß¥SfÇú¸¹|ÊìYÿv w×@™]ëÿàá:(³oýûJVþzûÖ÷·fçúú7fçú¯"À®öÎ¯[äÏ¶s~ýSÝ¿úøÓ÷¯>|JŸþ«žþÀNý«O ~î“ýÀÝµU8{@þìxÑG›vêsMÕGLÁ	À+>£ðïŠª—Ž¥ø¾˜"³úú¿x§Ÿî'ü÷«‡Ù²Þ >á+ïðZäoÙè¼xÙhßgý\Cõ1òÌ¨óˆ?~Zõq1ÖëŒú¡‹Rÿˆžtün9"¿çù#ëdœ^ßŽìIÄñùàÀ†"NÉoGÖ—pb}8´NÁùàÐîßª]ÿ`3óëò‡S?œúé¤§óÕ                                                                                                                                                                     ò\>Tß
ã[@ªù <¿„ç7€ðüúgç7€(úGëÉ¯xÈÎ¯Œ÷¿~«¾M;mÿŸúÙÿ6¿Lí9Yëÿß †èŸMÿl)ý ŸþÙôÏvÒþTßžf´¿o …÷¿[@õMiÙiûÑþ•Sçç5ýÃÉŸNþxò   1üÀ0šŸGóŠlúgÓ?šWŒeÓ?›üáä§>´ÆY9š¯Ê²ù²<›þÙ|[&œüéô¶áäÌ—Ñ¼ML2oÍÛ„Eó6q´^,oyDëÅÒÿ€ÖËõ˜ß Òû@ûÖ«¥ÿmÚß š·^­¾þÐº[õÀš¶v)8–í:À¬éýÇ—Í&Vô[ÿgp÷ÜE—ðï’<Dç‘»ð"àPºá_„Fo¸å—ñÐß 5Pnùe|\Œï´n¨Ü
—a 0Xn…ËÐ¿a×WéF{Ùß òUãYºõû@3¾k¼¯0€§—¡“¾k¼oÝÿý¾¿´á'†þ‘~c¼¿ÀˆhïSú@~[<Owóí»g—öü"ôoÎuzÿgÙô?mÿçá¾ÿðéE<æ7€r×yýÂÝü©þGrÛÿ¶ÜÝŸŽ¿ýëÝ¶xÑ ÝãNÊ¯­»“þƒÆýôWÿŒ~èö>wOÀÐ|ªï‚h-Öéß3€'çŽê» Ù¸GîÔüCzþÄQ}${ÞmAÿß)½þ¢¡ú>HÖ­±Vþñªïƒd}9vÎ¯¡Þ þêg ‡2TdÏúú×yZå³üÆéõ/umBõ½ëÚ„ê{!ØµÕwB°kªï„`×Tß	Á®-¨¾‚][P}'[šn•ïUß	ÉV¨¿üÇÕwB°uê/<Tß	ÁÖÊ¿èP}'$[-ÿ‚S@õ}l½üóOÕ÷A´óÏ@õ]mV°¡þóžªï‚l3‚æŸ7€ê{ Ûªùç- ú.ˆ6½ÖûÚ¨¾²M­õ"ÿØøç 1õÁú¾Â î¯»öøÓMì?"ÿ„ßùÒ¿ÜùŸ/àñÚëŽ‰ýÇœý_:×^vèLì?!ÿð) sõUGÎ‡Íò, {õEÎÖùÇ¼ã—þµ¶Íßý2 çê‹Žœ£óÏªß9ô^}Í‘3!ÿ¼ÿãI`àêKŽœ›?øðìêw>fþÙáÁÿdC§ö²Ëƒh¿û¢Ê^þ¾ü»
ŠìùàÀÍÄ(²ïƒÿn ·×B‘Ýëÿàîz(²ë©ÿ¶ÿýÎ(²ûƒÿ{ ò·a0þvõõoHAýîÛ
Vß	Á
êûW€R‘_ÿvÈŸMÿpÝþ[çxIXõnÿþþî×’âþÕ‡ÏÞððoKiÿêƒg÷ø¹oëý¯›æ÷²èÈ= /ú;DÿÍ¾ð’ïèøèÈŸ= ¿ïÙ®Nÿõðs5Õ‡JŸ™'€›K?j }ß:|ò9?×Q}˜šò0ôÒá¡Oú¹‚êcä™±xú‹}Ÿö}ñÕÇÇ+cðò÷Æ?¯ú ˜à¶cï ÆüÒøÍ§Võgûà¿ý\Žé>âœú&ph	Oäê›Á‘õÇ›“ßŽ©“nn|ùê6ßüøò×’êòŸüñä§~:ížnbÝ                                                                                                                                                         €ÿ·w¯ÙmÂ@ F»º,"Þÿ>zÚ8	˜—0‚‘˜{ö4ØèðÛ         ûxŠ¾„æ7Éë€ìùõÏß $Ïo RÑ?µ™üú'¢jsù@7îÿxŠ¾ýåÿ¸Q}±ÿ°¾	H×ÿ5¿ÈÞß ìéÿq»üú'ïo æèŸ›þ¹éŸÜ-û»X,Mÿè«Ôª[ö÷P±[æ÷p¹{ö÷P±{æÿGü2wíO!ùÓS  €d<e˜šçŒSó¢Aj^1ÌÍKÆ¹éŸšü¹éŸ›ü¹ÉŸœümR%3gåÔÜ+ËÍ£²Ü|'7ý“Ó?9ýÓSŸÓ8»dæÖ%5/Ró=!™ùš Ô|MTj¦÷7 ¨™ê%¿þ¨ëµ¿h^ÕX“þ uúçV5Ö´¿h\åV 3õS€žœÊt¡r¥Ï^	èBÍD¿ñ'PaëœaØç«Y­ü ¿íÙjÔÿÚ”þ=˜¸·` :2Ûíð&žrÐº…÷ø6Æ' Ð¦ÅpÇ·1>€­¹Ç·áÐºÕrÇ·áÐ¶õrµû€;ö_Ï¯Ã¶ÒÕØÈ§W‚nÝ+¿þ-úŸb«\ýþ _%6Ó•lJÿþ|•ø¼¦¿·‚´æ×ß Ä{ìê¿­`#úwÜ3›þyìé¿Nÿ¾ü–Ø×ÿ¥ÜÏ?íìo zê¿nøO›oCÿXýçì{þWÿhƒÛý·óo‘Ïµd¢Æá¿= 3gÂì9r‹ÿAš›â”vÛÕÿ±ëô½™•¸{òO·´ú£!±²wõð][øßˆ1iQéðß%z›Æ¨wôëß¾¹×üúGšre|hµÉ¹'}ýðhCô2¤õhCô2äõhBô*äu4\Ç†Ñ«WúÇ"D¯B^GªU|½iÕËh ¢—!­ŠùL@ô2¤U5ÿû½yUÍÿöD¯B^•ó¿9 Ñ«WíüoN@ô2äU¿ÿ;½
yÕÏÿæ;Å±?Áç„vŸ¢W!¯ýýòï>D¯Bb§äß>Œ/<z;áì¿= ¯¹ Éíì_œm&—·ûé—y &—·ûé˜i¦W jçùsjþù˜^¨çÏ¹ù>ð¯ÿ­óo~á“þ‘Nxà·>³W fß)ï þhæ¯@È®SÞÿhþÅ/^˜
.rUý¥Ð?Ö•ùgF`éV‹œ{Çok~.ƒ —ü¯02b\|ð@þp—üÃÐ?Üõÿï /‰!õHFÿ`‹ñÏ¬?ú%ý#Í•ÿïÜüã_Ñ?ÌBþ“ë¿ö^…¼fûŸ^ß@5CþÜ¦ý/È¯òþò·brûE~‡îþò·# ¿Ç~¹O žùoÉåýþ¹O ÿ¶àÂþÑ»ÎÎ“ÿ†®½üâ<ùÀ›~s€÷ü÷pà´¿MÝô‰¯V]s?õ ø¼wêø¾”è=eÞ¸Ù ÎÉŸl &VOÏKˆÞGÖ”ÀÒgG–þè¹ùèdÃ°ÿÊ ,Ô_ïmGïU`ósãã?ŒÞ%vÙ€¢où·¡Qy7^"¾Qð÷žó»Ó¼ÿ£‘Ñ»Ä¯Ù¾oÆß­¯ofÂ½_þÉ-ÿÈŸúÙÉŸúé‰ŸžòéÉÎÜ;ø”                                                                                                                   €ƒþæõlä  0